;FLAVOR:Marlin
;TIME:1913
;Filament used: 2.16792m
;Layer height: 0.28
;MINX:84.008
;MINY:84.009
;MINZ:0.28
;MAXX:135.992
;MAXY:135.992
;MAXZ:19.88
;Generated with Cura_SteamEngine 5.2.1
M82 ;absolute extrusion mode
; Ender 3 Custom Start G-code
G92 E0 ; Reset Extruder
G28 ; Home all axes
M104 S175 ; Start heating up the nozzle most of the way
M190 S60 ; Start heating the bed, wait until target temperature reached
M109 S200 ; Finish heating the nozzle
G1 Z2.0 F3000 ; Move Z Axis up little to prevent scratching of Heat Bed
G1 X0.1 Y20 Z0.3 F5000.0 ; Move to start position
G1 X0.1 Y200.0 Z0.3 F1500.0 E15 ; Draw the first line
G1 X0.4 Y200.0 Z0.3 F5000.0 ; Move to side a little
G1 X0.4 Y20 Z0.3 F1500.0 E30 ; Draw the second line
G92 E0 ; Reset Extruder
G1 Z2.0 F3000 ; Move Z Axis up little to prevent scratching of Heat Bed
G1 X5 Y20 Z0.3 F5000.0 ; Move over to prevent blob squish
G92 E0
G92 E0
G1 F1500 E-6.5
;LAYER_COUNT:71
;LAYER:0
M107
G0 F6000 X91.377 Y91.868 Z0.28
;TYPE:SKIRT
G1 F1500 E0
G1 F1200 X91.85 Y91.396 E0.03111
G1 X92.228 Y91.036 E0.05542
G1 X92.955 Y90.386 E0.10083
G1 X93.566 Y89.87 E0.13807
G1 X94.12 Y89.424 E0.17119
G1 X94.514 Y89.126 E0.19419
G1 X95.01 Y88.768 E0.22267
G1 X95.471 Y88.452 E0.2487
G1 X96.191 Y87.986 E0.28863
G1 X96.545 Y87.767 E0.30802
G1 X97.051 Y87.471 E0.33531
G1 X98.02 Y86.94 E0.38677
G1 X98.754 Y86.573 E0.42498
G1 X99.604 Y86.184 E0.46851
G1 X100.398 Y85.853 E0.50856
G1 X101.22 Y85.542 E0.54948
G1 X101.774 Y85.35 E0.57679
G1 X102.565 Y85.1 E0.61541
G1 X102.921 Y84.998 E0.63266
G1 X103.922 Y84.731 E0.6809
G1 X104.293 Y84.642 E0.69866
G1 X104.808 Y84.532 E0.72319
G1 X105.493 Y84.402 E0.75565
G1 X106.01 Y84.316 E0.78006
G1 X106.713 Y84.217 E0.81311
G1 X107.196 Y84.16 E0.83576
G1 X107.873 Y84.095 E0.86743
G1 X108.387 Y84.058 E0.89143
G1 X109.082 Y84.024 E0.92383
G1 X109.582 Y84.011 E0.94712
G1 X110.179 Y84.009 E0.97492
G1 X110.724 Y84.021 E1.0003
G1 X111.885 Y84.081 E1.05443
G1 X112.451 Y84.127 E1.08087
G1 X113.23 Y84.209 E1.11735
G1 X113.744 Y84.279 E1.1415
G1 X114.413 Y84.386 E1.17305
G1 X114.931 Y84.482 E1.19758
G1 X115.822 Y84.674 E1.24002
G1 X116.447 Y84.827 E1.26998
G1 X116.853 Y84.935 E1.28955
G1 X117.88 Y85.236 E1.33938
G1 X118.53 Y85.451 E1.37126
G1 X119.037 Y85.631 E1.39631
G1 X119.518 Y85.814 E1.42027
G1 X120.169 Y86.08 E1.45302
G1 X120.645 Y86.288 E1.47721
G1 X121.185 Y86.539 E1.50494
G1 X121.644 Y86.766 E1.52878
G1 X122.302 Y87.11 E1.56335
G1 X123.188 Y87.608 E1.61068
G1 X123.897 Y88.037 E1.64927
G1 X124.318 Y88.308 E1.67258
G1 X124.802 Y88.636 E1.69981
G1 X125.245 Y88.952 E1.72515
G1 X125.863 Y89.417 E1.76116
G1 X126.415 Y89.853 E1.79391
G1 X126.73 Y90.117 E1.81305
G1 X127.557 Y90.841 E1.86423
G1 X127.946 Y91.202 E1.88894
G1 X128.478 Y91.722 E1.92358
G1 X128.833 Y92.091 E1.94742
G1 X129.531 Y92.861 E1.99582
G1 X129.996 Y93.404 E2.02911
G1 X130.44 Y93.947 E2.06177
G1 X130.785 Y94.398 E2.08821
G1 X131.376 Y95.223 E2.13546
G1 X131.68 Y95.673 E2.16075
G1 X132.149 Y96.41 E2.20143
G1 X132.733 Y97.41 E2.25535
G1 X133.042 Y97.975 E2.28534
G1 X133.281 Y98.449 E2.31006
G1 X133.708 Y99.361 E2.35695
G1 X134.012 Y100.063 E2.39257
G1 X134.279 Y100.721 E2.42563
G1 X134.463 Y101.218 E2.45031
G1 X134.691 Y101.883 E2.48305
G1 X134.845 Y102.367 E2.5067
G1 X135.043 Y103.045 E2.53959
G1 X135.173 Y103.531 E2.56301
G1 X135.33 Y104.177 E2.59397
G1 X135.436 Y104.661 E2.61704
G1 X135.576 Y105.376 E2.65096
G1 X135.662 Y105.875 E2.67454
G1 X135.75 Y106.468 E2.70246
G1 X135.816 Y107.001 E2.72747
G1 X135.884 Y107.689 E2.75966
G1 X135.958 Y108.747 E2.80904
G1 X135.987 Y109.504 E2.84432
G1 X135.992 Y110.009 E2.86783
G1 X135.983 Y110.648 E2.89759
G1 X135.962 Y111.192 E2.92294
G1 X135.915 Y111.93 E2.95737
G1 X135.827 Y112.886 E3.00208
G1 X135.726 Y113.704 E3.04046
G1 X135.649 Y114.206 E3.06411
G1 X135.531 Y114.869 E3.09546
G1 X135.438 Y115.332 E3.11745
G1 X135.284 Y116.024 E3.15046
G1 X135.151 Y116.558 E3.17609
G1 X134.969 Y117.218 E3.20797
G1 X134.829 Y117.685 E3.23067
G1 X134.62 Y118.33 E3.26224
G1 X134.454 Y118.806 E3.28571
G1 X134.199 Y119.485 E3.31949
G1 X134.003 Y119.971 E3.34389
G1 X133.766 Y120.521 E3.37178
G1 X133.549 Y120.994 E3.39601
G1 X133.237 Y121.633 E3.42912
G1 X132.859 Y122.358 E3.46719
G1 X132.669 Y122.701 E3.48545
G1 X132.143 Y123.6 E3.53395
G1 X131.689 Y124.314 E3.57335
G1 X131.163 Y125.082 E3.61669
G1 X130.666 Y125.76 E3.65584
G1 X130.405 Y126.099 E3.67576
G1 X130.041 Y126.547 E3.70264
G1 X129.549 Y127.121 E3.73784
G1 X128.9 Y127.837 E3.78284
G1 X128.365 Y128.393 E3.81877
G1 X127.999 Y128.75 E3.84257
G1 X127.597 Y129.124 E3.86814
G1 X126.722 Y129.889 E3.92226
G1 X126.17 Y130.343 E3.95554
G1 X125.3 Y131.006 E4.00647
G1 X124.674 Y131.452 E4.04227
G1 X124.279 Y131.717 E4.06441
G1 X123.728 Y132.069 E4.09486
G1 X123.257 Y132.354 E4.12049
G1 X122.654 Y132.698 E4.15282
G1 X122.308 Y132.886 E4.17116
G1 X121.436 Y133.338 E4.21689
G1 X121.05 Y133.526 E4.23688
G1 X120.56 Y133.75 E4.26197
G1 X119.929 Y134.02 E4.29393
G1 X119.483 Y134.2 E4.31632
G1 X118.881 Y134.427 E4.34628
G1 X118.353 Y134.61 E4.3723
G1 X117.409 Y134.907 E4.41838
G1 X116.71 Y135.106 E4.45223
G1 X116.006 Y135.288 E4.48608
G1 X115.481 Y135.405 E4.51113
G1 X114.538 Y135.586 E4.55584
G1 X113.751 Y135.715 E4.59298
G1 X113.077 Y135.809 E4.62466
G1 X112.545 Y135.865 E4.64957
G1 X111.501 Y135.943 E4.69832
G1 X110.813 Y135.975 E4.73039
G1 X110.008 Y135.992 E4.76789
G1 X109.523 Y135.988 E4.79047
G1 X108.869 Y135.968 E4.82094
G1 X108.351 Y135.94 E4.84509
G1 X107.632 Y135.884 E4.87867
G1 X107.128 Y135.833 E4.90226
G1 X106.445 Y135.748 E4.93431
G1 X105.949 Y135.675 E4.95766
G1 X105.294 Y135.563 E4.9886
G1 X104.803 Y135.467 E5.01189
G1 X104.175 Y135.33 E5.04182
G1 X103.632 Y135.197 E5.06786
G1 X102.575 Y134.903 E5.11894
G1 X102.026 Y134.733 E5.1457
G1 X101.271 Y134.477 E5.18283
G1 X100.409 Y134.151 E5.22574
G1 X99.59 Y133.81 E5.26705
G1 X98.737 Y133.418 E5.31076
G1 X98.036 Y133.068 E5.34724
G1 X97.058 Y132.534 E5.39913
G1 X96.505 Y132.209 E5.429
G1 X95.513 Y131.575 E5.48382
G1 X94.885 Y131.146 E5.51923
G1 X94.493 Y130.861 E5.5418
G1 X94.014 Y130.495 E5.56987
G1 X93.581 Y130.146 E5.59577
G1 X92.991 Y129.646 E5.63178
G1 X92.357 Y129.08 E5.67135
G1 X92.056 Y128.796 E5.69062
G1 X91.419 Y128.166 E5.73234
G1 X90.986 Y127.715 E5.76145
G1 X90.492 Y127.174 E5.79556
G1 X90.156 Y126.783 E5.81957
G1 X89.511 Y125.983 E5.86742
G1 X89.054 Y125.382 E5.90258
G1 X88.62 Y124.781 E5.9371
G1 X88.343 Y124.371 E5.96014
G1 X87.962 Y123.779 E5.99292
G1 X87.708 Y123.364 E6.01557
G1 X87.359 Y122.765 E6.04786
G1 X87.118 Y122.329 E6.07105
G1 X86.806 Y121.733 E6.10238
G1 X86.565 Y121.245 E6.12772
G1 X86.273 Y120.613 E6.16014
G1 X86.078 Y120.165 E6.18289
G1 X85.812 Y119.515 E6.21559
G1 X85.638 Y119.059 E6.23832
G1 X85.413 Y118.431 E6.26938
G1 X85.239 Y117.904 E6.29522
G1 X85.031 Y117.216 E6.32869
G1 X84.904 Y116.762 E6.35064
G1 X84.737 Y116.11 E6.38198
G1 X84.622 Y115.615 E6.40565
G1 X84.482 Y114.94 E6.43775
G1 X84.392 Y114.451 E6.4609
G1 X84.281 Y113.76 E6.49349
G1 X84.21 Y113.237 E6.51806
G1 X84.134 Y112.557 E6.54992
G1 X84.091 Y112.071 E6.57264
G1 X84.045 Y111.385 E6.60466
G1 X84.022 Y110.877 E6.62834
G1 X84.008 Y110.202 E6.65977
G1 X84.01 Y109.694 E6.68343
G1 X84.026 Y109.065 E6.71273
G1 X84.054 Y108.512 E6.73851
G1 X84.145 Y107.384 E6.79121
G1 X84.198 Y106.9 E6.81388
G1 X84.308 Y106.095 E6.85171
G1 X84.372 Y105.699 E6.87039
G1 X84.568 Y104.65 E6.92008
G1 X84.715 Y104.002 E6.95102
G1 X84.902 Y103.257 E6.98679
G1 X85.116 Y102.49 E7.02387
G1 X85.263 Y102.023 E7.04666
G1 X85.486 Y101.363 E7.0791
G1 X85.652 Y100.905 E7.10179
G1 X85.905 Y100.253 E7.13435
G1 X86.104 Y99.774 E7.1585
G1 X86.378 Y99.156 E7.18998
G1 X86.583 Y98.72 E7.21242
G1 X86.892 Y98.098 E7.24476
G1 X87.141 Y97.625 E7.26965
G1 X87.468 Y97.04 E7.30085
G1 X87.728 Y96.599 E7.32469
G1 X88.106 Y95.991 E7.35803
G1 X88.368 Y95.59 E7.38033
G1 X88.755 Y95.024 E7.41226
G1 X89.059 Y94.602 E7.43648
G1 X89.464 Y94.066 E7.46776
G1 X89.778 Y93.669 E7.49133
G1 X90.229 Y93.126 E7.5242
G1 X90.563 Y92.742 E7.54789
G1 X91.019 Y92.242 E7.5794
G1 X91.377 Y91.868 E7.60351
G0 F6000 X91.66 Y92.151
G1 F1200 X92.133 Y91.679 E7.63463
G1 X92.497 Y91.332 E7.65804
G1 X92.929 Y90.94 E7.68521
G1 X93.824 Y90.176 E7.74
G1 X94.369 Y89.737 E7.77259
G1 X94.748 Y89.45 E7.79472
G1 X95.244 Y89.092 E7.82321
G1 X95.689 Y88.788 E7.8483
G1 X96.409 Y88.322 E7.88824
G1 X96.749 Y88.111 E7.90687
G1 X97.246 Y87.82 E7.93369
G1 X98.201 Y87.297 E7.98439
G1 X98.923 Y86.935 E8.022
G1 X99.761 Y86.552 E8.0649
G1 X100.543 Y86.226 E8.10435
G1 X101.351 Y85.92 E8.14458
G1 X102.266 Y85.611 E8.18955
G1 X103.025 Y85.384 E8.22644
G1 X104.015 Y85.12 E8.27415
G1 X104.386 Y85.031 E8.29192
G1 X104.883 Y84.925 E8.31558
G1 X105.568 Y84.795 E8.34805
G1 X106.066 Y84.713 E8.37155
G1 X106.769 Y84.614 E8.4046
G1 X107.234 Y84.559 E8.42641
G1 X107.911 Y84.494 E8.45808
G1 X108.406 Y84.458 E8.48119
G1 X109.101 Y84.424 E8.51359
G1 X109.583 Y84.411 E8.53604
G1 X110.18 Y84.409 E8.56384
G1 X110.706 Y84.42 E8.58834
G1 X111.484 Y84.456 E8.6246
G1 X112.419 Y84.526 E8.66826
G1 X113.185 Y84.607 E8.70413
G1 X113.681 Y84.674 E8.72743
G1 X114.35 Y84.781 E8.75898
G1 X114.849 Y84.873 E8.78261
G1 X115.726 Y85.063 E8.82439
G1 X116.743 Y85.32 E8.87324
G1 X117.401 Y85.508 E8.9051
G1 X118.118 Y85.733 E8.94009
G1 X118.903 Y86.008 E8.97883
G1 X119.366 Y86.185 E9.00191
G1 X120.017 Y86.451 E9.03465
G1 X120.476 Y86.651 E9.05797
G1 X121.016 Y86.902 E9.08569
G1 X121.459 Y87.12 E9.10868
G1 X122.117 Y87.464 E9.14326
G1 X122.99 Y87.955 E9.1899
G1 X123.688 Y88.378 E9.2279
G1 X124.094 Y88.639 E9.25038
G1 X124.578 Y88.967 E9.2776
G1 X125.004 Y89.272 E9.302
G1 X125.622 Y89.737 E9.33801
G1 X126.164 Y90.165 E9.37017
G1 X126.469 Y90.419 E9.38865
G1 X127.284 Y91.134 E9.43913
G1 X127.93 Y91.741 E9.48041
G1 X128.196 Y92.005 E9.49786
G1 X128.538 Y92.361 E9.52085
G1 X129.227 Y93.121 E9.56861
G1 X129.692 Y93.664 E9.6019
G1 X130.129 Y94.198 E9.63403
G1 X130.461 Y94.633 E9.65951
G1 X131.045 Y95.447 E9.70616
G1 X131.349 Y95.897 E9.73145
G1 X131.81 Y96.622 E9.77146
G1 X132.386 Y97.609 E9.82467
G1 X132.689 Y98.164 E9.85411
G1 X132.92 Y98.621 E9.87796
G1 X133.341 Y99.52 E9.92418
G1 X133.645 Y100.222 E9.9598
G1 X133.908 Y100.869 E9.99232
G1 X134.085 Y101.348 E10.0161
G1 X134.313 Y102.013 E10.04884
G1 X134.461 Y102.48 E10.07165
G1 X134.659 Y103.158 E10.10454
G1 X134.784 Y103.626 E10.12709
G1 X134.941 Y104.272 E10.15805
G1 X135.043 Y104.738 E10.18026
G1 X135.183 Y105.453 E10.21419
G1 X135.266 Y105.934 E10.23691
G1 X135.354 Y106.527 E10.26483
G1 X135.418 Y107.04 E10.2889
G1 X135.516 Y108.097 E10.33833
G1 X135.559 Y108.772 E10.36983
G1 X135.588 Y109.516 E10.4045
G1 X135.592 Y110.003 E10.42717
G1 X135.583 Y110.642 E10.45693
G1 X135.563 Y111.167 E10.4814
G1 X135.486 Y112.266 E10.53269
G1 X135.391 Y113.185 E10.57572
G1 X135.33 Y113.652 E10.59765
G1 X135.255 Y114.136 E10.62045
G1 X135.137 Y114.799 E10.65181
G1 X135.048 Y115.245 E10.67299
G1 X134.894 Y115.937 E10.706
G1 X134.766 Y116.452 E10.73071
G1 X134.584 Y117.112 E10.76259
G1 X134.449 Y117.561 E10.78442
G1 X134.24 Y118.206 E10.81599
G1 X134.079 Y118.666 E10.83868
G1 X133.824 Y119.345 E10.87246
G1 X133.636 Y119.813 E10.89594
G1 X133.399 Y120.363 E10.92383
G1 X133.189 Y120.819 E10.9472
G1 X132.877 Y121.458 E10.98032
G1 X132.506 Y122.171 E11.01774
G1 X132.003 Y123.057 E11.06518
G1 X131.551 Y123.792 E11.10536
G1 X131.049 Y124.547 E11.14758
G1 X130.839 Y124.847 E11.16463
G1 X130.349 Y125.516 E11.20324
G1 X130.088 Y125.855 E11.22317
G1 X129.737 Y126.286 E11.24905
G1 X129.012 Y127.124 E11.30065
G1 X128.606 Y127.567 E11.32863
G1 X128.079 Y128.113 E11.36396
G1 X127.726 Y128.457 E11.38691
G1 X127.324 Y128.831 E11.41248
G1 X126.46 Y129.586 E11.46591
G1 X125.918 Y130.032 E11.49859
G1 X125.614 Y130.269 E11.51654
G1 X124.779 Y130.89 E11.565
G1 X124.064 Y131.38 E11.60536
G1 X123.513 Y131.732 E11.6358
G1 X123.058 Y132.006 E11.66053
G1 X122.123 Y132.532 E11.71049
G1 X121.539 Y132.838 E11.74119
G1 X120.874 Y133.167 E11.77574
G1 X120.403 Y133.382 E11.79984
G1 X119.772 Y133.652 E11.8318
G1 X119.342 Y133.825 E11.85339
G1 X118.74 Y134.052 E11.88334
G1 X118.231 Y134.23 E11.90845
G1 X117.628 Y134.423 E11.93793
G1 X116.6 Y134.721 E11.98777
G1 X115.909 Y134.9 E12.02101
G1 X115.403 Y135.013 E12.04515
G1 X114.824 Y135.128 E12.07264
G1 X113.687 Y135.32 E12.12633
G1 X113.025 Y135.412 E12.15745
G1 X112.512 Y135.466 E12.18147
G1 X111.482 Y135.544 E12.22957
G1 X110.794 Y135.576 E12.26164
G1 X110.003 Y135.592 E12.29848
G1 X109.535 Y135.588 E12.32028
G1 X108.881 Y135.568 E12.35074
G1 X108.382 Y135.541 E12.37401
G1 X107.663 Y135.485 E12.40759
G1 X107.177 Y135.436 E12.43034
G1 X106.494 Y135.351 E12.46239
G1 X106.016 Y135.28 E12.48489
G1 X105.361 Y135.168 E12.51583
G1 X104.889 Y135.076 E12.53822
G1 X104.261 Y134.939 E12.56815
G1 X103.737 Y134.811 E12.59327
G1 X102.694 Y134.521 E12.64368
G1 X102.145 Y134.351 E12.67044
G1 X101.403 Y134.099 E12.70693
G1 X101.069 Y133.977 E12.72349
G1 X100.217 Y133.642 E12.76612
G1 X99.399 Y133.287 E12.80764
G1 X98.906 Y133.056 E12.83299
G1 X98.217 Y132.712 E12.86885
G1 X97.253 Y132.185 E12.92001
G1 X96.94 Y132.004 E12.93684
G1 X96.409 Y131.679 E12.96583
G1 X95.73 Y131.24 E13.00348
G1 X95.114 Y130.818 E13.03825
G1 X94.736 Y130.543 E13.06002
G1 X94.257 Y130.177 E13.08809
G1 X93.84 Y129.841 E13.11302
G1 X93.25 Y129.341 E13.14903
G1 X92.626 Y128.783 E13.18801
G1 X91.947 Y128.131 E13.23185
G1 X91.275 Y127.438 E13.27679
G1 X90.789 Y126.907 E13.31031
G1 X90.466 Y126.53 E13.33343
G1 X89.829 Y125.741 E13.38065
G1 X89.372 Y125.14 E13.4158
G1 X88.946 Y124.55 E13.44969
G1 X88.679 Y124.155 E13.47189
G1 X88.298 Y123.563 E13.50467
G1 X88.053 Y123.162 E13.52655
G1 X87.704 Y122.563 E13.55883
G1 X87.472 Y122.143 E13.58118
G1 X87.16 Y121.547 E13.6125
G1 X86.928 Y121.077 E13.63691
G1 X86.636 Y120.445 E13.66933
G1 X86.449 Y120.014 E13.6912
G1 X86.183 Y119.364 E13.72391
G1 X86.014 Y118.924 E13.74585
G1 X85.789 Y118.296 E13.77692
G1 X85.622 Y117.789 E13.80177
G1 X85.414 Y117.101 E13.83524
G1 X85.291 Y116.663 E13.85642
G1 X85.124 Y116.011 E13.88776
G1 X85.014 Y115.534 E13.91056
G1 X84.874 Y114.859 E13.94266
G1 X84.787 Y114.387 E13.96501
G1 X84.676 Y113.696 E13.99759
G1 X84.608 Y113.192 E14.02128
G1 X84.532 Y112.512 E14.05314
G1 X84.49 Y112.044 E14.07502
G1 X84.444 Y111.358 E14.10703
G1 X84.422 Y110.869 E14.12982
G1 X84.408 Y110.194 E14.16126
G1 X84.409 Y109.704 E14.18408
G1 X84.425 Y109.075 E14.21338
G1 X84.452 Y108.543 E14.23818
G1 X84.543 Y107.427 E14.29032
G1 X84.64 Y106.591 E14.32951
G1 X84.765 Y105.77 E14.36818
G1 X84.959 Y104.735 E14.41721
G1 X85.103 Y104.099 E14.44757
G1 X85.29 Y103.354 E14.48334
G1 X85.501 Y102.601 E14.51975
G1 X85.642 Y102.151 E14.54171
G1 X85.865 Y101.491 E14.57415
G1 X86.025 Y101.049 E14.59604
G1 X86.278 Y100.397 E14.62861
G1 X86.47 Y99.936 E14.65186
G1 X86.744 Y99.318 E14.68334
G1 X86.941 Y98.898 E14.70494
G1 X87.25 Y98.276 E14.73728
G1 X87.49 Y97.82 E14.76127
G1 X87.817 Y97.235 E14.79248
G1 X88.068 Y96.81 E14.81546
G1 X88.446 Y96.202 E14.8488
G1 X88.698 Y95.816 E14.87026
G1 X89.085 Y95.25 E14.90219
G1 X89.378 Y94.843 E14.92554
G1 X89.783 Y94.307 E14.95683
G1 X90.086 Y93.924 E14.97957
G1 X90.537 Y93.381 E15.01243
G1 X90.859 Y93.011 E15.03527
G1 X91.315 Y92.511 E15.06678
G1 X91.66 Y92.151 E15.09
G0 F6000 X91.942 Y92.434
G1 F1200 X92.415 Y91.962 E15.12112
G1 X92.766 Y91.628 E15.14368
G1 X93.471 Y90.997 E15.18773
G1 X94.082 Y90.481 E15.22497
G1 X94.617 Y90.051 E15.25693
G1 X94.982 Y89.774 E15.27827
G1 X95.478 Y89.416 E15.30675
G1 X95.906 Y89.124 E15.33088
G1 X96.626 Y88.658 E15.37082
G1 X96.954 Y88.455 E15.38878
G1 X97.44 Y88.17 E15.41501
G1 X98.06 Y87.825 E15.44805
G1 X98.769 Y87.456 E15.48527
G1 X99.093 Y87.298 E15.50205
G1 X99.917 Y86.92 E15.54427
G1 X100.386 Y86.721 E15.56799
G1 X101.139 Y86.424 E15.60568
G1 X102.036 Y86.106 E15.65
G1 X102.8 Y85.865 E15.6873
G1 X103.13 Y85.77 E15.70329
G1 X104.109 Y85.509 E15.75047
G1 X104.48 Y85.42 E15.76823
G1 X104.957 Y85.318 E15.79095
G1 X105.642 Y85.188 E15.82341
G1 X106.122 Y85.109 E15.84606
G1 X106.825 Y85.01 E15.87912
G1 X107.272 Y84.957 E15.90008
G1 X107.949 Y84.892 E15.93175
G1 X108.426 Y84.857 E15.95402
