;FLAVOR:Marlin
;TIME:1909
;Filament used: 2.15274m
;Layer height: 0.28
;MINX:84.011
;MINY:84.011
;MINZ:0.28
;MAXX:135.989
;MAXY:135.989
;MAXZ:19.88
;Generated with Cura_SteamEngine 5.2.1
M82 ;absolute extrusion mode
; Ender 3 Custom Start G-code
G92 E0 ; Reset Extruder
G28 ; Home all axes
M104 S175 ; Start heating up the nozzle most of the way
M190 S60 ; Start heating the bed, wait until target temperature reached
M109 S200 ; Finish heating the nozzle
G1 Z2.0 F3000 ; Move Z Axis up little to prevent scratching of Heat Bed
G1 X0.1 Y20 Z0.3 F5000.0 ; Move to start position
G1 X0.1 Y200.0 Z0.3 F1500.0 E15 ; Draw the first line
G1 X0.4 Y200.0 Z0.3 F5000.0 ; Move to side a little
G1 X0.4 Y20 Z0.3 F1500.0 E30 ; Draw the second line
G92 E0 ; Reset Extruder
G1 Z2.0 F3000 ; Move Z Axis up little to prevent scratching of Heat Bed
G1 X5 Y20 Z0.3 F5000.0 ; Move over to prevent blob squish
G92 E0
G92 E0
G1 F1500 E-6.5
;LAYER_COUNT:71
;LAYER:0
M107
G0 F6000 X90.943 Y92.421 Z0.28
;TYPE:SKIRT
G1 F1500 E0
G1 F1200 X92.496 Y90.87 E0.1022
G1 X92.978 Y90.401 E0.13352
G1 X93.677 Y89.776 E0.17718
G1 X94.654 Y89.062 E0.23353
G1 X95.237 Y88.683 E0.26591
G1 X97.172 Y87.465 E0.37237
G1 X97.761 Y87.106 E0.40449
G1 X98.582 Y86.653 E0.44815
G1 X99.684 Y86.177 E0.50405
G1 X100.341 Y85.935 E0.53665
G1 X102.486 Y85.184 E0.64248
G1 X103.183 Y84.951 E0.6767
G1 X104.084 Y84.692 E0.72035
G1 X105.272 Y84.473 E0.7766
G1 X105.873 Y84.396 E0.80481
G1 X108.292 Y84.124 E0.91816
G1 X108.958 Y84.06 E0.94932
G1 X109.894 Y84.011 E0.99296
G1 X111.09 Y84.063 E1.0487
G1 X111.89 Y84.143 E1.08614
G1 X113.905 Y84.37 E1.18056
G1 X114.735 Y84.475 E1.21952
G1 X115.659 Y84.634 E1.26318
G1 X116.831 Y84.955 E1.31976
G1 X117.488 Y85.175 E1.35202
G1 X119.629 Y85.924 E1.45764
G1 X120.282 Y86.163 E1.49002
G1 X121.148 Y86.523 E1.53369
G1 X122.223 Y87.099 E1.59048
G1 X122.969 Y87.554 E1.63117
G1 X124.719 Y88.655 E1.72744
G1 X125.326 Y89.048 E1.76111
G1 X126.091 Y89.591 E1.80479
G1 X127.002 Y90.382 E1.86097
G1 X127.579 Y90.943 E1.89845
G1 X129.122 Y92.488 E2.00012
G1 X129.591 Y92.969 E2.0314
G1 X130.216 Y93.667 E2.07503
G1 X130.942 Y94.66 E2.13231
G1 X131.405 Y95.375 E2.17197
G1 X132.542 Y97.185 E2.2715
G1 X132.9 Y97.774 E2.3036
G1 X133.352 Y98.595 E2.34724
G1 X133.815 Y99.666 E2.40157
G1 X134.058 Y100.322 E2.43414
G1 X134.814 Y102.481 E2.54066
G1 X135.048 Y103.18 E2.57498
G1 X135.308 Y104.081 E2.61865
G1 X135.531 Y105.301 E2.6764
G1 X135.623 Y106.036 E2.71089
G1 X135.857 Y108.111 E2.80812
G1 X135.938 Y108.929 E2.8464
G1 X135.989 Y109.866 E2.8901
G1 X135.939 Y111.061 E2.94579
G1 X135.857 Y111.891 E2.98463
G1 X135.63 Y113.905 E3.079
G1 X135.525 Y114.733 E3.11786
G1 X135.367 Y115.657 E3.16151
G1 X135.043 Y116.835 E3.2184
G1 X134.775 Y117.631 E3.25751
G1 X134.074 Y119.635 E3.35637
G1 X133.835 Y120.287 E3.38871
G1 X133.475 Y121.153 E3.43238
G1 X132.901 Y122.223 E3.48892
G1 X132.446 Y122.969 E3.5296
G1 X131.424 Y124.595 E3.61903
G1 X130.938 Y125.345 E3.66065
G1 X130.394 Y126.109 E3.70432
G1 X129.606 Y127.014 E3.76019
G1 X129.059 Y127.576 E3.79671
G1 X127.504 Y129.13 E3.89908
G1 X127.022 Y129.599 E3.93039
G1 X126.323 Y130.224 E3.97406
G1 X125.346 Y130.938 E4.0304
G1 X124.763 Y131.317 E4.06278
G1 X122.828 Y132.535 E4.16925
G1 X122.239 Y132.894 E4.20137
G1 X121.418 Y133.347 E4.24503
G1 X120.316 Y133.823 E4.30093
G1 X119.659 Y134.065 E4.33353
G1 X117.514 Y134.816 E4.43935
G1 X116.817 Y135.049 E4.47357
G1 X115.916 Y135.308 E4.51723
G1 X114.728 Y135.527 E4.57348
G1 X114.127 Y135.604 E4.60169
G1 X111.708 Y135.876 E4.71504
G1 X111.042 Y135.94 E4.74619
G1 X110.106 Y135.989 E4.78984
G1 X108.91 Y135.937 E4.84558
G1 X108.11 Y135.857 E4.88302
G1 X106.095 Y135.63 E4.97744
G1 X105.265 Y135.525 E5.01639
G1 X104.341 Y135.366 E5.06005
G1 X103.165 Y135.043 E5.11684
G1 X102.367 Y134.775 E5.15604
G1 X100.522 Y134.13 E5.24705
G1 X99.713 Y133.834 E5.28716
G1 X98.846 Y133.475 E5.33085
G1 X97.772 Y132.899 E5.3876
G1 X97.031 Y132.446 E5.42804
G1 X95.281 Y131.345 E5.52432
G1 X94.674 Y130.952 E5.55799
G1 X93.909 Y130.409 E5.60167
G1 X92.997 Y129.618 E5.65789
G1 X92.546 Y129.181 E5.68713
G1 X90.87 Y127.504 E5.79753
G1 X90.401 Y127.022 E5.82884
G1 X89.776 Y126.323 E5.8725
G1 X89.062 Y125.346 E5.92885
G1 X88.683 Y124.763 E5.96123
G1 X87.457 Y122.815 E6.06841
G1 X87.096 Y122.221 E6.10077
G1 X86.643 Y121.399 E6.14448
G1 X86.17 Y120.299 E6.20023
G1 X85.931 Y119.648 E6.23252
G1 X85.186 Y117.519 E6.33755
G1 X84.952 Y116.82 E6.37188
G1 X84.692 Y115.919 E6.41554
G1 X84.47 Y114.713 E6.47264
G1 X84.394 Y114.114 E6.50076
G1 X84.126 Y111.726 E6.61265
G1 X84.062 Y111.071 E6.6433
G1 X84.011 Y110.134 E6.68699
G1 X84.061 Y108.939 E6.74269
G1 X84.143 Y108.107 E6.78161
G1 X84.377 Y106.035 E6.87871
G1 X84.473 Y105.275 E6.91438
G1 X84.631 Y104.351 E6.95803
G1 X84.957 Y103.162 E7.01544
G1 X85.225 Y102.367 E7.0545
G1 X85.931 Y100.351 E7.15397
G1 X86.174 Y99.691 E7.18671
G1 X86.536 Y98.826 E7.23038
G1 X87.104 Y97.767 E7.28633
G1 X87.555 Y97.029 E7.32661
G1 X88.658 Y95.277 E7.42301
G1 X89.054 Y94.666 E7.45691
G1 X89.597 Y93.902 E7.50056
G1 X90.384 Y92.996 E7.55644
G1 X90.943 Y92.421 E7.59378
G0 F6000 X91.225 Y92.704
G1 F1200 X92.674 Y91.256 E7.68917
G1 X93.257 Y90.688 E7.72707
G1 X93.944 Y90.075 E7.76994
G1 X94.872 Y89.398 E7.82343
G1 X95.585 Y88.935 E7.86301
G1 X97.25 Y87.887 E7.95462
G1 X97.969 Y87.448 E7.99385
G1 X98.775 Y87.003 E8.03672
G1 X99.822 Y86.552 E8.0898
G1 X100.644 Y86.251 E8.13057
G1 X102.474 Y85.611 E8.22084
G1 X103.309 Y85.331 E8.26185
G1 X104.194 Y85.077 E8.30472
G1 X105.323 Y84.87 E8.35817
G1 X106.087 Y84.773 E8.39403
G1 X108.16 Y84.54 E8.49116
G1 X108.996 Y84.459 E8.53027
G1 X109.915 Y84.41 E8.57313
G1 X111.05 Y84.461 E8.62603
G1 X111.699 Y84.525 E8.6564
G1 X114.02 Y84.787 E8.76516
G1 X114.684 Y84.872 E8.79633
G1 X115.591 Y85.028 E8.83918
G1 X116.704 Y85.335 E8.89295
G1 X117.494 Y85.6 E8.93175
G1 X119.347 Y86.248 E9.02315
G1 X120.144 Y86.539 E9.06266
G1 X120.994 Y86.892 E9.10552
G1 X122.015 Y87.44 E9.15947
G1 X122.629 Y87.814 E9.19295
G1 X124.502 Y88.991 E9.29596
G1 X125.109 Y89.384 E9.32963
G1 X125.859 Y89.918 E9.3725
G1 X126.724 Y90.669 E9.42584
G1 X127.296 Y91.225 E9.46298
G1 X128.744 Y92.674 E9.55837
G1 X129.304 Y93.248 E9.59571
G1 X129.918 Y93.934 E9.63858
G1 X130.607 Y94.878 E9.693
G1 X130.986 Y95.462 E9.72542
G1 X132.2 Y97.392 E9.83159
G1 X132.558 Y97.981 E9.86368
G1 X133.002 Y98.788 E9.90657
G1 X133.44 Y99.805 E9.95813
G1 X133.749 Y100.644 E9.99976
G1 X134.435 Y102.608 E10.09664
G1 X134.669 Y103.307 E10.13096
G1 X134.923 Y104.192 E10.17383
G1 X135.134 Y105.351 E10.22869
G1 X135.225 Y106.081 E10.26294
G1 X135.476 Y108.313 E10.36753
G1 X135.54 Y108.968 E10.39817
G1 X135.589 Y109.887 E10.44103
G1 X135.541 Y111.022 E10.49392
G1 X135.477 Y111.682 E10.5248
G1 X135.232 Y113.86 E10.62686
G1 X135.128 Y114.682 E10.66544
G1 X134.972 Y115.589 E10.70829
G1 X134.664 Y116.708 E10.76233
G1 X134.398 Y117.499 E10.80119
G1 X133.753 Y119.345 E10.89225
G1 X133.459 Y120.149 E10.93211
G1 X133.105 Y120.999 E10.97498
G1 X132.56 Y122.015 E11.02867
G1 X132.186 Y122.629 E11.06215
G1 X131.085 Y124.382 E11.15854
G1 X130.602 Y125.127 E11.19988
G1 X130.068 Y125.877 E11.24275
G1 X129.319 Y126.736 E11.29582
G1 X128.886 Y127.182 E11.32477
G1 X127.225 Y128.843 E11.43415
G1 X126.743 Y129.312 E11.46546
G1 X126.056 Y129.925 E11.50833
G1 X125.128 Y130.602 E11.56182
G1 X124.415 Y131.065 E11.60141
G1 X122.75 Y132.113 E11.69302
G1 X122.031 Y132.552 E11.73224
G1 X121.225 Y132.997 E11.77511
G1 X120.178 Y133.448 E11.8282
G1 X119.356 Y133.749 E11.86896
G1 X117.526 Y134.389 E11.95923
G1 X116.691 Y134.669 E12.00024
G1 X115.806 Y134.923 E12.04311
G1 X114.677 Y135.13 E12.09656
G1 X113.913 Y135.227 E12.13242
G1 X111.84 Y135.46 E12.22956
G1 X111.004 Y135.541 E12.26867
G1 X110.085 Y135.59 E12.31152
G1 X108.95 Y135.539 E12.36442
G1 X108.301 Y135.475 E12.39479
G1 X105.98 Y135.213 E12.50355
G1 X105.316 Y135.128 E12.53472
G1 X104.409 Y134.972 E12.57758
G1 X103.292 Y134.664 E12.63153
G1 X102.499 Y134.397 E12.67049
G1 X100.505 Y133.699 E12.76887
G1 X99.85 Y133.459 E12.80135
G1 X99 Y133.105 E12.84422
G1 X97.98 Y132.557 E12.89814
G1 X97.368 Y132.184 E12.93151
G1 X95.498 Y131.009 E13.03435
G1 X94.891 Y130.616 E13.06802
G1 X94.141 Y130.082 E13.11089
G1 X93.276 Y129.331 E13.16423
G1 X92.703 Y128.774 E13.20144
G1 X91.256 Y127.326 E13.29676
G1 X90.688 Y126.743 E13.33466
G1 X90.075 Y126.056 E13.37754
G1 X89.398 Y125.128 E13.43103
G1 X88.936 Y124.416 E13.47055
G1 X87.887 Y122.75 E13.56222
G1 X87.438 Y122.013 E13.60241
G1 X86.994 Y121.206 E13.64529
G1 X86.545 Y120.161 E13.69826
G1 X86.306 Y119.51 E13.73055
G1 X85.565 Y117.392 E13.83503
G1 X85.331 Y116.693 E13.86936
G1 X85.077 Y115.808 E13.91223
G1 X84.867 Y114.662 E13.96648
G1 X84.773 Y113.913 E14.00163
G1 X84.54 Y111.84 E14.09876
G1 X84.46 Y111.032 E14.13657
G1 X84.411 Y110.113 E14.17943
G1 X84.459 Y108.978 E14.23232
G1 X84.523 Y108.318 E14.2632
G1 X84.775 Y106.079 E14.36812
G1 X84.87 Y105.326 E14.40346
G1 X85.026 Y104.418 E14.44636
G1 X85.337 Y103.289 E14.50089
G1 X85.603 Y102.499 E14.5397
G1 X86.248 Y100.654 E14.63071
G1 X86.55 Y99.83 E14.67157
G1 X86.905 Y98.98 E14.71447
G1 X87.446 Y97.975 E14.76761
G1 X87.894 Y97.242 E14.80762
G1 X88.916 Y95.617 E14.897
G1 X89.39 Y94.884 E14.93765
G1 X89.924 Y94.134 E14.98052
G1 X90.671 Y93.274 E15.03356
G1 X91.225 Y92.704 E15.07057
G0 F6000 X91.508 Y92.987
G1 F1200 X92.957 Y91.539 E15.16596
G1 X93.536 Y90.975 E15.2036
G1 X94.21 Y90.374 E15.24565
G1 X95.09 Y89.733 E15.29634
G1 X95.673 Y89.354 E15.32872
G1 X97.588 Y88.148 E15.4341
G1 X98.177 Y87.789 E15.46622
G1 X98.969 Y87.354 E15.5083
G1 X99.96 Y86.928 E15.55852
G1 X100.776 Y86.629 E15.59899
G1 X102.739 Y85.943 E15.69582
G1 X103.436 Y85.71 E15.73004
G1 X104.305 Y85.462 E15.77212
G1 X105.374 Y85.267 E15.82272
G1 X106.132 Y85.171 E15.85829
G1 X108.368 Y84.921 E15.96306
G1 X109.034 Y84.857 E15.99421
G1 X109.936 Y84.81 E16.03627
G1 X111.011 Y84.859 E16.08638
G1 X111.801 Y84.938 E16.12335
G1 X113.816 Y85.165 E16.21777
G1 X114.633 Y85.269 E16.25612
G1 X115.523 Y85.423 E16.29818
G1 X116.577 Y85.714 E16.34909
G1 X117.362 Y85.978 E16.38766
G1 X119.354 Y86.675 E16.48593
G1 X120.007 Y86.914 E16.51831
G1 X120.84 Y87.262 E16.56034
G1 X121.807 Y87.782 E16.61147
G1 X122.543 Y88.231 E16.65161
G1 X124.285 Y89.327 E16.74745
G1 X124.892 Y89.72 E16.78112
G1 X125.627 Y90.244 E16.82315
G1 X126.446 Y90.956 E16.87368
G1 X126.896 Y91.392 E16.90286
G1 X128.549 Y93.046 E17.01174
G1 X129.018 Y93.527 E17.04303
G1 X129.619 Y94.201 E17.08508
G1 X130.271 Y95.095 E17.1366
G1 X130.728 Y95.801 E17.17576
G1 X131.776 Y97.467 E17.26741
G1 X132.216 Y98.189 E17.30678
G1 X132.651 Y98.981 E17.34885
G1 X133.065 Y99.944 E17.39766
G1 X133.308 Y100.6 E17.43024
G1 X134.055 Y102.735 E17.53556
G1 X134.289 Y103.434 E17.56989
G1 X134.538 Y104.302 E17.61193
G1 X134.737 Y105.401 E17.66394
G1 X134.828 Y106.126 E17.69796
G1 X135.078 Y108.352 E17.80227
G1 X135.142 Y109.007 E17.83291
G1 X135.19 Y109.909 E17.87497
G1 X135.142 Y110.983 E17.92503
G1 X135.062 Y111.801 E17.9633
G1 X134.817 Y113.966 E18.06476
G1 X134.732 Y114.631 E18.09598
G1 X134.578 Y115.521 E18.13803
G1 X134.285 Y116.581 E18.18924
G1 X134.062 Y117.246 E18.2219
G1 X133.323 Y119.36 E18.32618
G1 X133.084 Y120.012 E18.35852
G1 X132.736 Y120.845 E18.40055
G1 X132.218 Y121.807 E18.45143
G1 X131.769 Y122.543 E18.49157
G1 X130.747 Y124.169 E18.581
G1 X130.267 Y124.909 E18.62207
G1 X129.742 Y125.644 E18.66413
G1 X129.032 Y126.457 E18.71439
G1 X128.599 Y126.903 E18.74334
G1 X126.946 Y128.556 E18.85219
G1 X126.464 Y129.025 E18.8835
G1 X125.79 Y129.626 E18.92555
G1 X124.91 Y130.267 E18.97625
G1 X124.327 Y130.646 E19.00863
G1 X122.412 Y131.852 E19.11401
G1 X121.823 Y132.211 E19.14613
G1 X121.031 Y132.646 E19.1882
G1 X120.04 Y133.072 E19.23843
G1 X119.224 Y133.371 E19.2789
G1 X117.261 Y134.057 E19.37572
G1 X116.564 Y134.29 E19.40994
G1 X115.695 Y134.538 E19.45202
G1 X114.626 Y134.733 E19.50262
G1 X113.868 Y134.829 E19.5382
G1 X111.632 Y135.079 E19.64297
G1 X110.966 Y135.143 E19.67412
G1 X110.064 Y135.19 E19.71618
G1 X108.989 Y135.141 E19.76629
G1 X108.199 Y135.062 E19.80326
G1 X106.184 Y134.835 E19.89768
G1 X105.367 Y134.731 E19.93603
G1 X104.477 Y134.577 E19.97808
G1 X103.419 Y134.285 E20.02919
G1 X102.631 Y134.02 E20.0679
G1 X100.786 Y133.375 E20.15891
G1 X99.988 Y133.083 E20.19848
G1 X99.154 Y132.735 E20.24056
G1 X98.189 Y132.216 E20.29158
G1 X97.457 Y131.769 E20.33152
G1 X95.715 Y130.673 E20.42735
G1 X95.108 Y130.28 E20.46102
G1 X94.373 Y129.756 E20.50306
G1 X93.554 Y129.043 E20.55362
G1 X92.986 Y128.491 E20.5905
G1 X91.539 Y127.043 E20.68582
G1 X90.975 Y126.464 E20.72346
G1 X90.374 Y125.79 E20.76551
G1 X89.733 Y124.91 E20.8162
G1 X89.354 Y124.327 E20.84858
G1 X88.14 Y122.399 E20.95467
G1 X87.779 Y121.805 E20.98704
G1 X87.345 Y121.014 E21.02905
G1 X86.921 Y120.023 E21.07924
G1 X86.629 Y119.224 E21.11885
G1 X85.945 Y117.265 E21.21547
G1 X85.711 Y116.566 E21.2498
G1 X85.462 Y115.698 E21.29184
G1 X85.264 Y114.612 E21.34325
G1 X85.188 Y114.013 E21.37136
G1 X84.922 Y111.648 E21.48218
G1 X84.858 Y110.993 E21.51282
G1 X84.81 Y110.091 E21.55488
G1 X84.858 Y109.017 E21.60494
G1 X84.938 Y108.196 E21.64335
G1 X85.172 Y106.124 E21.74045
G1 X85.267 Y105.376 E21.77556
G1 X85.42 Y104.486 E21.81761
G1 X85.716 Y103.417 E21.86926
G1 X85.98 Y102.631 E21.90787
G1 X86.625 Y100.786 E21.99888
G1 X86.925 Y99.968 E22.03945
G1 X87.274 Y99.135 E22.0815
G1 X87.788 Y98.183 E22.13188
G1 X88.233 Y97.455 E22.17161
G1 X89.33 Y95.712 E22.26751
G1 X89.726 Y95.101 E22.30141
G1 X90.25 Y94.366 E22.34344
G1 X90.959 Y93.552 E22.39371
G1 X91.508 Y92.987 E22.43039
G1 F1500 E15.93039
;MESH:01cylinder.stl
G0 F6000 X97.838 Y100.143
G0 X116.247 Y122.971
;TYPE:WALL-INNER
G1 F1500 E22.43039
G1 F1200 X118.973 Y121.256 E22.58036
G1 X121.256 Y118.973 E22.7307
G1 X122.973 Y116.243 E22.88087
G1 X124.035 Y113.206 E23.03068
G1 X124.395 Y109.999 E23.18095
G1 X124.035 Y106.794 E23.33113
G1 X122.971 Y103.753 E23.48115
G1 X121.256 Y101.027 E23.63111
G1 X118.973 Y98.744 E23.78145
G1 X116.247 Y97.029 E23.93141
G1 X113.206 Y95.965 E24.08143
G1 X110 Y95.604 E24.23166
G1 X106.794 Y95.965 E24.38189
G1 X103.753 Y97.029 E24.53191
G1 X101.027 Y98.744 E24.68187
G1 X98.744 Y101.027 E24.83221
G1 X97.028 Y103.757 E24.98236
G1 X95.965 Y106.794 E25.13219
G1 X95.604 Y110.001 E25.28246
G1 X95.784 Y111.599 E25.35734
G1 X95.965 Y113.206 E25.43264
G1 X97.027 Y116.243 E25.58246
G1 X98.744 Y118.973 E25.73263
G1 X101.027 Y121.256 E25.88297
G1 X103.753 Y122.971 E26.03293
G1 X106.794 Y124.035 E26.18295
G1 X110 Y124.396 E26.33318
G1 X113.206 Y124.035 E26.48341
G1 X116.247 Y122.971 E26.63343
G1 F1500 E20.13343
G0 F6000 X116.18 Y122.888
G0 X118.871 Y121.129
G0 X121.129 Y118.871
G0 X122.827 Y116.173
G0 X123.877 Y113.17
G0 X124.234 Y109.999
G0 X123.877 Y106.831
G0 X122.825 Y103.823
G0 X121.161 Y101.076
G1 F1500 E26.63343
G0 F6000 X121.57 Y100.776
;TYPE:WALL-OUTER
G1 F1200 X119.224 Y98.43 E26.78792
G1 X116.422 Y96.667 E26.94207
G1 X113.296 Y95.573 E27.09628
G1 X110 Y95.202 E27.25073
G1 X106.704 Y95.573 E27.40517
G1 X103.578 Y96.667 E27.55939
G1 X100.776 Y98.43 E27.71354
G1 X98.43 Y100.776 E27.86803
G1 X96.665 Y103.582 E28.02238
G1 X95.573 Y106.704 E28.17639
G1 X95.202 Y110.001 E28.33089
G1 X95.386 Y111.644 E28.40787
G1 X95.573 Y113.296 E28.48528
G1 X96.665 Y116.418 E28.63929
G1 X98.43 Y119.224 E28.79365
G1 X100.776 Y121.57 E28.94814
G1 X103.578 Y123.333 E29.10229
G1 X106.704 Y124.427 E29.25651
G1 X110 Y124.798 E29.41095
G1 X113.296 Y124.427 E29.5654
G1 X116.422 Y123.333 E29.71961
G1 X119.224 Y121.57 E29.87376
G1 X121.57 Y119.224 E30.02825
G1 X123.335 Y116.418 E30.18261
G1 X124.427 Y113.296 E30.33662
G1 X124.798 Y109.999 E30.49111
G1 X124.427 Y106.704 E30.64551
G1 X123.333 Y103.578 E30.79972
G1 X121.57 Y100.776 E30.95387
G0 F6000 X121.161 Y101.076
G0 X122.836 Y103.727
G0 X122.244 Y104.099
;TYPE:SKIN
G1 F1200 X120.627 Y101.535 E31.09502
G1 X118.465 Y99.373 E31.2374
G1 X115.901 Y97.756 E31.37855
G1 X113.032 Y96.751 E31.5201
G1 X110 Y96.411 E31.66216
G1 X106.968 Y96.751 E31.80423
G1 X104.099 Y97.756 E31.94578
G1 X101.535 Y99.373 E32.08693
G1 X99.373 Y101.535 E32.22931
G1 X97.75 Y104.111 E32.37108
