;FLAVOR:Marlin
;TIME:1271
;Filament used: 0.985338m
;Layer height: 0.28
;MINX:83.208
;MINY:83.208
;MINZ:0.28
;MAXX:136.792
;MAXY:136.792
;MAXZ:29.96
;Generated with Cura_SteamEngine 5.2.1
M82 ;absolute extrusion mode
; Ender 3 Custom Start G-code
G92 E0 ; Reset Extruder
G28 ; Home all axes
M104 S175 ; Start heating up the nozzle most of the way
M190 S60 ; Start heating the bed, wait until target temperature reached
M109 S200 ; Finish heating the nozzle
G1 Z2.0 F3000 ; Move Z Axis up little to prevent scratching of Heat Bed
G1 X0.1 Y20 Z0.3 F5000.0 ; Move to start position
G1 X0.1 Y200.0 Z0.3 F1500.0 E15 ; Draw the first line
G1 X0.4 Y200.0 Z0.3 F5000.0 ; Move to side a little
G1 X0.4 Y20 Z0.3 F1500.0 E30 ; Draw the second line
G92 E0 ; Reset Extruder
G1 Z2.0 F3000 ; Move Z Axis up little to prevent scratching of Heat Bed
G1 X5 Y20 Z0.3 F5000.0 ; Move over to prevent blob squish
G92 E0
G92 E0
G1 F1500 E-6.5
;LAYER_COUNT:107
;LAYER:0
M107
G0 F6000 X91.083 Y91.027 Z0.28
;TYPE:SKIRT
G1 F1500 E0
G1 F1200 X91.549 Y90.575 E0.03023
G1 X91.914 Y90.237 E0.05339
G1 X92.422 Y89.787 E0.08499
G1 X93.259 Y89.088 E0.13577
G1 X93.885 Y88.597 E0.17282
G1 X94.255 Y88.323 E0.19426
G1 X94.837 Y87.911 E0.22746
G1 X95.277 Y87.615 E0.25215
G1 X95.857 Y87.245 E0.28419
G1 X96.26 Y87 E0.30615
G1 X96.892 Y86.634 E0.34016
G1 X97.346 Y86.385 E0.36427
G1 X97.933 Y86.081 E0.39505
G1 X98.378 Y85.863 E0.41812
G1 X99.351 Y85.421 E0.46788
G1 X100.258 Y85.044 E0.51362
G1 X100.709 Y84.87 E0.53613
G1 X101.189 Y84.697 E0.55989
G1 X101.855 Y84.475 E0.59258
G1 X102.328 Y84.33 E0.61561
G1 X103.011 Y84.136 E0.64868
G1 X103.478 Y84.014 E0.67115
G1 X104.161 Y83.852 E0.70384
G1 X104.643 Y83.749 E0.72679
G1 X105.305 Y83.623 E0.75817
G1 X105.829 Y83.536 E0.7829
G1 X106.812 Y83.404 E0.82908
G1 X107.552 Y83.325 E0.86374
G1 X108.333 Y83.261 E0.90022
G1 X108.825 Y83.234 E0.92317
G1 X109.532 Y83.212 E0.95611
G1 X110.034 Y83.208 E0.97948
G1 X110.723 Y83.218 E1.01157
G1 X111.219 Y83.237 E1.03468
G1 X111.872 Y83.276 E1.06514
G1 X112.383 Y83.318 E1.08902
G1 X113.189 Y83.404 E1.12676
G1 X114.095 Y83.526 E1.16933
G1 X114.905 Y83.661 E1.20756
G1 X115.383 Y83.754 E1.23024
G1 X116.082 Y83.907 E1.26356
G1 X116.576 Y84.027 E1.28723
G1 X117.278 Y84.215 E1.32107
G1 X117.742 Y84.351 E1.34359
G1 X118.398 Y84.558 E1.37562
G1 X118.859 Y84.715 E1.39829
G1 X119.47 Y84.938 E1.42858
G1 X119.961 Y85.13 E1.45313
G1 X120.977 Y85.565 E1.50459
G1 X121.88 Y85.988 E1.55102
G1 X122.294 Y86.195 E1.57258
G1 X122.73 Y86.426 E1.59555
G1 X123.34 Y86.766 E1.62807
G1 X123.759 Y87.011 E1.65067
G1 X124.372 Y87.389 E1.68421
G1 X124.781 Y87.654 E1.7069
G1 X125.346 Y88.038 E1.73871
G1 X125.766 Y88.338 E1.76274
G1 X126.295 Y88.735 E1.79354
G1 X126.69 Y89.046 E1.81695
G1 X127.283 Y89.535 E1.85274
G1 X128.026 Y90.184 E1.89868
G1 X128.599 Y90.716 E1.93508
G1 X128.973 Y91.083 E1.95948
G1 X129.425 Y91.549 E1.98971
G1 X129.763 Y91.914 E2.01288
G1 X130.462 Y92.713 E2.06231
G1 X130.907 Y93.252 E2.09486
G1 X131.404 Y93.886 E2.13237
G1 X131.677 Y94.255 E2.15374
G1 X132.089 Y94.837 E2.18694
G1 X132.385 Y95.277 E2.21164
G1 X132.755 Y95.857 E2.24367
G1 X133 Y96.26 E2.26563
G1 X133.366 Y96.892 E2.29964
G1 X133.615 Y97.346 E2.32375
G1 X133.919 Y97.933 E2.35453
G1 X134.134 Y98.373 E2.37734
G1 X134.58 Y99.352 E2.42743
G1 X134.831 Y99.948 E2.45754
G1 X135.13 Y100.709 E2.49561
G1 X135.303 Y101.189 E2.51937
G1 X135.525 Y101.855 E2.55206
G1 X135.669 Y102.324 E2.57491
G1 X135.863 Y103.006 E2.60792
G1 X135.987 Y103.481 E2.63078
G1 X136.149 Y104.165 E2.66351
G1 X136.251 Y104.643 E2.68627
G1 X136.377 Y105.305 E2.71765
G1 X136.464 Y105.829 E2.74239
G1 X136.596 Y106.811 E2.78852
G1 X136.675 Y107.55 E2.82313
G1 X136.739 Y108.335 E2.8598
G1 X136.766 Y108.824 E2.88261
G1 X136.788 Y109.53 E2.9155
G1 X136.792 Y110.032 E2.93887
G1 X136.782 Y110.722 E2.97101
G1 X136.763 Y111.219 E2.99417
G1 X136.724 Y111.872 E3.02463
G1 X136.681 Y112.387 E3.04869
G1 X136.595 Y113.19 E3.0863
G1 X136.475 Y114.087 E3.12844
G1 X136.339 Y114.905 E3.16705
G1 X136.246 Y115.383 E3.18972
G1 X136.093 Y116.082 E3.22304
G1 X135.973 Y116.576 E3.24671
G1 X135.785 Y117.278 E3.28055
G1 X135.649 Y117.742 E3.30307
G1 X135.442 Y118.398 E3.3351
G1 X135.285 Y118.859 E3.35778
G1 X135.062 Y119.47 E3.38806
G1 X134.87 Y119.961 E3.41261
G1 X134.593 Y120.62 E3.4459
G1 X134.152 Y121.589 E3.49547
G1 X133.805 Y122.294 E3.53206
G1 X133.574 Y122.73 E3.55504
G1 X133.234 Y123.34 E3.58755
G1 X132.989 Y123.759 E3.61016
G1 X132.611 Y124.372 E3.64369
G1 X132.346 Y124.781 E3.66638
G1 X131.962 Y125.346 E3.69819
G1 X131.666 Y125.76 E3.72189
G1 X131.271 Y126.287 E3.75256
G1 X130.952 Y126.693 E3.7766
G1 X130.208 Y127.584 E3.83065
G1 X129.817 Y128.025 E3.85809
G1 X129.284 Y128.599 E3.89457
G1 X128.916 Y128.973 E3.919
G1 X128.452 Y129.423 E3.9491
G1 X128.089 Y129.76 E3.97216
G1 X127.287 Y130.462 E4.02179
G1 X126.743 Y130.911 E4.05464
G1 X126.115 Y131.403 E4.09178
G1 X125.745 Y131.677 E4.11322
G1 X125.163 Y132.089 E4.14643
G1 X124.723 Y132.385 E4.17112
G1 X124.143 Y132.755 E4.20315
G1 X123.74 Y133 E4.22511
G1 X123.108 Y133.366 E4.25912
G1 X122.654 Y133.615 E4.28323
G1 X122.067 Y133.919 E4.31401
G1 X121.622 Y134.137 E4.33709
G1 X120.649 Y134.579 E4.38685
G1 X119.742 Y134.956 E4.43259
G1 X119.291 Y135.13 E4.4551
G1 X118.811 Y135.303 E4.47885
G1 X118.145 Y135.525 E4.51154
G1 X117.672 Y135.67 E4.53458
G1 X116.989 Y135.864 E4.56764
G1 X116.522 Y135.986 E4.59012
G1 X115.839 Y136.148 E4.6228
G1 X115.357 Y136.251 E4.64575
G1 X114.695 Y136.377 E4.67713
G1 X114.171 Y136.464 E4.70187
G1 X113.188 Y136.596 E4.74805
G1 X112.448 Y136.675 E4.7827
G1 X111.667 Y136.739 E4.81919
G1 X111.175 Y136.766 E4.84214
G1 X110.468 Y136.788 E4.87507
G1 X109.966 Y136.792 E4.89845
G1 X109.277 Y136.782 E4.93053
G1 X108.781 Y136.763 E4.95365
G1 X108.128 Y136.724 E4.98411
G1 X107.617 Y136.682 E5.00798
G1 X106.811 Y136.596 E5.04573
G1 X105.905 Y136.474 E5.08829
G1 X105.095 Y136.339 E5.12653
G1 X104.617 Y136.246 E5.14921
G1 X103.918 Y136.093 E5.18253
G1 X103.424 Y135.973 E5.2062
G1 X102.722 Y135.785 E5.24004
G1 X102.258 Y135.649 E5.26255
G1 X101.602 Y135.442 E5.29458
G1 X101.141 Y135.285 E5.31726
G1 X100.53 Y135.062 E5.34755
G1 X100.025 Y134.864 E5.3728
G1 X99.023 Y134.435 E5.42356
G1 X98.421 Y134.157 E5.45443
G1 X97.704 Y133.804 E5.49165
G1 X97.266 Y133.573 E5.5147
G1 X96.658 Y133.234 E5.54712
G1 X96.241 Y132.989 E5.56964
G1 X95.628 Y132.611 E5.60317
G1 X95.219 Y132.346 E5.62587
G1 X94.654 Y131.962 E5.65768
G1 X94.234 Y131.662 E5.68171
G1 X93.705 Y131.265 E5.71251
G1 X93.305 Y130.95 E5.73622
G1 X92.703 Y130.453 E5.77257
G1 X91.974 Y129.816 E5.81764
G1 X91.401 Y129.284 E5.85405
G1 X91.027 Y128.917 E5.87845
G1 X90.575 Y128.451 E5.90868
G1 X90.237 Y128.086 E5.93185
G1 X89.532 Y127.28 E5.98171
G1 X89.082 Y126.734 E6.01465
G1 X88.601 Y126.12 E6.05097
G1 X88.325 Y125.748 E6.07254
G1 X87.912 Y125.165 E6.10581
G1 X87.61 Y124.715 E6.13104
G1 X87.24 Y124.134 E6.16312
G1 X86.999 Y123.738 E6.1847
G1 X86.633 Y123.106 E6.21871
G1 X86.384 Y122.652 E6.24282
G1 X86.081 Y122.067 E6.2735
G1 X85.863 Y121.622 E6.29657
G1 X85.571 Y120.99 E6.32899
G1 X85.171 Y120.056 E6.3763
G1 X84.871 Y119.294 E6.41444
G1 X84.695 Y118.804 E6.43868
G1 X84.474 Y118.14 E6.47127
G1 X84.33 Y117.672 E6.49407
G1 X84.136 Y116.989 E6.52713
G1 X84.014 Y116.522 E6.5496
G1 X83.852 Y115.839 E6.58229
G1 X83.749 Y115.357 E6.60524
G1 X83.623 Y114.695 E6.63662
G1 X83.536 Y114.169 E6.66144
G1 X83.404 Y113.188 E6.70753
G1 X83.325 Y112.449 E6.74214
G1 X83.261 Y111.667 E6.77868
G1 X83.234 Y111.176 E6.80157
G1 X83.212 Y110.47 E6.83446
G1 X83.208 Y109.968 E6.85784
G1 X83.218 Y109.278 E6.88997
G1 X83.237 Y108.781 E6.91313
G1 X83.276 Y108.128 E6.94359
G1 X83.318 Y107.617 E6.96747
G1 X83.404 Y106.811 E7.00521
G1 X83.526 Y105.905 E7.04778
G1 X83.661 Y105.095 E7.08602
G1 X83.754 Y104.617 E7.10869
G1 X83.907 Y103.918 E7.14201
G1 X84.027 Y103.424 E7.16568
G1 X84.215 Y102.722 E7.19952
G1 X84.351 Y102.258 E7.22204
G1 X84.558 Y101.602 E7.25407
G1 X84.715 Y101.141 E7.27674
G1 X84.938 Y100.53 E7.30703
G1 X85.13 Y100.039 E7.33158
G1 X85.407 Y99.38 E7.36487
G1 X85.848 Y98.411 E7.41444
G1 X86.195 Y97.706 E7.45103
G1 X86.426 Y97.27 E7.474
G1 X86.766 Y96.66 E7.50652
G1 X87.011 Y96.241 E7.52912
G1 X87.389 Y95.628 E7.56266
G1 X87.654 Y95.219 E7.58535
G1 X88.038 Y94.654 E7.61716
G1 X88.334 Y94.24 E7.64086
G1 X88.729 Y93.713 E7.67152
G1 X89.048 Y93.307 E7.69557
G1 X89.792 Y92.416 E7.74962
G1 X90.183 Y91.975 E7.77706
G1 X90.716 Y91.401 E7.81354
G1 X91.083 Y91.027 E7.83794
G0 F6000 X91.362 Y91.314
G1 F1200 X91.828 Y90.862 E7.86816
G1 X92.179 Y90.536 E7.89047
G1 X92.687 Y90.086 E7.92207
G1 X93.513 Y89.397 E7.97216
G1 X94.13 Y88.913 E8.00867
G1 X94.486 Y88.649 E8.02931
G1 X95.068 Y88.237 E8.06251
G1 X95.492 Y87.953 E8.08628
G1 X96.072 Y87.583 E8.11831
G1 X96.461 Y87.346 E8.13952
G1 X97.093 Y86.98 E8.17353
G1 X97.53 Y86.74 E8.19674
G1 X98.117 Y86.436 E8.22753
G1 X98.546 Y86.226 E8.24977
G1 X99.506 Y85.79 E8.29886
G1 X100.402 Y85.417 E8.34405
G1 X100.853 Y85.243 E8.36656
G1 X101.316 Y85.077 E8.38947
G1 X101.982 Y84.855 E8.42216
G1 X102.438 Y84.714 E8.44438
G1 X103.121 Y84.52 E8.47744
G1 X103.571 Y84.403 E8.49909
G1 X104.254 Y84.241 E8.53178
G1 X104.718 Y84.142 E8.55387
G1 X105.38 Y84.016 E8.58525
G1 X105.884 Y83.932 E8.60904
G1 X106.502 Y83.845 E8.6381
G1 X107.595 Y83.723 E8.68931
G1 X108.363 Y83.66 E8.72519
G1 X108.837 Y83.634 E8.7473
G1 X109.544 Y83.612 E8.78024
G1 X110.028 Y83.608 E8.80277
G1 X110.717 Y83.618 E8.83486
G1 X111.195 Y83.636 E8.85713
G1 X111.848 Y83.675 E8.88759
G1 X112.341 Y83.716 E8.91063
G1 X113.147 Y83.802 E8.94837
G1 X114.039 Y83.922 E8.99028
G1 X114.837 Y84.055 E9.02795
G1 X115.298 Y84.145 E9.04982
G1 X115.997 Y84.298 E9.08314
G1 X116.472 Y84.414 E9.10591
G1 X117.174 Y84.602 E9.13975
G1 X117.622 Y84.732 E9.16147
G1 X118.278 Y84.939 E9.1935
G1 X118.722 Y85.09 E9.21534
G1 X119.333 Y85.313 E9.24563
G1 X119.806 Y85.499 E9.26929
G1 X120.465 Y85.776 E9.30258
G1 X121.412 Y86.207 E9.35103
G1 X122.115 Y86.553 E9.38751
G1 X122.536 Y86.775 E9.40968
G1 X123.146 Y87.115 E9.44219
G1 X123.549 Y87.351 E9.46394
G1 X124.162 Y87.729 E9.49747
G1 X124.556 Y87.985 E9.51935
G1 X125.121 Y88.369 E9.55116
G1 X125.526 Y88.658 E9.57433
G1 X126.055 Y89.055 E9.60513
G1 X126.436 Y89.355 E9.62771
G1 X127.029 Y89.844 E9.6635
G1 X127.76 Y90.484 E9.70874
G1 X128.325 Y91.008 E9.74462
G1 X128.686 Y91.362 E9.76816
G1 X129.138 Y91.828 E9.79839
G1 X129.464 Y92.179 E9.8207
G1 X129.914 Y92.687 E9.8523
G1 X130.598 Y93.506 E9.90199
G1 X131.088 Y94.131 E9.93897
G1 X131.351 Y94.486 E9.95954
G1 X131.763 Y95.068 E9.99274
G1 X132.047 Y95.492 E10.01651
G1 X132.417 Y96.072 E10.04854
G1 X132.654 Y96.461 E10.06975
G1 X133.02 Y97.093 E10.10376
G1 X133.26 Y97.53 E10.12697
G1 X133.564 Y98.117 E10.15776
G1 X133.771 Y98.541 E10.17973
G1 X134.211 Y99.507 E10.22915
G1 X134.583 Y100.402 E10.27428
G1 X134.757 Y100.853 E10.29679
G1 X134.923 Y101.316 E10.3197
G1 X135.145 Y101.982 E10.35239
G1 X135.285 Y102.434 E10.37442
G1 X135.479 Y103.116 E10.40744
G1 X135.598 Y103.573 E10.42943
G1 X135.76 Y104.257 E10.46216
G1 X135.858 Y104.718 E10.4841
G1 X135.984 Y105.38 E10.51548
G1 X136.068 Y105.884 E10.53927
G1 X136.155 Y106.502 E10.56833
G1 X136.277 Y107.592 E10.61941
G1 X136.341 Y108.365 E10.65552
G1 X136.366 Y108.837 E10.67753
G1 X136.388 Y109.543 E10.71042
G1 X136.392 Y110.027 E10.73296
G1 X136.382 Y110.717 E10.76509
G1 X136.364 Y111.195 E10.78737
G1 X136.325 Y111.848 E10.81783
G1 X136.284 Y112.345 E10.84105
G1 X136.154 Y113.499 E10.89512
G1 X136.028 Y114.357 E10.9355
G1 X135.945 Y114.837 E10.95819
G1 X135.855 Y115.298 E10.98006
G1 X135.702 Y115.997 E11.01338
G1 X135.586 Y116.472 E11.03614
G1 X135.398 Y117.174 E11.06998
G1 X135.268 Y117.622 E11.09171
G1 X135.061 Y118.278 E11.12374
G1 X134.91 Y118.722 E11.14557
G1 X134.687 Y119.333 E11.17586
G1 X134.501 Y119.806 E11.19953
G1 X134.071 Y120.812 E11.25047
G1 X133.789 Y121.421 E11.28172
G1 X133.447 Y122.115 E11.31775
G1 X133.225 Y122.536 E11.33991
G1 X132.885 Y123.146 E11.37243
G1 X132.649 Y123.549 E11.39417
G1 X132.271 Y124.162 E11.42771
G1 X132.015 Y124.556 E11.44959
G1 X131.631 Y125.121 E11.4814
G1 X131.346 Y125.52 E11.50423
G1 X130.951 Y126.047 E11.5349
G1 X130.644 Y126.438 E11.55804
G1 X130.152 Y127.034 E11.59403
G1 X129.517 Y127.759 E11.63891
G1 X128.992 Y128.325 E11.67485
G1 X128.638 Y128.686 E11.6984
G1 X128.174 Y129.136 E11.7285
G1 X127.824 Y129.461 E11.75074
G1 X127.032 Y130.153 E11.79971
G1 X126.222 Y130.815 E11.84842
G1 X125.514 Y131.351 E11.88977
G1 X124.932 Y131.763 E11.92297
G1 X124.508 Y132.047 E11.94674
G1 X123.928 Y132.417 E11.97877
G1 X123.539 Y132.654 E11.99998
G1 X122.907 Y133.02 E12.03399
G1 X122.47 Y133.26 E12.0572
G1 X121.883 Y133.564 E12.08798
G1 X121.454 Y133.774 E12.11023
G1 X120.494 Y134.21 E12.15932
G1 X119.598 Y134.583 E12.20451
G1 X119.147 Y134.757 E12.22702
G1 X118.684 Y134.923 E12.24993
G1 X118.018 Y135.145 E12.28261
G1 X117.562 Y135.286 E12.30484
G1 X116.879 Y135.48 E12.3379
G1 X116.429 Y135.597 E12.35955
G1 X115.746 Y135.759 E12.39224
G1 X115.282 Y135.858 E12.41433
G1 X114.62 Y135.984 E12.44571
G1 X114.116 Y136.068 E12.4695
G1 X113.498 Y136.155 E12.49856
G1 X112.405 Y136.277 E12.54977
G1 X111.637 Y136.34 E12.58565
G1 X111.163 Y136.366 E12.60776
G1 X110.456 Y136.388 E12.64069
G1 X109.972 Y136.392 E12.66323
G1 X109.283 Y136.382 E12.69532
G1 X108.805 Y136.364 E12.71759
G1 X108.152 Y136.325 E12.74805
G1 X107.659 Y136.284 E12.77109
G1 X106.853 Y136.198 E12.80883
G1 X105.961 Y136.078 E12.85074
G1 X105.163 Y135.945 E12.88841
G1 X104.702 Y135.855 E12.91028
G1 X104.003 Y135.702 E12.9436
G1 X103.528 Y135.586 E12.96637
G1 X102.826 Y135.398 E13.00021
G1 X102.378 Y135.268 E13.02193
G1 X101.722 Y135.061 E13.05396
G1 X101.278 Y134.91 E13.0758
G1 X100.667 Y134.687 E13.10609
G1 X100.18 Y134.495 E13.13046
G1 X99.514 Y134.214 E13.16412
G1 X98.589 Y133.793 E13.21144
G1 X97.883 Y133.446 E13.24807
G1 X97.461 Y133.223 E13.2703
G1 X96.853 Y132.884 E13.30271
G1 X96.451 Y132.649 E13.3244
G1 X95.838 Y132.271 E13.35793
G1 X95.444 Y132.015 E13.37981
G1 X94.879 Y131.631 E13.41162
G1 X94.474 Y131.342 E13.43479
G1 X93.945 Y130.945 E13.46558
G1 X93.56 Y130.641 E13.48843
G1 X92.673 Y129.901 E13.54222
G1 X92.24 Y129.517 E13.56916
G1 X91.675 Y128.992 E13.60508
G1 X91.314 Y128.638 E13.62862
G1 X90.862 Y128.172 E13.65885
G1 X90.536 Y127.821 E13.68116
G1 X90.086 Y127.313 E13.71276
G1 X89.391 Y126.48 E13.76327
G1 X88.917 Y125.875 E13.79906
G1 X88.651 Y125.516 E13.81987
G1 X88.238 Y124.933 E13.85313
G1 X87.947 Y124.5 E13.87743
G1 X87.577 Y123.919 E13.9095
G1 X87.345 Y123.537 E13.93031
G1 X86.979 Y122.905 E13.96432
G1 X86.74 Y122.468 E13.98751
G1 X86.437 Y121.883 E14.01819
G1 X86.226 Y121.454 E14.04045
G1 X85.79 Y120.494 E14.08955
G1 X85.419 Y119.603 E14.13449
G1 X85.244 Y119.15 E14.1571
G1 X85.074 Y118.677 E14.1805
G1 X84.853 Y118.013 E14.21309
G1 X84.714 Y117.562 E14.23507
G1 X84.52 Y116.879 E14.26813
G1 X84.403 Y116.429 E14.28978
G1 X84.241 Y115.746 E14.32246
G1 X84.142 Y115.282 E14.34456
G1 X84.016 Y114.62 E14.37593
G1 X83.932 Y114.113 E14.39986
G1 X83.802 Y113.146 E14.4453
G1 X83.723 Y112.407 E14.4799
G1 X83.66 Y111.637 E14.51588
G1 X83.634 Y111.163 E14.53798
G1 X83.612 Y110.457 E14.57087
G1 X83.608 Y109.973 E14.59341
G1 X83.618 Y109.283 E14.62554
G1 X83.636 Y108.805 E14.64782
G1 X83.675 Y108.152 E14.67828
G1 X83.716 Y107.659 E14.70131
G1 X83.802 Y106.853 E14.73906
G1 X83.922 Y105.961 E14.78097
G1 X84.055 Y105.163 E14.81864
G1 X84.145 Y104.702 E14.84051
G1 X84.298 Y104.003 E14.87383
G1 X84.414 Y103.528 E14.8966
G1 X84.602 Y102.826 E14.93044
G1 X84.732 Y102.378 E14.95216
G1 X84.939 Y101.722 E14.98419
G1 X85.09 Y101.278 E15.00602
G1 X85.313 Y100.667 E15.03631
G1 X85.499 Y100.194 E15.05998
G1 X85.929 Y99.188 E15.11092
G1 X86.211 Y98.579 E15.14217
G1 X86.553 Y97.885 E15.1782
G1 X86.775 Y97.464 E15.20036
G1 X87.115 Y96.854 E15.23288
G1 X87.351 Y96.451 E15.25462
G1 X87.729 Y95.838 E15.28816
G1 X87.985 Y95.444 E15.31004
G1 X88.369 Y94.879 E15.34185
G1 X88.654 Y94.48 E15.36468
G1 X89.049 Y93.953 E15.39535
G1 X89.356 Y93.562 E15.41849
G1 X89.848 Y92.966 E15.45448
G1 X90.483 Y92.241 E15.49936
