;FLAVOR:Marlin
;TIME:1216
;Filament used: 1.35568m
;Layer height: 0.28
;MINX:89
;MINY:89
;MINZ:0.28
;MAXX:131
;MAXY:131
;MAXZ:19.88
;Generated with Cura_SteamEngine 5.2.1
M82 ;absolute extrusion mode
; Ender 3 Custom Start G-code
G92 E0 ; Reset Extruder
G28 ; Home all axes
M104 S175 ; Start heating up the nozzle most of the way
M190 S60 ; Start heating the bed, wait until target temperature reached
M109 S200 ; Finish heating the nozzle
G1 Z2.0 F3000 ; Move Z Axis up little to prevent scratching of Heat Bed
G1 X0.1 Y20 Z0.3 F5000.0 ; Move to start position
G1 X0.1 Y200.0 Z0.3 F1500.0 E15 ; Draw the first line
G1 X0.4 Y200.0 Z0.3 F5000.0 ; Move to side a little
G1 X0.4 Y20 Z0.3 F1500.0 E30 ; Draw the second line
G92 E0 ; Reset Extruder
G1 Z2.0 F3000 ; Move Z Axis up little to prevent scratching of Heat Bed
G1 X5 Y20 Z0.3 F5000.0 ; Move over to prevent blob squish
G92 E0
G92 E0
G1 F1500 E-6.5
;LAYER_COUNT:71
;LAYER:0
M107
G0 F6000 X92.198 Y92.264 Z0.28
;TYPE:SKIRT
G1 F1500 E0
G1 F1200 X92.886 Y91.627 E0.04366
G1 X93.626 Y91.051 E0.08732
G1 X94.412 Y90.539 E0.131
G1 X95.239 Y90.097 E0.17467
G1 X96.101 Y89.727 E0.21835
G1 X96.991 Y89.431 E0.26202
G1 X97.903 Y89.213 E0.30568
G1 X98.83 Y89.072 E0.34935
G1 X99.701 Y89.013 E0.39
G1 X100.33 Y89 E0.41929
G1 X119.451 Y89.001 E1.30965
G1 X120.149 Y89.011 E1.34215
G1 X121.085 Y89.065 E1.38581
G1 X122.013 Y89.197 E1.42945
G1 X122.927 Y89.409 E1.47314
G1 X123.819 Y89.698 E1.5168
G1 X124.684 Y90.061 E1.56048
G1 X125.514 Y90.497 E1.60414
G1 X126.305 Y91.002 E1.64784
G1 X127.049 Y91.573 E1.69151
G1 X127.742 Y92.205 E1.73518
G1 X128.379 Y92.893 E1.77884
G1 X128.954 Y93.634 E1.82252
G1 X129.465 Y94.42 E1.86617
G1 X129.907 Y95.248 E1.90987
G1 X130.276 Y96.11 E1.95354
G1 X130.571 Y97 E1.9972
G1 X130.789 Y97.912 E2.04086
G1 X130.929 Y98.84 E2.08456
G1 X130.987 Y99.701 E2.12474
G1 X131 Y100.33 E2.15404
G1 X130.999 Y119.4 E3.04202
G1 X130.99 Y120.127 E3.07587
G1 X130.939 Y121.064 E3.11957
G1 X130.807 Y121.992 E3.16321
G1 X130.598 Y122.906 E3.20687
G1 X130.311 Y123.799 E3.25055
G1 X129.949 Y124.665 E3.29425
G1 X129.515 Y125.496 E3.33791
G1 X129.011 Y126.287 E3.38158
G1 X128.442 Y127.032 E3.42523
G1 X127.811 Y127.727 E3.46894
G1 X127.124 Y128.365 E3.5126
G1 X126.385 Y128.942 E3.55626
G1 X125.599 Y129.454 E3.59994
G1 X124.773 Y129.897 E3.64358
G1 X123.911 Y130.269 E3.6873
G1 X123.022 Y130.565 E3.73093
G1 X122.11 Y130.785 E3.77461
G1 X121.183 Y130.926 E3.81827
G1 X120.299 Y130.987 E3.85953
G1 X119.67 Y131 E3.88883
G1 X100.565 Y130.999 E4.77844
G1 X99.867 Y130.99 E4.81094
G1 X98.931 Y130.938 E4.85459
G1 X98.002 Y130.806 E4.89829
G1 X97.088 Y130.596 E4.94195
G1 X96.195 Y130.309 E4.98563
G1 X95.33 Y129.946 E5.02931
G1 X94.499 Y129.512 E5.07297
G1 X93.708 Y129.008 E5.11664
G1 X92.963 Y128.438 E5.16032
G1 X92.269 Y127.807 E5.20399
G1 X91.632 Y127.12 E5.24762
G1 X91.055 Y126.38 E5.29131
G1 X90.543 Y125.594 E5.33499
G1 X90.1 Y124.767 E5.37868
G1 X89.729 Y123.906 E5.42233
G1 X89.433 Y123.016 E5.46601
G1 X89.214 Y122.104 E5.50968
G1 X89.073 Y121.177 E5.55334
G1 X89.013 Y120.288 E5.59483
G1 X89 Y119.658 E5.62417
G1 X89.001 Y100.525 E6.51509
G1 X89.01 Y99.86 E6.54606
G1 X89.063 Y98.924 E6.58971
G1 X89.195 Y97.995 E6.6334
G1 X89.406 Y97.081 E6.67708
G1 X89.694 Y96.189 E6.72073
G1 X90.057 Y95.324 E6.76441
G1 X90.492 Y94.493 E6.80808
G1 X90.996 Y93.703 E6.85172
G1 X91.566 Y92.958 E6.8954
G1 X92.198 Y92.264 E6.93911
G0 F6000 X92.589 Y92.439
G1 F1200 X93.274 Y91.823 E6.982
G1 X94.01 Y91.27 E7.02487
G1 X94.791 Y90.782 E7.06775
G1 X95.611 Y90.364 E7.11061
G1 X96.465 Y90.019 E7.1535
G1 X97.345 Y89.749 E7.19636
G1 X98.245 Y89.557 E7.23921
G1 X99.159 Y89.443 E7.2821
G1 X99.712 Y89.413 E7.30789
G1 X100.33 Y89.4 E7.33667
G1 X119.293 Y89.4 E8.21967
G1 X120.143 Y89.411 E8.25925
G1 X121.062 Y89.464 E8.30211
G1 X121.973 Y89.597 E8.34498
G1 X122.869 Y89.808 E8.38785
G1 X123.743 Y90.096 E8.43069
G1 X124.59 Y90.459 E8.4736
G1 X125.401 Y90.894 E8.51646
G1 X126.171 Y91.398 E8.55931
G1 X126.895 Y91.967 E8.60219
G1 X127.567 Y92.597 E8.64508
G1 X128.182 Y93.282 E8.68794
G1 X128.735 Y94.018 E8.73081
G1 X129.222 Y94.799 E8.77367
G1 X129.639 Y95.62 E8.81655
G1 X129.984 Y96.474 E8.85943
G1 X130.253 Y97.354 E8.90228
G1 X130.445 Y98.255 E8.94518
G1 X130.558 Y99.168 E8.98802
G1 X130.587 Y99.712 E9.01338
G1 X130.6 Y100.33 E9.04217
G1 X130.599 Y119.395 E9.92991
G1 X130.59 Y120.122 E9.96377
G1 X130.539 Y121.041 E10.00663
G1 X130.408 Y121.953 E10.04953
G1 X130.198 Y122.849 E10.09238
G1 X129.912 Y123.724 E10.13525
G1 X129.551 Y124.571 E10.17812
G1 X129.117 Y125.383 E10.22099
G1 X128.615 Y126.155 E10.26387
G1 X128.047 Y126.88 E10.30676
G1 X127.419 Y127.553 E10.34962
G1 X126.735 Y128.169 E10.39248
G1 X126 Y128.723 E10.43534
G1 X125.22 Y129.212 E10.4782
G1 X124.4 Y129.631 E10.52108
G1 X123.547 Y129.977 E10.56395
G1 X122.667 Y130.248 E10.60682
G1 X121.767 Y130.441 E10.64968
G1 X120.853 Y130.556 E10.69258
G1 X120.288 Y130.587 E10.71893
G1 X119.67 Y130.6 E10.74771
G1 X100.57 Y130.599 E11.63708
G1 X99.872 Y130.59 E11.66959
G1 X98.953 Y130.538 E11.71245
G1 X98.042 Y130.407 E11.75531
G1 X97.146 Y130.197 E11.79816
G1 X96.271 Y129.91 E11.84104
G1 X95.424 Y129.548 E11.88393
G1 X94.612 Y129.114 E11.9268
G1 X93.841 Y128.612 E11.96964
G1 X93.116 Y128.044 E12.01253
G1 X92.443 Y127.415 E12.05542
G1 X91.828 Y126.731 E12.09825
G1 X91.274 Y125.996 E12.14111
G1 X90.786 Y125.215 E12.18399
G1 X90.367 Y124.395 E12.22687
G1 X90.021 Y123.542 E12.26973
G1 X89.751 Y122.662 E12.31259
G1 X89.558 Y121.761 E12.3555
G1 X89.444 Y120.848 E12.39834
G1 X89.413 Y120.277 E12.42497
G1 X89.4 Y119.658 E12.4538
G1 X89.401 Y100.531 E13.34443
G1 X89.41 Y99.866 E13.3754
G1 X89.462 Y98.946 E13.41831
G1 X89.594 Y98.035 E13.46117
G1 X89.805 Y97.139 E13.50403
G1 X90.092 Y96.264 E13.54691
G1 X90.455 Y95.418 E13.58978
G1 X90.889 Y94.606 E13.63265
G1 X91.392 Y93.835 E13.67552
G1 X91.961 Y93.111 E13.7184
G1 X92.589 Y92.439 E13.76122
G0 F6000 X92.981 Y92.617
G1 F1200 X93.662 Y92.024 E13.80327
G1 X94.394 Y91.494 E13.84535
G1 X95.169 Y91.031 E13.88739
G1 X95.982 Y90.638 E13.92944
G1 X96.827 Y90.318 E13.97151
G1 X97.696 Y90.075 E14.01353
G1 X98.584 Y89.909 E14.05559
G1 X99.723 Y89.813 E14.10882
G1 X100.33 Y89.8 E14.13709
G1 X119.293 Y89.8 E15.02009
G1 X120.137 Y89.811 E15.05939
G1 X121.039 Y89.864 E15.10146
G1 X121.932 Y89.996 E15.1435
G1 X122.81 Y90.207 E15.18554
G1 X123.666 Y90.495 E15.2276
G1 X124.493 Y90.857 E15.26963
G1 X125.285 Y91.292 E15.31171
G1 X126.036 Y91.794 E15.35377
G1 X126.739 Y92.361 E15.39583
G1 X127.389 Y92.988 E15.43788
G1 X127.981 Y93.67 E15.47993
G1 X128.511 Y94.401 E15.52198
G1 X128.973 Y95.177 E15.56403
G1 X129.366 Y95.99 E15.60608
G1 X129.684 Y96.835 E15.64812
G1 X129.927 Y97.705 E15.69018
G1 X130.092 Y98.593 E15.73224
G1 X130.187 Y99.723 E15.78504
G1 X130.2 Y100.33 E15.81331
G1 X130.199 Y119.39 E16.70082
G1 X130.19 Y120.117 E16.73468
G1 X130.139 Y121.019 E16.77675
G1 X130.008 Y121.913 E16.81882
G1 X129.799 Y122.791 E16.86084
G1 X129.513 Y123.648 E16.90291
G1 X129.152 Y124.476 E16.94497
G1 X128.72 Y125.268 E16.98698
G1 X128.219 Y126.02 E17.02906
G1 X127.653 Y126.724 E17.07112
G1 X127.028 Y127.375 E17.11314
G1 X126.347 Y127.969 E17.15522
G1 X125.616 Y128.5 E17.19729
G1 X124.842 Y128.964 E17.23931
G1 X124.029 Y129.358 E17.28138
G1 X123.185 Y129.678 E17.32341
G1 X122.315 Y129.923 E17.3655
G1 X121.428 Y130.089 E17.40752
G1 X120.277 Y130.187 E17.4613
G1 X119.67 Y130.2 E17.48958
G1 X100.575 Y130.199 E18.37872
G1 X99.877 Y130.19 E18.41122
G1 X98.976 Y130.139 E18.45324
G1 X98.082 Y130.007 E18.49532
G1 X97.204 Y129.798 E18.53735
G1 X96.347 Y129.511 E18.57943
G1 X95.52 Y129.15 E18.62145
G1 X94.727 Y128.717 E18.66352
G1 X93.976 Y128.216 E18.70556
G1 X93.272 Y127.65 E18.74762
G1 X92.621 Y127.024 E18.78968
G1 X92.028 Y126.343 E18.83172
G1 X91.498 Y125.612 E18.87377
G1 X91.034 Y124.837 E18.91583
G1 X90.64 Y124.024 E18.9579
G1 X90.32 Y123.18 E18.99993
G1 X90.076 Y122.31 E19.042
G1 X89.91 Y121.422 E19.08407
G1 X89.813 Y120.267 E19.13804
G1 X89.8 Y119.658 E19.1664
G1 X89.801 Y100.536 E20.0568
G1 X89.81 Y99.871 E20.08777
G1 X89.862 Y98.969 E20.12984
G1 X89.994 Y98.076 E20.17187
G1 X90.204 Y97.198 E20.21391
G1 X90.491 Y96.341 E20.25599
G1 X90.853 Y95.514 E20.29803
G1 X91.286 Y94.722 E20.34006
G1 X91.788 Y93.971 E20.38212
G1 X92.355 Y93.267 E20.42421
G1 X92.981 Y92.617 E20.46624
G1 F1500 E13.96624
;MESH:cube.stl
G0 F6000 X100.414 Y99.335
G0 X100.6 Y119.4
;TYPE:WALL-INNER
G1 F1500 E20.46624
G1 F1200 X119.4 Y119.4 E21.34164
G1 X119.4 Y100.6 E22.21705
G1 X100.6 Y100.6 E23.09246
G1 X100.6 Y119.4 E23.96786
G0 F6000 X100.2 Y119.8
;TYPE:WALL-OUTER
G1 F1200 X119.8 Y119.8 E24.88052
G1 X119.8 Y100.2 E25.79318
G1 X100.2 Y100.2 E26.70584
G1 X100.2 Y119.8 E27.61849
G0 F6000 X100.47 Y119.53
G0 X100.7 Y119.04
G0 X100.96 Y119.04
;TYPE:SKIN
G1 F1200 X119.04 Y119.04 E28.46038
G1 X119.04 Y100.96 E29.30226
G1 X100.96 Y100.96 E30.14414
G1 X100.96 Y119.04 E30.98602
G0 F6000 X101.36 Y118.639
M104 S200
G1 F1200 X101.668 Y118.639 E31.00036
G1 X101.359 Y118.33 E31.02071
G1 X101.359 Y117.764 E31.04706
G1 X102.234 Y118.639 E31.10468
G1 X102.799 Y118.639 E31.13099
G1 X101.359 Y117.198 E31.22585
G1 X101.359 Y116.633 E31.25216
G1 X103.365 Y118.639 E31.38426
G1 X103.931 Y118.639 E31.41061
G1 X101.359 Y116.067 E31.57998
G1 X101.359 Y115.501 E31.60634
G1 X104.496 Y118.639 E31.81295
G1 X105.062 Y118.639 E31.8393
G1 X101.359 Y114.935 E32.08319
G1 X101.359 Y114.37 E32.10949
G1 X105.628 Y118.639 E32.39062
G1 X106.194 Y118.639 E32.41697
G1 X101.359 Y113.804 E32.73536
G1 X101.359 Y113.238 E32.76172
G1 X106.759 Y118.639 E33.11735
G1 X107.325 Y118.639 E33.14371
G1 X101.359 Y112.673 E33.53658
G1 X101.359 Y112.107 E33.56293
G1 X107.891 Y118.639 E33.99308
G1 X108.456 Y118.639 E34.01939
G1 X101.359 Y111.541 E34.48677
G1 X101.359 Y110.976 E34.51308
G1 X109.022 Y118.639 E35.0177
G1 X109.588 Y118.639 E35.04405
G1 X101.359 Y110.41 E35.58595
G1 X101.359 Y109.844 E35.6123
G1 X110.153 Y118.639 E36.19144
G1 X110.719 Y118.639 E36.21779
G1 X101.359 Y109.279 E36.83416
G1 X101.359 Y108.713 E36.86052
G1 X111.285 Y118.639 E37.51416
G1 X111.85 Y118.639 E37.54047
G1 X101.359 Y108.147 E38.23135
G1 X101.359 Y107.582 E38.25766
G1 X112.416 Y118.639 E38.98579
G1 X112.982 Y118.639 E39.01214
G1 X101.359 Y107.016 E39.77753
G1 X101.359 Y106.45 E39.80389
G1 X113.547 Y118.639 E40.60652
G1 X114.113 Y118.639 E40.63288
G1 X101.359 Y105.884 E41.47278
G1 X101.359 Y105.319 E41.49909
G1 X114.679 Y118.639 E42.37624
G1 X115.244 Y118.639 E42.40255
G1 X101.359 Y104.753 E43.31693
G1 X101.359 Y104.187 E43.34329
G1 X115.81 Y118.639 E44.29494
G1 X116.376 Y118.639 E44.3213
G1 X101.359 Y103.622 E45.31019
G1 X101.359 Y103.056 E45.33655
G1 X116.942 Y118.639 E46.36272
G1 X117.507 Y118.639 E46.38902
G1 X101.359 Y102.49 E47.45243
G1 X101.359 Y101.925 E47.47874
G1 X118.073 Y118.639 E48.57938
G1 X118.639 Y118.639 E48.60574
G1 X101.359 Y101.359 E49.74366
G1 X101.925 Y101.36 E49.77001
G1 X118.639 Y118.074 E50.87066
G1 X118.639 Y117.508 E50.89701
G1 X102.491 Y101.36 E51.96039
G1 X103.057 Y101.36 E51.98674
G1 X118.639 Y116.942 E53.01284
G1 X118.639 Y116.377 E53.03915
G1 X103.622 Y101.36 E54.02805
G1 X104.188 Y101.36 E54.0544
G1 X118.639 Y115.811 E55.00603
G1 X118.639 Y115.245 E55.03238
G1 X104.754 Y101.36 E55.94673
G1 X105.32 Y101.36 E55.97309
G1 X118.639 Y114.679 E56.85017
G1 X118.639 Y114.114 E56.87647
G1 X105.885 Y101.36 E57.71635
G1 X106.451 Y101.36 E57.7427
G1 X118.639 Y113.548 E58.5453
G1 X118.639 Y112.982 E58.57166
G1 X107.017 Y101.36 E59.33699
G1 X107.582 Y101.36 E59.3633
G1 X118.639 Y112.417 E60.09142
G1 X118.639 Y111.851 E60.11777
G1 X108.148 Y101.36 E60.80862
G1 X108.714 Y101.36 E60.83498
G1 X118.639 Y111.285 E61.48856
G1 X118.639 Y110.72 E61.51487
G1 X109.279 Y101.36 E62.13124
G1 X109.845 Y101.36 E62.15759
G1 X118.639 Y110.154 E62.73669
G1 X118.639 Y109.588 E62.76305
G1 X110.411 Y101.36 E63.30488
G1 X110.976 Y101.36 E63.33119
G1 X118.639 Y109.023 E63.83581
G1 X118.639 Y108.457 E63.86216
G1 X111.542 Y101.36 E64.32951
G1 X112.108 Y101.36 E64.35587
G1 X118.639 Y107.891 E64.78594
G1 X118.639 Y107.326 E64.81225
G1 X112.673 Y101.36 E65.20513
G1 X113.239 Y101.36 E65.23148
G1 X118.639 Y106.76 E65.58708
G1 X118.639 Y106.194 E65.61343
G1 X113.805 Y101.36 E65.93176
G1 X114.37 Y101.36 E65.95807
G1 X118.639 Y105.629 E66.23919
G1 X118.639 Y105.063 E66.26555
G1 X114.936 Y101.36 E66.5094
G1 X115.502 Y101.36 E66.53575
G1 X118.639 Y104.497 E66.74233
G1 X118.639 Y103.931 E66.76868
G1 X116.068 Y101.36 E66.93799
G1 X116.633 Y101.36 E66.9643
G1 X118.639 Y103.366 E67.0964
G1 X118.639 Y102.8 E67.12275
G1 X117.199 Y101.36 E67.21758
G1 X117.765 Y101.36 E67.24393
G1 X118.639 Y102.234 E67.30149
G1 X118.639 Y101.669 E67.3278
G1 X118.33 Y101.36 E67.34814
G1 X118.639 Y101.36 E67.36253
G1 F1500 E60.86253
;MESH:NONMESH
G0 F300 X118.639 Y101.36 Z0.56
G0 F6000 X118.639 Y100.7
G0 X100.772 Y100.772
G0 X100.6 Y119.4
;TIME_ELAPSED:81.337550
;LAYER:1
M106 S85
;TYPE:WALL-INNER
;MESH:cube.stl
G1 F1500 E67.36253
G1 F1350 X119.4 Y119.4 E68.23794
G1 X119.4 Y100.6 E69.11335
G1 X100.6 Y100.6 E69.98875
G1 X100.6 Y119.4 E70.86416
G0 F7500 X100.2 Y119.8
;TYPE:WALL-OUTER
G1 F1350 X119.8 Y119.8 E71.77682
G1 X119.8 Y100.2 E72.68948
G1 X100.2 Y100.2 E73.60213
G1 X100.2 Y119.8 E74.51479
G0 F7500 X100.47 Y119.53
G0 X100.7 Y119.04
G0 X100.96 Y119.04
;TYPE:SKIN
G1 F1350 X119.04 Y119.04 E75.35667
G1 X119.04 Y100.96 E76.19855
G1 X100.96 Y100.96 E77.04043
G1 X100.96 Y119.04 E77.88231
G0 F7500 X100.7 Y119.04
G0 X100.772 Y100.772
G0 X101.721 Y100.7
G0 X101.721 Y101.359
G1 F1350 X101.36 Y101.72 E77.90609
G1 X101.36 Y102.286 E77.93244
G1 X102.287 Y101.359 E77.99349
G1 X102.852 Y101.359 E78.01979
G1 X101.36 Y102.852 E78.11808
G1 X101.36 Y103.417 E78.14439
G1 X103.418 Y101.359 E78.27991
G1 X103.984 Y101.359 E78.30627
G1 X101.36 Y103.983 E78.47906
G1 X101.36 Y104.549 E78.50542
G1 X104.549 Y101.359 E78.71545
G1 X105.115 Y101.359 E78.74181
G1 X101.36 Y105.114 E78.98908
G1 X101.36 Y105.68 E79.01543
G1 X105.681 Y101.359 E79.29998
G1 X106.247 Y101.359 E79.32633
G1 X101.36 Y106.246 E79.64815
G1 X101.36 Y106.812 E79.67451
G1 X106.812 Y101.359 E80.03356
G1 X107.378 Y101.359 E80.05992
G1 X101.36 Y107.377 E80.45621
G1 X101.36 Y107.943 E80.48257
G1 X107.944 Y101.359 E80.91614
G1 X108.509 Y101.359 E80.94245
G1 X101.36 Y108.509 E81.41325
G1 X101.36 Y109.074 E81.43956
G1 X109.075 Y101.359 E81.94761
G1 X109.641 Y101.359 E81.97396
G1 X101.36 Y109.64 E82.51928
G1 X101.36 Y110.206 E82.54564
G1 X110.206 Y101.359 E83.12819
G1 X110.772 Y101.359 E83.15455
G1 X101.36 Y110.771 E83.77434
G1 X101.36 Y111.337 E83.8007
G1 X111.338 Y101.359 E84.45777
G1 X111.903 Y101.359 E84.48408
G1 X101.36 Y111.903 E85.17838
G1 X101.36 Y112.468 E85.20469
G1 X112.469 Y101.359 E85.93624
G1 X113.035 Y101.359 E85.9626
G1 X101.36 Y113.034 E86.73141
G1 X101.36 Y113.6 E86.75777
G1 X113.6 Y101.359 E87.56383
G1 X114.166 Y101.359 E87.59018
G1 X101.36 Y114.165 E88.43348
G1 X101.36 Y114.731 E88.45983
G1 X114.732 Y101.359 E89.3404
G1 X115.298 Y101.359 E89.36676
G1 X101.36 Y115.297 E90.2846
G1 X101.36 Y115.862 E90.31091
G1 X115.863 Y101.359 E91.26596
G1 X116.429 Y101.359 E91.29231
G1 X101.36 Y116.428 E92.28463
G1 X101.36 Y116.994 E92.31099
G1 X116.995 Y101.359 E93.34058
G1 X117.56 Y101.359 E93.36689
G1 X101.36 Y117.56 E94.43372
G1 X101.36 Y118.125 E94.46003
G1 X118.126 Y101.359 E95.5641
G1 X118.639 Y101.36 E95.58798
G1 X118.639 Y101.412 E95.5904
G1 X101.411 Y118.639 E96.72486
G1 X101.977 Y118.639 E96.75122
G1 X118.639 Y101.978 E97.84841
G1 X118.639 Y102.543 E97.87472
G1 X102.543 Y118.639 E98.93467
G1 X103.108 Y118.639 E98.96098
G1 X118.639 Y103.109 E99.98369
G1 X118.639 Y103.675 E100.01004
G1 X103.674 Y118.639 E100.99548
G1 X104.24 Y118.639 E101.02183
G1 X118.639 Y104.24 E101.97003
G1 X118.639 Y104.806 E101.99639
G1 X104.805 Y118.639 E102.90735
G1 X105.371 Y118.639 E102.9337
G1 X118.639 Y105.372 E103.80739
G1 X118.639 Y105.938 E103.83375
G1 X105.937 Y118.639 E104.67016
G1 X106.503 Y118.639 E104.69652
G1 X118.639 Y106.503 E105.49569
G1 X118.639 Y107.069 E105.52205
G1 X107.068 Y118.639 E106.28399
G1 X107.634 Y118.639 E106.31034
G1 X118.639 Y107.635 E107.03501
