;FLAVOR:Marlin
;TIME:1413
;Filament used: 1.32009m
;Layer height: 0.28
;MINX:52.344
;MINY:52.344
;MINZ:0.28
;MAXX:167.656
;MAXY:167.656
;MAXZ:1.96
;Generated with Cura_SteamEngine 5.2.1
M82 ;absolute extrusion mode
; Ender 3 Custom Start G-code
G92 E0 ; Reset Extruder
G28 ; Home all axes
M104 S175 ; Start heating up the nozzle most of the way
M190 S60 ; Start heating the bed, wait until target temperature reached
M109 S200 ; Finish heating the nozzle
G1 Z2.0 F3000 ; Move Z Axis up little to prevent scratching of Heat Bed
G1 X0.1 Y20 Z0.3 F5000.0 ; Move to start position
G1 X0.1 Y200.0 Z0.3 F1500.0 E15 ; Draw the first line
G1 X0.4 Y200.0 Z0.3 F5000.0 ; Move to side a little
G1 X0.4 Y20 Z0.3 F1500.0 E30 ; Draw the second line
G92 E0 ; Reset Extruder
G1 Z2.0 F3000 ; Move Z Axis up little to prevent scratching of Heat Bed
G1 X5 Y20 Z0.3 F5000.0 ; Move over to prevent blob squish
G92 E0
G92 E0
G1 F1500 E-6.5
;LAYER_COUNT:7
;LAYER:0
M107
G0 F6000 X101.848 Y55.928 Z0.28
;TYPE:SKIRT
G1 F1500 E0
G1 F1200 X102.329 Y55.46 E0.03125
G1 X103.029 Y54.835 E0.07495
G1 X103.779 Y54.272 E0.11861
G1 X104.574 Y53.775 E0.16227
G1 X105.409 Y53.348 E0.20594
G1 X106.277 Y52.993 E0.24961
G1 X107.172 Y52.714 E0.29326
G1 X108.088 Y52.511 E0.33695
G1 X109.018 Y52.388 E0.38063
G1 X109.955 Y52.344 E0.42431
G1 X110.892 Y52.38 E0.46797
G1 X111.823 Y52.496 E0.51166
G1 X112.74 Y52.691 E0.55531
G1 X113.638 Y52.963 E0.599
G1 X114.509 Y53.31 E0.64266
G1 X115.347 Y53.731 E0.68633
G1 X116.146 Y54.221 E0.72997
G1 X116.901 Y54.778 E0.77366
G1 X117.529 Y55.325 E0.81244
G1 X118.007 Y55.781 E0.8432
G1 X164.072 Y101.847 E3.87669
G1 X164.54 Y102.328 E3.90794
G1 X165.165 Y103.028 E3.95164
G1 X165.728 Y103.778 E3.99531
G1 X166.225 Y104.573 E4.03897
G1 X166.652 Y105.408 E4.08264
G1 X167.007 Y106.276 E4.1263
G1 X167.286 Y107.171 E4.16996
G1 X167.489 Y108.087 E4.21364
G1 X167.612 Y109.017 E4.25733
G1 X167.656 Y109.954 E4.301
G1 X167.62 Y110.891 E4.34467
G1 X167.504 Y111.822 E4.38835
G1 X167.309 Y112.739 E4.43201
G1 X167.037 Y113.637 E4.4757
G1 X166.69 Y114.508 E4.51936
G1 X166.269 Y115.346 E4.56302
G1 X165.779 Y116.145 E4.60667
G1 X165.222 Y116.9 E4.65036
G1 X164.681 Y117.522 E4.68874
G1 X164.224 Y118.001 E4.71957
G1 X118.162 Y164.062 E7.7528
G1 X117.673 Y164.538 E7.78457
G1 X116.973 Y165.163 E7.82827
G1 X116.223 Y165.726 E7.87194
G1 X115.428 Y166.223 E7.91559
G1 X114.593 Y166.651 E7.95929
G1 X113.725 Y167.006 E8.00295
G1 X112.83 Y167.286 E8.04662
G1 X111.914 Y167.488 E8.0903
G1 X110.985 Y167.612 E8.13394
G1 X110.048 Y167.656 E8.17762
G1 X109.111 Y167.62 E8.22128
G1 X108.18 Y167.504 E8.26497
G1 X107.262 Y167.31 E8.30866
G1 X106.365 Y167.038 E8.3523
G1 X105.494 Y166.691 E8.39596
G1 X104.655 Y166.27 E8.43967
G1 X103.856 Y165.78 E8.48331
G1 X103.101 Y165.223 E8.527
G1 X102.427 Y164.634 E8.56868
G1 X101.986 Y164.21 E8.59717
G1 X55.936 Y118.159 E11.62967
G1 X55.468 Y117.679 E11.66089
G1 X54.842 Y116.98 E11.70458
G1 X54.279 Y116.231 E11.74821
G1 X53.781 Y115.436 E11.79189
G1 X53.353 Y114.602 E11.83554
G1 X52.997 Y113.734 E11.87923
G1 X52.717 Y112.839 E11.9229
G1 X52.513 Y111.923 E11.96659
G1 X52.389 Y110.994 E12.01024
G1 X52.344 Y110.057 E12.05392
G1 X52.379 Y109.12 E12.09758
G1 X52.494 Y108.189 E12.14126
G1 X52.688 Y107.271 E12.18495
G1 X52.959 Y106.373 E12.22863
G1 X53.306 Y105.502 E12.27228
G1 X53.725 Y104.663 E12.31595
G1 X54.215 Y103.863 E12.35963
G1 X54.771 Y103.108 E12.40329
G1 X55.336 Y102.459 E12.44336
G1 X55.776 Y101.999 E12.473
G1 X101.848 Y55.928 E15.50689
G0 F6000 X102.127 Y56.215
G1 F1200 X102.608 Y55.747 E15.53814
G1 X103.295 Y55.134 E15.58101
G1 X104.033 Y54.583 E15.6239
G1 X104.816 Y54.098 E15.66679
G1 X105.637 Y53.683 E15.70962
G1 X106.492 Y53.341 E15.7525
G1 X107.373 Y53.075 E15.79535
G1 X108.274 Y52.885 E15.83823
G1 X109.188 Y52.775 E15.8811
G1 X110.108 Y52.745 E15.92396
G1 X111.028 Y52.794 E15.96686
G1 X111.939 Y52.923 E16.0097
G1 X112.836 Y53.131 E16.05258
G1 X113.712 Y53.415 E16.09546
G1 X114.559 Y53.775 E16.13831
G1 X115.373 Y54.206 E16.1812
G1 X116.145 Y54.707 E16.22405
G1 X116.871 Y55.273 E16.26692
G1 X117.255 Y55.616 E16.29089
G1 X117.724 Y56.064 E16.3211
G1 X163.785 Y102.126 E19.35432
G1 X164.253 Y102.607 E19.38557
G1 X164.866 Y103.294 E19.42845
G1 X165.417 Y104.032 E19.47133
G1 X165.902 Y104.815 E19.51422
G1 X166.317 Y105.636 E19.55706
G1 X166.659 Y106.491 E19.59993
G1 X166.925 Y107.372 E19.64279
G1 X167.115 Y108.273 E19.68566
G1 X167.225 Y109.187 E19.72853
G1 X167.255 Y110.107 E19.77139
G1 X167.206 Y111.027 E19.81429
G1 X167.077 Y111.938 E19.85714
G1 X166.869 Y112.835 E19.90001
G1 X166.585 Y113.711 E19.94289
G1 X166.225 Y114.558 E19.98575
G1 X165.794 Y115.372 E20.02864
G1 X165.293 Y116.144 E20.07149
G1 X164.727 Y116.87 E20.11435
G1 X164.389 Y117.249 E20.138
G1 X163.941 Y117.718 E20.1682
G1 X117.883 Y163.776 E23.2012
G1 X117.394 Y164.252 E23.23298
G1 X116.707 Y164.865 E23.27585
G1 X115.969 Y165.416 E23.31873
G1 X115.187 Y165.9 E23.36156
G1 X114.365 Y166.316 E23.40446
G1 X113.51 Y166.658 E23.44734
G1 X112.629 Y166.925 E23.4902
G1 X111.728 Y167.114 E23.53307
G1 X110.814 Y167.225 E23.57594
G1 X109.894 Y167.255 E23.6188
G1 X108.975 Y167.206 E23.66166
G1 X108.063 Y167.078 E23.70454
G1 X107.166 Y166.87 E23.74741
G1 X106.29 Y166.586 E23.7903
G1 X105.443 Y166.226 E23.83315
G1 X104.63 Y165.795 E23.876
G1 X103.857 Y165.294 E23.91889
G1 X103.13 Y164.729 E23.96176
G1 X102.703 Y164.344 E23.98853
G1 X102.269 Y163.927 E24.01656
G1 X56.222 Y117.88 E27.04883
G1 X55.754 Y117.4 E27.08005
G1 X55.141 Y116.713 E27.12292
G1 X54.589 Y115.976 E27.1658
G1 X54.104 Y115.194 E27.20865
G1 X53.688 Y114.373 E27.2515
G1 X53.345 Y113.518 E27.2944
G1 X53.077 Y112.637 E27.33728
G1 X52.887 Y111.737 E27.38011
G1 X52.776 Y110.823 E27.42298
G1 X52.744 Y109.903 E27.46585
G1 X52.793 Y108.983 E27.50875
G1 X52.921 Y108.071 E27.55163
G1 X53.128 Y107.174 E27.5945
G1 X53.411 Y106.298 E27.63736
G1 X53.77 Y105.451 E27.6802
G1 X54.201 Y104.637 E27.72309
G1 X54.701 Y103.864 E27.76596
G1 X55.266 Y103.137 E27.80883
G1 X55.627 Y102.733 E27.83406
G1 X56.059 Y102.282 E27.86314
G1 X102.127 Y56.215 E30.89676
G0 F6000 X102.406 Y56.501
G1 F1200 X102.887 Y56.033 E30.92801
G1 X103.562 Y55.433 E30.97006
G1 X104.287 Y54.894 E31.01213
G1 X105.056 Y54.422 E31.05414
G1 X105.865 Y54.02 E31.09621
G1 X106.706 Y53.691 E31.13826
G1 X107.573 Y53.437 E31.18033
G1 X108.458 Y53.261 E31.22234
G1 X109.356 Y53.164 E31.2644
G1 X110.259 Y53.147 E31.30646
G1 X111.16 Y53.21 E31.34851
G1 X112.052 Y53.353 E31.39058
G1 X112.928 Y53.573 E31.43264
G1 X113.78 Y53.87 E31.47465
G1 X114.604 Y54.242 E31.51675
G1 X115.391 Y54.685 E31.5588
G1 X116.135 Y55.196 E31.60083
G1 X116.982 Y55.908 E31.65235
G1 X117.441 Y56.347 E31.68193
G1 X163.499 Y102.405 E34.71492
G1 X163.967 Y102.886 E34.74617
G1 X164.567 Y103.561 E34.78823
G1 X165.106 Y104.286 E34.83029
G1 X165.578 Y105.055 E34.87231
G1 X165.98 Y105.864 E34.91437
G1 X166.309 Y106.705 E34.95642
G1 X166.563 Y107.572 E34.99849
G1 X166.739 Y108.457 E35.04051
G1 X166.836 Y109.355 E35.08257
G1 X166.853 Y110.258 E35.12462
G1 X166.79 Y111.159 E35.16668
G1 X166.647 Y112.051 E35.20874
G1 X166.427 Y112.927 E35.2508
G1 X166.13 Y113.779 E35.29281
G1 X165.758 Y114.603 E35.33491
G1 X165.315 Y115.39 E35.37697
G1 X164.804 Y116.134 E35.41899
G1 X164.097 Y116.975 E35.47015
G1 X163.658 Y117.435 E35.49976
G1 X117.604 Y163.489 E38.5325
G1 X117.115 Y163.965 E38.56427
G1 X116.44 Y164.566 E38.60636
G1 X115.715 Y165.104 E38.64839
G1 X114.946 Y165.577 E38.69043
G1 X114.137 Y165.979 E38.7325
G1 X113.296 Y166.309 E38.77457
G1 X112.43 Y166.562 E38.81658
G1 X111.544 Y166.738 E38.85864
G1 X110.646 Y166.836 E38.9007
G1 X109.743 Y166.853 E38.94276
G1 X108.842 Y166.79 E38.98481
G1 X107.95 Y166.648 E39.02687
G1 X107.075 Y166.427 E39.06889
G1 X106.222 Y166.13 E39.11095
G1 X105.398 Y165.759 E39.15303
G1 X104.611 Y165.316 E39.19508
G1 X103.866 Y164.806 E39.23712
G1 X102.978 Y164.054 E39.29131
G1 X102.552 Y163.644 E39.31884
G1 X56.509 Y117.601 E42.35085
G1 X56.041 Y117.121 E42.38207
G1 X55.44 Y116.447 E42.42411
G1 X54.9 Y115.722 E42.46621
G1 X54.427 Y114.953 E42.50825
G1 X54.024 Y114.145 E42.55029
G1 X53.694 Y113.304 E42.59236
G1 X53.44 Y112.438 E42.63438
G1 X53.263 Y111.552 E42.67645
G1 X53.165 Y110.654 E42.71852
G1 X53.147 Y109.751 E42.76057
G1 X53.209 Y108.85 E42.80263
G1 X53.35 Y107.958 E42.84468
G1 X53.57 Y107.082 E42.88673
G1 X53.867 Y106.229 E42.92879
G1 X54.237 Y105.406 E42.97081
G1 X54.679 Y104.618 E43.01288
G1 X55.189 Y103.873 E43.05492
G1 X55.918 Y103.007 E43.10763
G1 X56.342 Y102.565 E43.13615
G1 X102.406 Y56.501 E46.16954
G1 F1500 E39.66954
;MESH:nested.stl
G0 F6000 X107.182 Y99.593
G0 X108.447 Y120.487
;TYPE:WALL-INNER
G1 F1500 E46.16954
G1 F1200 X107.824 Y120.374 E46.19903
G1 X107.27 Y120.244 E46.22552
G1 X106.698 Y120.073 E46.25332
G1 X106.136 Y119.871 E46.28113
G1 X105.587 Y119.638 E46.3089
G1 X105.05 Y119.375 E46.33674
G1 X104.56 Y119.098 E46.36295
G1 X104.027 Y118.758 E46.39239
G1 X103.571 Y118.429 E46.41858
G1 X103.311 Y118.223 E46.43402
G1 X102.856 Y117.832 E46.46196
G1 X102.436 Y117.426 E46.48916
G1 X102.215 Y117.196 E46.50401
G1 X101.832 Y116.758 E46.5311
G1 X101.63 Y116.504 E46.54621
G1 X101.299 Y116.057 E46.57211
G1 X100.959 Y115.538 E46.601
G1 X100.665 Y115.025 E46.62854
G1 X100.526 Y114.754 E46.64272
G1 X100.278 Y114.224 E46.66997
G1 X100.161 Y113.943 E46.68414
G1 X99.951 Y113.383 E46.71199
G1 X99.776 Y112.808 E46.73997
G1 X99.638 Y112.247 E46.76688
G1 X99.532 Y111.671 E46.79415
G1 X99.486 Y111.346 E46.80943
G1 X99.426 Y110.748 E46.83742
G1 X99.401 Y110.187 E46.86357
G1 X99.41 Y109.534 E46.89397
G1 X99.453 Y108.94 E46.92171
G1 X99.527 Y108.359 E46.94898
G1 X99.632 Y107.794 E46.97574
G1 X99.775 Y107.199 E47.00423
G1 X99.952 Y106.619 E47.03247
G1 X100.147 Y106.092 E47.05863
G1 X100.259 Y105.817 E47.07246
G1 X100.524 Y105.248 E47.10169
G1 X100.806 Y104.724 E47.1294
G1 X101.111 Y104.224 E47.15667
G1 X101.284 Y103.966 E47.17113
G1 X101.632 Y103.491 E47.19855
G1 X101.836 Y103.238 E47.21369
G1 X102.212 Y102.806 E47.24035
G1 X102.423 Y102.586 E47.25455
G1 X102.852 Y102.173 E47.28228
G1 X103.3 Y101.785 E47.30987
G1 X103.54 Y101.596 E47.3241
G1 X104.002 Y101.26 E47.3507
G1 X104.526 Y100.921 E47.37976
G1 X105.045 Y100.628 E47.40751
G1 X105.551 Y100.378 E47.43379
G1 X106.127 Y100.133 E47.46294
G1 X106.688 Y99.928 E47.49075
G1 X107.264 Y99.758 E47.51871
G1 X107.852 Y99.618 E47.54686
G1 X108.138 Y99.564 E47.56041
G1 X108.717 Y99.477 E47.58767
G1 X109.303 Y99.422 E47.61508
G1 X109.889 Y99.4 E47.64239
G1 X110.556 Y99.414 E47.67345
G1 X111.114 Y99.458 E47.69952
G1 X111.707 Y99.537 E47.72737
G1 X112.248 Y99.64 E47.75302
G1 X112.857 Y99.789 E47.78221
G1 X113.166 Y99.881 E47.79722
G1 X113.699 Y100.065 E47.82348
G1 X114.282 Y100.3 E47.85275
G1 X114.799 Y100.545 E47.87939
G1 X115.338 Y100.839 E47.90798
G1 X115.83 Y101.144 E47.93493
G1 X116.096 Y101.326 E47.94994
G1 X116.559 Y101.669 E47.97677
G1 X117.022 Y102.058 E48.00493
G1 X117.241 Y102.254 E48.01861
G1 X117.667 Y102.681 E48.0467
G1 X117.861 Y102.888 E48.05991
G1 X118.26 Y103.353 E48.08844
G1 X118.606 Y103.811 E48.11517
G1 X118.783 Y104.063 E48.12951
G1 X119.117 Y104.59 E48.15856
G1 X119.405 Y105.104 E48.186
G1 X119.661 Y105.634 E48.2134
G1 X119.9 Y106.202 E48.2421
G1 X120.093 Y106.755 E48.26937
G1 X120.183 Y107.05 E48.28373
G1 X120.325 Y107.595 E48.30996
G1 X120.443 Y108.178 E48.33765
G1 X120.533 Y108.787 E48.36632
G1 X120.582 Y109.367 E48.39342
G1 X120.6 Y109.961 E48.42109
G1 X120.584 Y110.593 E48.45053
G1 X120.537 Y111.186 E48.47823
G1 X120.45 Y111.781 E48.50623
G1 X120.341 Y112.335 E48.53252
G1 X120.259 Y112.678 E48.54894
G1 X120.098 Y113.233 E48.57585
G1 X119.911 Y113.763 E48.60202
G1 X119.677 Y114.334 E48.63076
G1 X119.422 Y114.862 E48.65806
G1 X119.119 Y115.403 E48.68693
G1 X118.821 Y115.881 E48.71316
G1 X118.45 Y116.406 E48.7431
G1 X118.094 Y116.846 E48.76945
G1 X117.884 Y117.087 E48.78434
G1 X117.488 Y117.507 E48.81122
G1 X117.036 Y117.927 E48.83995
G1 X116.593 Y118.305 E48.86706
G1 X116.116 Y118.662 E48.89481
G1 X115.622 Y118.99 E48.92242
G1 X115.346 Y119.155 E48.93739
G1 X114.833 Y119.437 E48.96465
G1 X114.292 Y119.693 E48.99252
G1 X114.009 Y119.813 E49.00683
G1 X113.449 Y120.023 E49.03468
G1 X112.879 Y120.203 E49.06251
G1 X112.284 Y120.353 E49.09109
G1 X111.712 Y120.461 E49.11819
G1 X111.143 Y120.539 E49.14493
G1 X110.559 Y120.586 E49.17222
G1 X109.928 Y120.6 E49.20161
G1 X109.331 Y120.579 E49.22942
G1 X108.745 Y120.526 E49.25682
G1 X108.447 Y120.487 E49.27081
G0 F6000 X108.818 Y121.337
G1 F1200 X109.403 Y121.382 E49.29813
G1 X109.99 Y121.4 E49.32548
G1 X110.575 Y121.385 E49.35273
G1 X111.164 Y121.339 E49.38024
G1 X111.446 Y121.307 E49.39345
G1 X112.053 Y121.212 E49.42206
G1 X112.615 Y121.095 E49.44879
G1 X113.196 Y120.942 E49.47677
G1 X113.761 Y120.761 E49.5044
G1 X114.282 Y120.564 E49.53033
G1 X114.821 Y120.328 E49.55773
G1 X115.348 Y120.066 E49.58513
G1 X115.861 Y119.777 E49.61255
G1 X116.353 Y119.463 E49.63973
G1 X116.834 Y119.122 E49.66718
G1 X117.311 Y118.746 E49.69547
G1 X117.512 Y118.574 E49.70778
G1 X117.945 Y118.176 E49.73517
G1 X118.165 Y117.954 E49.74972
G1 X118.556 Y117.534 E49.77644
G1 X118.931 Y117.081 E49.80383
G1 X119.103 Y116.861 E49.81683
G1 X119.462 Y116.356 E49.84568
G1 X119.763 Y115.885 E49.87171
G1 X120.054 Y115.367 E49.89938
G1 X120.319 Y114.84 E49.92684
G1 X120.555 Y114.303 E49.95416
G1 X120.769 Y113.74 E49.9822
G1 X120.941 Y113.196 E50.00877
G1 X121.018 Y112.918 E50.0222
G1 X121.154 Y112.35 E50.0494
G1 X121.261 Y111.765 E50.07709
G1 X121.336 Y111.192 E50.104
G1 X121.384 Y110.582 E50.13249
G1 X121.4 Y109.998 E50.15969
G1 X121.385 Y109.424 E50.18643
G1 X121.339 Y108.837 E50.21385
G1 X121.307 Y108.552 E50.2272
G1 X121.213 Y107.947 E50.25571
G1 X121.095 Y107.386 E50.2824
G1 X120.948 Y106.822 E50.30954
G1 X120.77 Y106.264 E50.33682
G1 X120.564 Y105.717 E50.36403
G1 X120.328 Y105.178 E50.39143
G1 X120.065 Y104.653 E50.41877
G1 X119.774 Y104.133 E50.44652
G1 X119.458 Y103.639 E50.47383
G1 X119.129 Y103.174 E50.50035
G1 X118.746 Y102.689 E50.52913
G1 X118.574 Y102.487 E50.54148
G1 X118.17 Y102.05 E50.56919
G1 X117.954 Y101.835 E50.58338
G1 X117.517 Y101.43 E50.61113
G1 X117.076 Y101.064 E50.63781
G1 X116.854 Y100.892 E50.65089
G1 X116.381 Y100.554 E50.67796
G1 X115.878 Y100.234 E50.70572
G1 X115.376 Y99.949 E50.7326
G1 X114.84 Y99.681 E50.7605
G1 X114.303 Y99.445 E50.78782
G1 X113.74 Y99.231 E50.81586
G1 X113.196 Y99.059 E50.84243
G1 X112.918 Y98.982 E50.85586
G1 X112.35 Y98.846 E50.88306
G1 X111.765 Y98.739 E50.91075
G1 X111.192 Y98.664 E50.93766
G1 X110.581 Y98.616 E50.9662
G1 X110.01 Y98.601 E50.99279
G1 X109.424 Y98.615 E51.02009
G1 X108.836 Y98.66 E51.04755
G1 X108.554 Y98.693 E51.06077
G1 X107.946 Y98.787 E51.08942
G1 X107.386 Y98.905 E51.11607
G1 X106.804 Y99.057 E51.14408
G1 X106.265 Y99.229 E51.17042
G1 X105.718 Y99.437 E51.19767
G1 X105.178 Y99.672 E51.22509
G1 X104.652 Y99.935 E51.25248
G1 X104.14 Y100.222 E51.27981
G1 X103.647 Y100.536 E51.30702
G1 X103.166 Y100.878 E51.33451
G1 X102.689 Y101.254 E51.36279
G1 X102.487 Y101.426 E51.37514
G1 X102.05 Y101.83 E51.40285
G1 X101.826 Y102.055 E51.41764
G1 X101.444 Y102.466 E51.44377
G1 X101.069 Y102.919 E51.47115
G1 X100.897 Y103.139 E51.48415
G1 X100.554 Y103.62 E51.51166
G1 X100.237 Y104.115 E51.53903
G1 X99.945 Y104.632 E51.56668
G1 X99.681 Y105.16 E51.59417
G1 X99.444 Y105.697 E51.6215
G1 X99.231 Y106.259 E51.64948
G1 X99.002 Y106.999 E51.68555
G1 X98.846 Y107.65 E51.71673
G1 X98.737 Y108.244 E51.74485
G1 X98.663 Y108.808 E51.77133
G1 X98.617 Y109.403 E51.79912
G1 X98.601 Y109.99 E51.82647
G1 X98.615 Y110.576 E51.85376
G1 X98.66 Y111.164 E51.88122
G1 X98.693 Y111.446 E51.89444
G1 X98.787 Y112.053 E51.92304
G1 X98.905 Y112.615 E51.94978
G1 X99.058 Y113.196 E51.97776
G1 X99.225 Y113.725 E52.00359
G1 X99.429 Y114.265 E52.03047
G1 X99.667 Y114.813 E52.05829
G1 X99.934 Y115.348 E52.08613
G1 X100.222 Y115.859 E52.11344
G1 X100.536 Y116.353 E52.1407
G1 X100.877 Y116.833 E52.16812
G1 X101.253 Y117.31 E52.1964
G1 X101.426 Y117.513 E52.20882
G1 X101.829 Y117.949 E52.23646
G1 X102.045 Y118.164 E52.25065
G1 X102.466 Y118.556 E52.27744
G1 X102.917 Y118.931 E52.30475
