;FLAVOR:Marlin
;TIME:2367
;Filament used: 2.40988m
;Layer height: 0.28
;MINX:86.586
;MINY:89
;MINZ:0.28
;MAXX:133.414
;MAXY:131
;MAXZ:29.96
;Generated with Cura_SteamEngine 5.2.1
M82 ;absolute extrusion mode
; Ender 3 Custom Start G-code
G92 E0 ; Reset Extruder
G28 ; Home all axes
M104 S175 ; Start heating up the nozzle most of the way
M190 S60 ; Start heating the bed, wait until target temperature reached
M109 S200 ; Finish heating the nozzle
G1 Z2.0 F3000 ; Move Z Axis up little to prevent scratching of Heat Bed
G1 X0.1 Y20 Z0.3 F5000.0 ; Move to start position
G1 X0.1 Y200.0 Z0.3 F1500.0 E15 ; Draw the first line
G1 X0.4 Y200.0 Z0.3 F5000.0 ; Move to side a little
G1 X0.4 Y20 Z0.3 F1500.0 E30 ; Draw the second line
G92 E0 ; Reset Extruder
G1 Z2.0 F3000 ; Move Z Axis up little to prevent scratching of Heat Bed
G1 X5 Y20 Z0.3 F5000.0 ; Move over to prevent blob squish
G92 E0
G92 E0
G1 F1500 E-6.5
;LAYER_COUNT:107
;LAYER:0
M107
G0 F6000 X89.798 Y92.254 Z0.28
;TYPE:SKIRT
G1 F1500 E0
G1 F1200 X90.487 Y91.618 E0.04366
G1 X91.227 Y91.043 E0.0873
G1 X92.015 Y90.533 E0.13101
G1 X92.842 Y90.092 E0.17465
G1 X93.704 Y89.723 E0.21831
G1 X94.595 Y89.429 E0.262
G1 X95.507 Y89.211 E0.30566
G1 X96.435 Y89.073 E0.34935
G1 X97.225 Y89.017 E0.38623
G1 X97.922 Y89 E0.41869
G1 X121.865 Y89.001 E1.53358
G1 X122.563 Y89.011 E1.56608
G1 X123.499 Y89.065 E1.60974
G1 X124.427 Y89.197 E1.65338
G1 X125.341 Y89.409 E1.69707
G1 X126.233 Y89.698 E1.74074
G1 X127.098 Y90.061 E1.78442
G1 X127.928 Y90.497 E1.82807
G1 X128.719 Y91.002 E1.87177
G1 X129.463 Y91.573 E1.91544
G1 X130.156 Y92.205 E1.95911
G1 X130.793 Y92.893 E2.00277
G1 X131.368 Y93.634 E2.04645
G1 X131.879 Y94.42 E2.0901
G1 X132.321 Y95.248 E2.13381
G1 X132.69 Y96.11 E2.17747
G1 X132.985 Y97 E2.22113
G1 X133.203 Y97.912 E2.26479
G1 X133.343 Y98.84 E2.30849
G1 X133.401 Y99.701 E2.34867
G1 X133.414 Y100.331 E2.37801
G1 X133.412 Y119.418 E3.26679
G1 X133.402 Y120.141 E3.30045
G1 X133.349 Y121.078 E3.34415
G1 X133.217 Y122.006 E3.3878
G1 X133.005 Y122.92 E3.43149
G1 X132.717 Y123.812 E3.47514
G1 X132.354 Y124.677 E3.51882
G1 X131.919 Y125.508 E3.56249
G1 X131.414 Y126.298 E3.60615
G1 X130.844 Y127.043 E3.64983
G1 X130.212 Y127.736 E3.69351
G1 X129.524 Y128.373 E3.73716
G1 X128.784 Y128.949 E3.78083
G1 X127.997 Y129.46 E3.82452
G1 X127.17 Y129.902 E3.86819
G1 X126.308 Y130.272 E3.91187
G1 X125.418 Y130.568 E3.95554
G1 X124.506 Y130.786 E3.9992
G1 X123.579 Y130.926 E4.04286
G1 X122.775 Y130.983 E4.08039
G1 X122.078 Y131 E4.11285
G1 X98.151 Y130.999 E5.227
G1 X97.453 Y130.99 E5.2595
G1 X96.517 Y130.938 E5.30315
G1 X95.588 Y130.806 E5.34684
G1 X94.674 Y130.596 E5.39051
G1 X93.781 Y130.309 E5.43419
G1 X92.916 Y129.946 E5.47787
G1 X92.085 Y129.512 E5.52152
G1 X91.294 Y129.008 E5.5652
G1 X90.549 Y128.438 E5.60888
G1 X89.855 Y127.807 E5.65255
G1 X89.218 Y127.12 E5.69618
G1 X88.641 Y126.38 E5.73987
G1 X88.129 Y125.594 E5.78355
G1 X87.686 Y124.767 E5.82724
G1 X87.315 Y123.906 E5.87089
G1 X87.019 Y123.016 E5.91457
G1 X86.8 Y122.104 E5.95824
G1 X86.659 Y121.177 E6.0019
G1 X86.599 Y120.269 E6.04427
G1 X86.586 Y119.634 E6.07385
G1 X86.588 Y100.508 E6.96444
G1 X86.598 Y99.845 E6.99531
G1 X86.652 Y98.909 E7.03897
G1 X86.786 Y97.981 E7.08263
G1 X86.998 Y97.067 E7.12632
G1 X87.288 Y96.175 E7.16999
G1 X87.652 Y95.311 E7.21365
G1 X88.088 Y94.481 E7.2573
G1 X88.594 Y93.691 E7.30099
G1 X89.165 Y92.947 E7.34466
G1 X89.798 Y92.254 E7.38836
G0 F6000 X90.189 Y92.429
G1 F1200 X90.875 Y91.815 E7.43123
G1 X91.612 Y91.263 E7.47411
G1 X92.393 Y90.776 E7.51697
G1 X93.214 Y90.359 E7.55984
G1 X94.068 Y90.016 E7.6027
G1 X94.949 Y89.747 E7.64559
G1 X95.85 Y89.556 E7.68848
G1 X96.763 Y89.444 E7.73131
G1 X97.238 Y89.417 E7.75346
G1 X97.922 Y89.4 E7.78532
G1 X121.707 Y89.4 E8.89285
G1 X122.557 Y89.411 E8.93243
G1 X123.476 Y89.464 E8.9753
G1 X124.387 Y89.597 E9.01817
G1 X125.283 Y89.808 E9.06103
G1 X126.157 Y90.096 E9.10388
G1 X127.004 Y90.459 E9.14679
G1 X127.815 Y90.894 E9.18964
G1 X128.585 Y91.398 E9.23249
G1 X129.309 Y91.967 E9.27537
G1 X129.981 Y92.597 E9.31826
G1 X130.596 Y93.282 E9.36113
G1 X131.149 Y94.018 E9.404
G1 X131.636 Y94.799 E9.44685
G1 X132.053 Y95.62 E9.48973
G1 X132.398 Y96.474 E9.53262
G1 X132.667 Y97.354 E9.57547
G1 X132.859 Y98.255 E9.61836
G1 X132.972 Y99.168 E9.6612
G1 X133.001 Y99.712 E9.68657
G1 X133.014 Y100.331 E9.7154
G1 X133.012 Y119.413 E10.60394
G1 X133.002 Y120.136 E10.63761
G1 X132.949 Y121.055 E10.68047
G1 X132.817 Y121.966 E10.72333
G1 X132.606 Y122.862 E10.7662
G1 X132.318 Y123.737 E10.80909
G1 X131.956 Y124.583 E10.85194
G1 X131.521 Y125.394 E10.89479
G1 X131.018 Y126.165 E10.93766
G1 X130.449 Y126.889 E10.98053
G1 X129.82 Y127.562 E11.02343
G1 X129.135 Y128.177 E11.06629
G1 X128.399 Y128.73 E11.10916
G1 X127.618 Y129.217 E11.15202
G1 X126.798 Y129.635 E11.19488
G1 X125.944 Y129.98 E11.23776
G1 X125.064 Y130.25 E11.28063
G1 X124.164 Y130.442 E11.32348
G1 X123.25 Y130.555 E11.36636
G1 X122.762 Y130.583 E11.38912
G1 X122.078 Y130.6 E11.42098
G1 X98.156 Y130.599 E12.53489
G1 X97.458 Y130.59 E12.56739
G1 X96.539 Y130.538 E12.61025
G1 X95.628 Y130.407 E12.65311
G1 X94.732 Y130.197 E12.69596
G1 X93.857 Y129.91 E12.73884
G1 X93.01 Y129.548 E12.78173
G1 X92.198 Y129.114 E12.8246
G1 X91.427 Y128.612 E12.86744
G1 X90.702 Y128.044 E12.91033
G1 X90.029 Y127.415 E12.95322
G1 X89.414 Y126.731 E12.99606
G1 X88.86 Y125.996 E13.03891
G1 X88.372 Y125.215 E13.0818
G1 X87.953 Y124.395 E13.12467
G1 X87.607 Y123.542 E13.16754
G1 X87.337 Y122.662 E13.2104
G1 X87.144 Y121.761 E13.2533
G1 X87.03 Y120.848 E13.29615
G1 X86.998 Y120.259 E13.32361
G1 X86.986 Y119.634 E13.35272
G1 X86.988 Y100.514 E14.24303
G1 X86.998 Y99.851 E14.27391
G1 X87.052 Y98.932 E14.31677
G1 X87.185 Y98.021 E14.35964
G1 X87.397 Y97.125 E14.40251
G1 X87.686 Y96.251 E14.44538
G1 X88.05 Y95.405 E14.48826
G1 X88.486 Y94.594 E14.53114
G1 X88.99 Y93.824 E14.57399
G1 X89.559 Y93.101 E14.61683
G1 X90.189 Y92.429 E14.65972
G0 F6000 X90.58 Y92.608
G1 F1200 X91.263 Y92.016 E14.70181
G1 X91.995 Y91.487 E14.74387
G1 X92.771 Y91.025 E14.78592
G1 X93.584 Y90.633 E14.82795
G1 X94.43 Y90.315 E14.87003
G1 X95.3 Y90.073 E14.91208
G1 X96.188 Y89.909 E14.95413
G1 X97.252 Y89.817 E15.00386
G1 X97.922 Y89.8 E15.03506
G1 X121.707 Y89.8 E16.14259
G1 X122.551 Y89.811 E16.1819
G1 X123.453 Y89.864 E16.22397
G1 X124.346 Y89.996 E16.266
G1 X125.224 Y90.207 E16.30805
G1 X126.08 Y90.495 E16.35011
G1 X126.907 Y90.857 E16.39214
G1 X127.699 Y91.292 E16.43422
G1 X128.45 Y91.794 E16.47628
G1 X129.153 Y92.361 E16.51834
G1 X129.803 Y92.988 E16.56039
G1 X130.395 Y93.67 E16.60244
G1 X130.925 Y94.401 E16.64448
G1 X131.387 Y95.177 E16.68654
G1 X131.78 Y95.99 E16.72858
G1 X132.098 Y96.835 E16.77063
G1 X132.341 Y97.705 E16.81269
G1 X132.506 Y98.593 E16.85474
G1 X132.601 Y99.723 E16.90755
G1 X132.614 Y100.331 E16.93586
G1 X132.612 Y119.407 E17.82412
G1 X132.602 Y120.13 E17.85779
G1 X132.55 Y121.032 E17.89986
G1 X132.418 Y121.925 E17.9419
G1 X132.207 Y122.803 E17.98394
G1 X131.92 Y123.659 E18.02598
G1 X131.558 Y124.487 E18.06806
G1 X131.124 Y125.279 E18.11011
G1 X130.622 Y126.03 E18.15218
G1 X130.055 Y126.733 E18.19423
G1 X129.429 Y127.383 E18.23625
G1 X128.747 Y127.976 E18.27834
G1 X128.016 Y128.506 E18.32038
G1 X127.241 Y128.969 E18.36242
G1 X126.427 Y129.362 E18.40451
G1 X125.583 Y129.681 E18.44652
G1 X124.713 Y129.924 E18.48858
G1 X123.825 Y130.089 E18.53064
G1 X122.748 Y130.183 E18.58098
G1 X122.078 Y130.2 E18.61219
G1 X98.161 Y130.199 E19.72586
G1 X97.463 Y130.19 E19.75837
G1 X96.562 Y130.139 E19.80039
G1 X95.668 Y130.007 E19.84247
G1 X94.79 Y129.798 E19.88449
G1 X93.933 Y129.511 E19.92658
G1 X93.106 Y129.15 E19.96859
G1 X92.313 Y128.717 E20.01067
G1 X91.562 Y128.216 E20.0527
G1 X90.858 Y127.65 E20.09476
G1 X90.207 Y127.024 E20.13682
G1 X89.614 Y126.343 E20.17887
G1 X89.084 Y125.612 E20.22091
G1 X88.62 Y124.837 E20.26297
G1 X88.226 Y124.024 E20.30504
G1 X87.906 Y123.18 E20.34707
G1 X87.662 Y122.31 E20.38914
G1 X87.496 Y121.422 E20.43121
G1 X87.398 Y120.249 E20.48602
G1 X87.386 Y119.634 E20.51466
G1 X87.388 Y100.52 E21.40469
G1 X87.398 Y99.857 E21.43556
G1 X87.452 Y98.956 E21.47759
G1 X87.585 Y98.062 E21.51968
G1 X87.796 Y97.184 E21.56173
G1 X88.085 Y96.329 E21.60375
G1 X88.448 Y95.502 E21.64581
G1 X88.883 Y94.71 E21.68788
G1 X89.386 Y93.96 E21.72993
G1 X89.953 Y93.257 E21.77199
G1 X90.58 Y92.608 E21.81401
G1 F1500 E15.31401
G0 F6000 X100.187 Y102.6
G1 F1500 E21.81401
G1 F1200 X100.38 Y102.6 E21.82299
G1 X100.379 Y117.4 E22.51214
G1 X100.186 Y117.4 E22.52113
G1 X100.187 Y102.6 E23.21028
G0 F6000 X99.787 Y102.2
G1 F1200 X100.78 Y102.2 E23.25652
G1 X100.779 Y117.8 E23.98292
G1 X99.786 Y117.8 E24.02916
G1 X99.787 Y102.2 E24.75556
G0 F6000 X99.387 Y101.8
G1 F1200 X101.18 Y101.8 E24.83905
G1 X101.179 Y118.2 E25.6027
G1 X99.386 Y118.2 E25.68619
G1 X99.387 Y101.8 E26.44985
G0 F6000 X98.987 Y101.4
G1 F1200 X101.58 Y101.4 E26.57059
G1 X101.579 Y118.6 E27.37149
G1 X98.986 Y118.6 E27.49223
G1 X98.987 Y101.4 E28.29314
G0 F6000 X98.587 Y101
G1 F1200 X101.98 Y101 E28.45113
G1 X101.979 Y119 E29.28928
G1 X98.586 Y119 E29.44728
G1 X98.587 Y101 E30.28543
G0 F6000 X98.187 Y100.6
G1 F1200 X102.38 Y100.6 E30.48067
G1 X102.379 Y119.4 E31.35608
G1 X98.186 Y119.4 E31.55132
G1 X98.187 Y100.6 E32.42673
G0 F6000 X97.787 Y100.2
G1 F1200 X102.78 Y100.2 E32.65923
G1 X102.779 Y119.8 E33.57188
G1 X97.786 Y119.8 E33.80438
G1 X97.787 Y100.2 E34.71704
G1 F1500 E28.21704
G0 F6000 X102.327 Y99.347
G0 X117.67 Y99.347
G0 X117.682 Y100.2
G0 X117.217 Y100.2
G1 F1500 E34.71704
G1 F1200 X122.214 Y100.2 E34.94972
G1 X122.213 Y119.8 E35.86238
G1 X117.217 Y119.8 E36.09501
G1 X117.217 Y100.2 E37.00767
G0 F6000 X117.617 Y100.6
G1 F1200 X121.814 Y100.6 E37.2031
G1 X121.813 Y119.4 E38.07851
G1 X117.617 Y119.4 E38.27389
G1 X117.617 Y100.6 E39.1493
G0 F6000 X118.017 Y101
G1 F1200 X121.414 Y101 E39.30748
G1 X121.413 Y119 E40.14563
G1 X118.017 Y119 E40.30376
G1 X118.017 Y101 E41.14192
G0 F6000 X118.417 Y101.4
G1 F1200 X121.014 Y101.4 E41.26285
G1 X121.013 Y118.6 E42.06375
G1 X118.417 Y118.6 E42.18463
G1 X118.417 Y101.4 E42.98553
G0 F6000 X118.817 Y101.8
G1 F1200 X120.614 Y101.8 E43.06921
G1 X120.613 Y118.2 E43.83286
G1 X118.817 Y118.2 E43.91649
G1 X118.817 Y101.8 E44.68014
G0 F6000 X119.217 Y102.2
G1 F1200 X120.214 Y102.2 E44.72657
G1 X120.213 Y117.8 E45.45297
G1 X119.217 Y117.8 E45.49935
G1 X119.217 Y102.2 E46.22575
G0 F6000 X119.617 Y102.6
G1 F1200 X119.814 Y102.6 E46.23492
G1 X119.813 Y117.4 E46.92407
G1 X119.617 Y117.4 E46.9332
G1 X119.617 Y102.6 E47.62235
G1 F1500 E41.12235
G0 F6000 X117.682 Y100.2
G0 X116.817 Y100.2
;TYPE:SUPPORT-INTERFACE
G1 F1500 E47.62235
G1 F1200 X116.817 Y119.8 E48.53501
G1 X113.724 Y119.8 E48.67903
G1 X113.725 Y100.2 E49.59169
G1 X116.817 Y100.2 E49.73567
G1 F1500 E43.23567
G0 F6000 X116.817 Y99.335
G0 X107.305 Y99.347
G0 X107.145 Y100.2
G0 X106.28 Y100.2
G1 F1500 E49.73567
G1 F1200 X106.279 Y119.8 E50.64832
G1 X103.179 Y119.8 E50.79267
G1 X103.18 Y100.2 E51.70533
G1 X106.28 Y100.2 E51.84968
G0 F6000 X106.079 Y100.961
G1 F1200 X103.379 Y103.661 E52.02748
G0 F6000 X103.379 Y103.379
G1 F1200 X106.079 Y106.079 E52.20528
G0 F6000 X106.079 Y107.749
G1 F1200 X103.379 Y110.449 E52.38308
G0 F6000 X103.379 Y110.167
G1 F1200 X106.079 Y112.867 E52.56088
G0 F6000 X106.079 Y114.537
G1 F1200 X103.379 Y117.237 E52.73868
G0 F6000 X103.379 Y116.955
G1 F1200 X106.022 Y119.598 E52.91272
G0 F6000 X104.412 Y119.599
G1 F1200 X106.079 Y117.931 E53.02253
G0 F6000 X106.079 Y116.261
G1 F1200 X103.379 Y113.561 E53.20033
G0 F6000 X103.379 Y113.843
G1 F1200 X106.079 Y111.143 E53.37813
G0 F6000 X106.079 Y109.473
G1 F1200 X103.379 Y106.773 E53.55593
G0 F6000 X103.379 Y107.055
G1 F1200 X106.079 Y104.355 E53.73373
G0 F6000 X106.079 Y102.685
G1 F1200 X103.794 Y100.399 E53.88423
G1 F1500 E47.38423
G0 F6000 X103.794 Y99.335
G0 X112.691 Y99.347
G0 X112.859 Y100.399
G0 X113.976 Y100.399
G1 F1500 E53.88423
G1 F1200 X116.616 Y103.04 E54.05812
G0 F6000 X116.616 Y104
G1 F1200 X113.924 Y106.693 E54.23542
G0 F6000 X113.924 Y107.135
G1 F1200 X116.616 Y109.828 E54.41273
G0 F6000 X116.616 Y110.788
G1 F1200 X113.924 Y113.481 E54.59003
G0 F6000 X113.924 Y113.924
G1 F1200 X116.616 Y116.616 E54.76731
G0 F6000 X116.616 Y117.577
G1 F1200 X114.594 Y119.599 E54.90046
G0 F6000 X116.205 Y119.599
G1 F1200 X113.924 Y117.318 E55.05067
G0 F6000 X113.924 Y116.875
G1 F1200 X116.616 Y114.182 E55.22797
G0 F6000 X116.616 Y113.222
G1 F1200 X113.924 Y110.529 E55.40528
G0 F6000 X113.924 Y110.087
G1 F1200 X116.616 Y107.394 E55.58258
G0 F6000 X116.616 Y106.434
G1 F1200 X113.924 Y103.741 E55.75989
G0 F6000 X113.924 Y103.299
G1 F1200 X116.616 Y100.606 E55.93719
G1 F1500 E49.43719
;MESH:0001cylinder.stl
G0 F6000 X116.616 Y99.335
G0 X112.872 Y99.347
G0 X112.703 Y100.606
G0 X108.558 Y119.4
;TYPE:WALL-INNER
G1 F1500 E55.93719
G1 F1200 X109.998 Y119.4 E56.00425
G1 X111.438 Y119.4 E56.0713
G1 X111.438 Y100.6 E56.94671
G1 X108.558 Y100.6 E57.08081
G1 X108.558 Y119.4 E57.95622
G0 F6000 X108.158 Y119.8
;TYPE:WALL-OUTER
G1 F1200 X109.998 Y119.8 E58.0419
G1 X111.838 Y119.8 E58.12757
G1 X111.838 Y100.2 E59.04023
G1 X108.158 Y100.2 E59.21159
G1 X108.158 Y119.8 E60.12425
G0 F6000 X108.427 Y119.53
G0 X108.658 Y119.001
G0 X108.958 Y119
;TYPE:SKIN
G1 F1200 X111.038 Y119 E60.2211
G1 X111.038 Y101 E61.05925
G1 X108.958 Y101 E61.15611
G1 X108.958 Y102.04 E61.20453
G1 X108.958 Y119 E61.99426
G0 F6000 X109.358 Y118.6
G1 F1200 X110.638 Y118.6 E62.05387
G1 X110.638 Y101.4 E62.85477
G1 X109.358 Y101.4 E62.91437
G1 X109.358 Y102.04 E62.94417
G1 X109.358 Y118.6 E63.71528
G0 F6000 X109.778 Y118.18
M104 S200
G1 F1090.9 X110.218 Y118.18 E63.73781
G1 X110.218 Y101.82 E64.57578
G1 X109.778 Y101.82 E64.59832
G1 X109.778 Y102.04 E64.60959
G1 X109.778 Y118.18 E65.43629
G1 F1500 E58.93629
;MESH:NONMESH
G0 F300 X109.778 Y118.18 Z0.56
G0 F6000 X107.292 Y118.18
G0 X107.132 Y120.653
G0 X102.326 Y120.653
G0 X97.667 Y100.08
;TIME_ELAPSED:86.233657
;LAYER:1
M106 S85
;TYPE:SUPPORT
G1 F1500 E65.43629
G1 F1350 X97.667 Y119.92 E66.36012
G1 X102.357 Y119.92 E66.57851
G1 X102.357 Y100.08 E67.50234
G1 X97.667 Y100.08 E67.72073
G1 F1500 E61.22073
G0 F7500 X97.667 Y99.335
G0 X102 Y99.335
G0 X102 Y100.36
G1 F1500 E67.72073
G1 F1350 X102 Y119.64 E68.61848
G1 X102.077 Y119.64 E68.62207
G1 X102.077 Y100.36 E69.51983
G1 X100 Y100.36 E69.61654
G1 X100 Y119.64 E70.5143
G1 X97.947 Y119.64 E70.6099
G1 X97.947 Y100.36 E71.50765
G1 X98 Y100.36 E71.51012
G1 X98 Y119.64 E72.40788
G1 F1500 E65.90788
G0 F7500 X98 Y120.665
G0 X117.641 Y120.665
G0 X117.641 Y119.919
G1 F1500 E72.40788
G1 F1350 X122.333 Y119.919 E72.62636
G1 X122.333 Y100.081 E73.5501
G1 X117.641 Y100.081 E73.76858
G1 X117.641 Y119.919 E74.69232
G0 F7500 X118 Y119.639
G1 F1350 X118 Y100.361 E75.58998
G1 X117.921 Y100.361 E75.59366
G1 X117.921 Y119.639 E76.49133
G1 X120 Y119.639 E76.58813
G1 X120 Y100.361 E77.4858
G1 X122.053 Y100.361 E77.58139
G1 X122.053 Y119.639 E78.47906
G1 X122 Y119.639 E78.48153
G1 X122 Y100.361 E79.37919
G1 F1500 E72.87919
G0 F7500 X122 Y99.335
G0 X117.56 Y99.335
G0 X117.56 Y100.589
;TYPE:SUPPORT-INTERFACE
G1 F1500 E79.37919
G1 F1350 X116.971 Y100 E79.41798
G0 F7500 X117.223 Y99.999
G1 F1350 X114.527 Y102.695 E79.59551
G0 F7500 X114.526 Y104.344
G1 F1350 X117.56 Y107.377 E79.79527
G0 F7500 X117.559 Y106.452
G1 F1350 X114.527 Y109.484 E79.99494
G0 F7500 X114.526 Y111.132
G1 F1350 X117.56 Y114.165 E80.1947
G0 F7500 X117.559 Y113.24
G1 F1350 X114.527 Y116.272 E80.39436
G0 F7500 X114.526 Y117.92
G1 F1350 X116.604 Y119.998 E80.5312
G0 F7500 X114.527 Y119.666
G1 F1350 X117.559 Y116.634 E80.73086
G0 F7500 X117.56 Y117.56
G1 F1350 X114.526 Y114.526 E80.93066
G0 F7500 X114.527 Y112.878
G1 F1350 X117.559 Y109.846 E81.13032
G0 F7500 X117.56 Y110.771
G1 F1350 X114.526 Y107.738 E81.33008
G0 F7500 X114.527 Y106.09
G1 F1350 X117.559 Y103.057 E81.52977
G0 F7500 X117.56 Y103.983
G1 F1350 X114.526 Y100.95 E81.72954
G1 F1500 E75.22954
G0 F7500 X114.526 Y99.335
G0 X105.472 Y99.335
G0 X105.472 Y101.568
G1 F1500 E81.72954
G1 F1350 X102.437 Y104.603 E81.9294
G0 F7500 X102.437 Y105.831
G1 F1350 X105.473 Y108.867 E82.12932
G0 F7500 X105.472 Y108.356
