;FLAVOR:Marlin
;TIME:930
;Filament used: 0.437407m
;Layer height: 0.28
;MINX:76.605
;MINY:81.985
;MINZ:0.28
;MAXX:129.288
;MAXY:134.668
;MAXZ:29.96
;Generated with Cura_SteamEngine 5.2.1
M82 ;absolute extrusion mode
; Ender 3 Custom Start G-code
G92 E0 ; Reset Extruder
G28 ; Home all axes
M104 S175 ; Start heating up the nozzle most of the way
M190 S60 ; Start heating the bed, wait until target temperature reached
M109 S200 ; Finish heating the nozzle
G1 Z2.0 F3000 ; Move Z Axis up little to prevent scratching of Heat Bed
G1 X0.1 Y20 Z0.3 F5000.0 ; Move to start position
G1 X0.1 Y200.0 Z0.3 F1500.0 E15 ; Draw the first line
G1 X0.4 Y200.0 Z0.3 F5000.0 ; Move to side a little
G1 X0.4 Y20 Z0.3 F1500.0 E30 ; Draw the second line
G92 E0 ; Reset Extruder
G1 Z2.0 F3000 ; Move Z Axis up little to prevent scratching of Heat Bed
G1 X5 Y20 Z0.3 F5000.0 ; Move over to prevent blob squish
G92 E0
G92 E0
G1 F1500 E-6.5
;LAYER_COUNT:107
;LAYER:0
M107
G0 F6000 X84.837 Y89.203 Z0.28
;TYPE:SKIRT
G1 F1500 E0
G1 F1200 X85.531 Y88.569 E0.04377
G1 X86.114 Y88.069 E0.07953
G1 X86.414 Y87.825 E0.09754
G1 X87.247 Y87.179 E0.14662
G1 X87.69 Y86.855 E0.17218
G1 X88.345 Y86.401 E0.20929
G1 X88.762 Y86.129 E0.23247
G1 X89.375 Y85.749 E0.26606
G1 X89.801 Y85.498 E0.28908
G1 X90.391 Y85.168 E0.32056
G1 X90.856 Y84.922 E0.34505
G1 X91.42 Y84.641 E0.3744
G1 X91.89 Y84.421 E0.39856
G1 X92.917 Y83.975 E0.4507
G1 X93.802 Y83.624 E0.49503
G1 X94.149 Y83.497 E0.51223
G1 X94.665 Y83.323 E0.53759
G1 X95.421 Y83.088 E0.57445
G1 X96.342 Y82.83 E0.61899
G1 X97.119 Y82.638 E0.65626
G1 X97.608 Y82.532 E0.67956
G1 X98.25 Y82.408 E0.71
G1 X98.776 Y82.319 E0.73485
G1 X99.79 Y82.18 E0.7825
G1 X100.416 Y82.112 E0.81182
G1 X101.222 Y82.045 E0.84948
G1 X102.29 Y81.996 E0.89927
G1 X102.962 Y81.985 E0.93056
G1 X103.529 Y81.993 E0.95697
G1 X104.318 Y82.025 E0.99374
G1 X105.075 Y82.075 E1.02906
G1 X106.122 Y82.182 E1.07807
G1 X107.049 Y82.308 E1.12163
G1 X107.844 Y82.443 E1.15918
G1 X108.307 Y82.536 E1.18117
G1 X108.94 Y82.676 E1.21136
G1 X109.469 Y82.806 E1.23672
G1 X110.112 Y82.982 E1.26776
G1 X111.153 Y83.3 E1.31845
G1 X111.864 Y83.54 E1.35339
G1 X112.358 Y83.723 E1.37792
G1 X112.978 Y83.97 E1.409
G1 X113.46 Y84.176 E1.43341
G1 X114.349 Y84.587 E1.47901
G1 X115.018 Y84.919 E1.51379
G1 X115.721 Y85.29 E1.5508
G1 X116.139 Y85.527 E1.57318
G1 X116.748 Y85.89 E1.60619
G1 X117.173 Y86.157 E1.62956
G1 X117.69 Y86.498 E1.6584
G1 X118.123 Y86.799 E1.68295
G1 X118.942 Y87.405 E1.73039
G1 X119.48 Y87.827 E1.76223
G1 X120.091 Y88.333 E1.79917
G1 X120.771 Y88.939 E1.84159
G1 X121.442 Y89.577 E1.8847
G1 X121.717 Y89.852 E1.90281
G1 X122.335 Y90.501 E1.94454
G1 X122.859 Y91.09 E1.98125
G1 X123.515 Y91.879 E2.02903
G1 X124.081 Y92.612 E2.07215
G1 X124.416 Y93.07 E2.09857
G1 X124.871 Y93.725 E2.13571
G1 X125.142 Y94.14 E2.15879
G1 X125.521 Y94.751 E2.19227
G1 X125.774 Y95.181 E2.2155
G1 X126.105 Y95.773 E2.24708
G1 X126.346 Y96.228 E2.27106
G1 X126.636 Y96.809 E2.30129
G1 X126.865 Y97.297 E2.32639
G1 X127.126 Y97.891 E2.3566
G1 X127.542 Y98.911 E2.4079
G1 X127.765 Y99.501 E2.43727
G1 X127.95 Y100.048 E2.46416
G1 X128.292 Y101.17 E2.51877
G1 X128.525 Y102.042 E2.5608
G1 X128.636 Y102.504 E2.58293
G1 X128.739 Y102.983 E2.60574
G1 X128.866 Y103.639 E2.63685
G1 X128.954 Y104.159 E2.66141
G1 X129.09 Y105.149 E2.70794
G1 X129.197 Y106.202 E2.75723
G1 X129.247 Y106.953 E2.79228
G1 X129.276 Y107.663 E2.82536
G1 X129.288 Y108.383 E2.85889
G1 X129.279 Y108.919 E2.88386
G1 X129.249 Y109.66 E2.91839
G1 X129.194 Y110.489 E2.95707
G1 X129.091 Y111.487 E3.00379
G1 X128.962 Y112.435 E3.04834
G1 X128.83 Y113.217 E3.08527
G1 X128.736 Y113.691 E3.10777
G1 X128.596 Y114.323 E3.13791
G1 X128.466 Y114.848 E3.1631
G1 X128.183 Y115.857 E3.21189
G1 X127.975 Y116.525 E3.24447
G1 X127.746 Y117.204 E3.27784
G1 X127.553 Y117.723 E3.30362
G1 X127.302 Y118.348 E3.33498
G1 X126.89 Y119.297 E3.38316
G1 X126.549 Y120.022 E3.42047
G1 X126.311 Y120.49 E3.44491
G1 X125.982 Y121.101 E3.47723
G1 X125.747 Y121.516 E3.49943
G1 X125.383 Y122.127 E3.53255
G1 X125.113 Y122.558 E3.55623
G1 X124.773 Y123.073 E3.58497
G1 X124.472 Y123.506 E3.60952
G1 X124.08 Y124.042 E3.64044
G1 X123.516 Y124.772 E3.6834
G1 X122.852 Y125.57 E3.73174
G1 X122.357 Y126.128 E3.76647
G1 X121.688 Y126.83 E3.81163
G1 X121.42 Y127.097 E3.82924
G1 X120.774 Y127.713 E3.87081
G1 X120.176 Y128.244 E3.90804
G1 X119.605 Y128.726 E3.94284
G1 X119.059 Y129.165 E3.97546
G1 X118.625 Y129.491 E4.00074
G1 X117.705 Y130.139 E4.05314
G1 X116.927 Y130.649 E4.09645
G1 X116.51 Y130.907 E4.11929
G1 X116.099 Y131.149 E4.14149
G1 X115.51 Y131.479 E4.17293
G1 X115.052 Y131.722 E4.19707
G1 X114.47 Y132.013 E4.22737
G1 X113.978 Y132.244 E4.25268
G1 X113.382 Y132.506 E4.283
G1 X112.353 Y132.925 E4.33473
G1 X111.746 Y133.153 E4.36493
G1 X111.226 Y133.329 E4.39049
G1 X110.47 Y133.564 E4.42735
G1 X109.637 Y133.798 E4.46764
G1 X109.267 Y133.892 E4.48542
G1 X108.454 Y134.079 E4.52426
G1 X107.823 Y134.208 E4.55425
G1 X107.015 Y134.352 E4.59247
G1 X106.502 Y134.427 E4.61661
G1 X105.847 Y134.507 E4.64734
G1 X105.331 Y134.558 E4.67148
G1 X104.687 Y134.606 E4.70155
G1 X103.608 Y134.656 E4.75185
G1 X102.891 Y134.668 E4.78524
G1 X102.358 Y134.659 E4.81006
G1 X101.238 Y134.608 E4.86227
G1 X100.33 Y134.536 E4.90468
G1 X99.841 Y134.485 E4.92757
G1 X99.325 Y134.419 E4.9518
G1 X98.708 Y134.325 E4.98086
G1 X98.179 Y134.231 E5.00588
G1 X97.454 Y134.084 E5.04032
G1 X96.611 Y133.89 E5.0806
G1 X95.79 Y133.672 E5.12016
G1 X94.742 Y133.353 E5.17117
G1 X94.068 Y133.126 E5.20428
G1 X93.549 Y132.933 E5.23007
G1 X92.924 Y132.682 E5.26143
G1 X91.971 Y132.268 E5.30981
G1 X91.251 Y131.929 E5.34687
G1 X90.776 Y131.688 E5.37167
G1 X90.164 Y131.358 E5.40404
G1 X89.758 Y131.128 E5.42577
G1 X89.207 Y130.8 E5.45563
G1 X88.759 Y130.518 E5.48028
G1 X87.876 Y129.925 E5.52981
G1 X87.319 Y129.527 E5.56169
G1 X86.766 Y129.112 E5.59388
G1 X86.343 Y128.773 E5.61912
G1 X85.71 Y128.239 E5.65768
G1 X85.142 Y127.734 E5.69307
G1 X84.443 Y127.068 E5.73803
G1 X83.809 Y126.421 E5.78021
G1 X83.269 Y125.832 E5.81742
G1 X82.547 Y124.986 E5.86921
G1 X82.104 Y124.435 E5.90213
G1 X81.783 Y124.008 E5.927
G1 X81.342 Y123.39 E5.96236
G1 X80.806 Y122.593 E6.00708
G1 X80.362 Y121.885 E6.04599
G1 X80.125 Y121.483 E6.06772
G1 X79.793 Y120.891 E6.09933
G1 X79.541 Y120.415 E6.12441
G1 X79.26 Y119.851 E6.15375
G1 X79.04 Y119.381 E6.17791
G1 X78.732 Y118.682 E6.21348
G1 X78.366 Y117.787 E6.25851
G1 X78.117 Y117.123 E6.29153
G1 X77.942 Y116.603 E6.31707
G1 X77.707 Y115.846 E6.35398
G1 X77.474 Y115.017 E6.39408
G1 X77.38 Y114.647 E6.41186
G1 X77.193 Y113.834 E6.4507
G1 X77.064 Y113.203 E6.48069
G1 X76.918 Y112.382 E6.51952
G1 X76.843 Y111.868 E6.54371
G1 X76.767 Y111.245 E6.57293
G1 X76.716 Y110.729 E6.59708
G1 X76.664 Y110.03 E6.62971
G1 X76.617 Y108.987 E6.67833
G1 X76.605 Y108.31 E6.70986
G1 X76.613 Y107.743 E6.73626
G1 X76.645 Y106.954 E6.77303
G1 X76.704 Y106.064 E6.81457
G1 X76.787 Y105.224 E6.85387
G1 X76.851 Y104.725 E6.8773
G1 X76.948 Y104.085 E6.90744
G1 X77.045 Y103.541 E6.93317
G1 X77.265 Y102.484 E6.98344
G1 X77.383 Y101.986 E7.00727
G1 X77.6 Y101.168 E7.04668
G1 X77.926 Y100.099 E7.09872
G1 X78.164 Y99.396 E7.13328
G1 X78.343 Y98.914 E7.15722
G1 X78.59 Y98.294 E7.1883
G1 X78.796 Y97.812 E7.21271
G1 X79.207 Y96.923 E7.25831
G1 X79.713 Y95.916 E7.31079
G1 X80.148 Y95.131 E7.35258
G1 X80.476 Y94.581 E7.3824
G1 X80.752 Y94.143 E7.4065
G1 X81.346 Y93.258 E7.45613
G1 X81.743 Y92.702 E7.48795
G1 X82.16 Y92.146 E7.52031
G1 X82.499 Y91.723 E7.54555
G1 X83.033 Y91.09 E7.58411
G1 X83.554 Y90.504 E7.62062
G1 X84.202 Y89.825 E7.66433
G1 X84.837 Y89.203 E7.70572
G0 F6000 X85.365 Y89.258
G1 F1200 X85.799 Y88.866 E7.73295
G1 X86.372 Y88.375 E7.76809
G1 X86.661 Y88.14 E7.78543
G1 X87.483 Y87.502 E7.83388
G1 X87.926 Y87.178 E7.85944
G1 X88.571 Y86.731 E7.89598
G1 X88.973 Y86.469 E7.91832
G1 X89.586 Y86.089 E7.95191
G1 X89.997 Y85.847 E7.97412
G1 X90.587 Y85.517 E8.0056
G1 X91.034 Y85.28 E8.02915
G1 X91.598 Y84.999 E8.0585
G1 X92.051 Y84.787 E8.08178
G1 X92.75 Y84.479 E8.11735
G1 X93.625 Y84.121 E8.16137
G1 X94.287 Y83.873 E8.19429
G1 X94.784 Y83.705 E8.21872
G1 X95.54 Y83.47 E8.25558
G1 X96.447 Y83.216 E8.29944
G1 X97.213 Y83.027 E8.33618
G1 X97.684 Y82.924 E8.35863
G1 X98.326 Y82.8 E8.38908
G1 X98.832 Y82.715 E8.41297
G1 X99.474 Y82.623 E8.44317
G1 X100.459 Y82.51 E8.48934
G1 X101.253 Y82.444 E8.52644
G1 X102.306 Y82.396 E8.57552
G1 X102.967 Y82.385 E8.6063
G1 X103.513 Y82.393 E8.63173
G1 X104.652 Y82.445 E8.68482
G1 X105.403 Y82.506 E8.71991
G1 X106.079 Y82.579 E8.75157
G1 X106.991 Y82.704 E8.79443
G1 X107.774 Y82.837 E8.83141
G1 X108.221 Y82.926 E8.85263
G1 X108.854 Y83.066 E8.88282
G1 X109.363 Y83.192 E8.90724
G1 X110.368 Y83.474 E8.95584
G1 X111.034 Y83.682 E8.98833
G1 X111.734 Y83.918 E9.02273
G1 X112.21 Y84.095 E9.04638
G1 X112.83 Y84.342 E9.07745
G1 X113.295 Y84.54 E9.10099
G1 X114.171 Y84.945 E9.14592
G1 X114.84 Y85.277 E9.1807
G1 X115.531 Y85.642 E9.21709
G1 X115.934 Y85.871 E9.23867
G1 X116.543 Y86.234 E9.27169
G1 X116.952 Y86.49 E9.29415
G1 X117.469 Y86.831 E9.32299
G1 X117.887 Y87.122 E9.34671
G1 X118.695 Y87.72 E9.39352
G1 X119.526 Y88.38 E9.44293
G1 X120.097 Y88.869 E9.47794
G1 X120.504 Y89.236 E9.50345
G1 X121.164 Y89.865 E9.54591
G1 X121.429 Y90.13 E9.56336
G1 X122.038 Y90.769 E9.60446
G1 X122.554 Y91.349 E9.64061
G1 X123.2 Y92.125 E9.68763
G1 X123.759 Y92.848 E9.73018
G1 X124.094 Y93.306 E9.7566
G1 X124.541 Y93.951 E9.79314
G1 X124.802 Y94.351 E9.81538
G1 X125.181 Y94.962 E9.84886
G1 X125.425 Y95.376 E9.87124
G1 X125.756 Y95.968 E9.90282
G1 X125.988 Y96.407 E9.92594
G1 X126.278 Y96.988 E9.95618
G1 X126.499 Y97.458 E9.98036
G1 X126.76 Y98.052 E10.01058
G1 X127.171 Y99.061 E10.06131
G1 X127.39 Y99.64 E10.09013
G1 X127.568 Y100.166 E10.11599
G1 X127.906 Y101.275 E10.16997
G1 X128.136 Y102.136 E10.21147
G1 X128.247 Y102.598 E10.2336
G1 X128.347 Y103.059 E10.25556
G1 X128.474 Y103.715 E10.28668
G1 X128.558 Y104.216 E10.31033
G1 X128.692 Y105.192 E10.3562
G1 X128.799 Y106.231 E10.40484
G1 X128.847 Y106.969 E10.43928
G1 X128.876 Y107.679 E10.47236
G1 X128.888 Y108.386 E10.50529
G1 X128.879 Y108.903 E10.52937
G1 X128.829 Y110.003 E10.58064
G1 X128.762 Y110.819 E10.61876
G1 X128.694 Y111.443 E10.64799
G1 X128.566 Y112.378 E10.69194
G1 X128.436 Y113.147 E10.72825
G1 X128.345 Y113.605 E10.75
G1 X128.205 Y114.237 E10.78014
G1 X128.08 Y114.742 E10.80436
G1 X127.801 Y115.738 E10.85252
G1 X127.593 Y116.406 E10.8851
G1 X127.368 Y117.074 E10.91792
G1 X127.181 Y117.574 E10.94278
G1 X126.793 Y118.526 E10.99065
G1 X126.524 Y119.136 E11.02169
G1 X126.188 Y119.849 E11.0584
G1 X125.959 Y120.3 E11.08195
G1 X125.63 Y120.911 E11.11426
G1 X125.403 Y121.311 E11.13568
G1 X125.039 Y121.922 E11.1688
G1 X124.779 Y122.337 E11.1916
G1 X124.439 Y122.852 E11.22033
G1 X124.149 Y123.269 E11.24398
G1 X123.757 Y123.805 E11.27491
G1 X123.201 Y124.525 E11.31726
G1 X122.945 Y124.84 E11.33617
G1 X122.325 Y125.566 E11.38062
G1 X121.807 Y126.131 E11.41631
G1 X121.142 Y126.809 E11.46053
G1 X120.506 Y127.416 E11.50147
G1 X120.186 Y127.705 E11.52155
G1 X119.347 Y128.42 E11.57288
G1 X118.811 Y128.851 E11.60491
G1 X118.393 Y129.165 E11.62925
G1 X117.776 Y129.605 E11.66454
G1 X117.002 Y130.126 E11.70798
G1 X116.299 Y130.567 E11.74662
G1 X115.903 Y130.8 E11.76802
G1 X115.314 Y131.13 E11.79946
G1 X114.873 Y131.364 E11.8227
G1 X114.291 Y131.655 E11.853
G1 X113.817 Y131.878 E11.87739
G1 X113.221 Y132.14 E11.90771
G1 X112.204 Y132.554 E11.95884
G1 X111.608 Y132.778 E11.98849
G1 X111.107 Y132.947 E12.01311
G1 X110.351 Y133.182 E12.04997
G1 X109.532 Y133.412 E12.08958
G1 X109.175 Y133.503 E12.10674
G1 X108.374 Y133.687 E12.14501
G1 X107.743 Y133.816 E12.175
G1 X106.948 Y133.957 E12.21259
G1 X106.453 Y134.03 E12.23589
G1 X105.798 Y134.11 E12.26662
G1 X105.301 Y134.159 E12.28987
G1 X104.657 Y134.207 E12.31994
G1 X103.592 Y134.256 E12.36959
G1 X102.887 Y134.268 E12.40242
G1 X102.374 Y134.259 E12.42631
G1 X101.267 Y134.209 E12.47791
G1 X100.371 Y134.138 E12.51976
G1 X99.882 Y134.087 E12.54265
G1 X99.386 Y134.023 E12.56594
G1 X98.769 Y133.929 E12.595
G1 X98.259 Y133.839 E12.61912
G1 X97.534 Y133.692 E12.65356
G1 X96.703 Y133.501 E12.69327
G1 X95.895 Y133.286 E12.7322
G1 X94.861 Y132.971 E12.78253
G1 X94.198 Y132.748 E12.8151
G1 X93.698 Y132.561 E12.83996
G1 X92.744 Y132.172 E12.88793
G1 X92.132 Y131.902 E12.91908
G1 X91.424 Y131.569 E12.95551
G1 X90.966 Y131.336 E12.97944
G1 X90.354 Y131.006 E13.01182
G1 X89.963 Y130.784 E13.03275
G1 X89.412 Y130.456 E13.06261
G1 X88.98 Y130.185 E13.08636
G1 X88.108 Y129.6 E13.13525
G1 X87.551 Y129.202 E13.16713
G1 X87.008 Y128.794 E13.19876
G1 X86.601 Y128.467 E13.22307
G1 X85.968 Y127.933 E13.26163
G1 X85.41 Y127.437 E13.29639
G1 X85.141 Y127.186 E13.31353
G1 X84.463 Y126.522 E13.35771
G1 X83.854 Y125.883 E13.39882
G1 X83.335 Y125.3 E13.43516
G1 X82.852 Y124.728 E13.47002
G1 X82.418 Y124.187 E13.50232
G1 X82.109 Y123.775 E13.5263
G1 X81.462 Y122.859 E13.57852
G1 X81.139 Y122.372 E13.60573
G1 X80.702 Y121.675 E13.64404
G1 X80.474 Y121.287 E13.66499
G1 X80.142 Y120.695 E13.6966
G1 X79.899 Y120.237 E13.72074
G1 X79.618 Y119.673 E13.75008
G1 X79.406 Y119.22 E13.77337
G1 X79.098 Y118.521 E13.80894
G1 X78.737 Y117.638 E13.85336
G1 X78.493 Y116.985 E13.88582
G1 X78.324 Y116.485 E13.91039
G1 X78.089 Y115.728 E13.9473
G1 X77.86 Y114.912 E13.98677
G1 X77.769 Y114.555 E14.00392
G1 X77.585 Y113.754 E14.04219
G1 X77.391 Y112.779 E14.08848
G1 X77.312 Y112.315 E14.1104
G1 X77.24 Y111.82 E14.13369
G1 X77.164 Y111.197 E14.16291
G1 X77.115 Y110.699 E14.18621
G1 X77.042 Y109.631 E14.23606
G1 X77.016 Y108.971 E14.26682
G1 X77.005 Y108.305 E14.29783
G1 X77.013 Y107.759 E14.32326
G1 X77.064 Y106.625 E14.37612
G1 X77.103 Y106.093 E14.40096
G1 X77.185 Y105.266 E14.43965
G1 X77.247 Y104.785 E14.46224
G1 X77.344 Y104.145 E14.49238
G1 X77.437 Y103.621 E14.51716
G1 X77.582 Y102.908 E14.55104
G1 X77.773 Y102.078 E14.5907
G1 X77.986 Y101.273 E14.62947
G1 X78.308 Y100.218 E14.68083
G1 X78.542 Y99.526 E14.71485
G1 X78.715 Y99.062 E14.73791
G1 X78.962 Y98.442 E14.76898
G1 X79.16 Y97.977 E14.79252
G1 X79.565 Y97.101 E14.83746
G1 X79.901 Y96.424 E14.87265
G1 X80.265 Y95.735 E14.90893
G1 X80.492 Y95.336 E14.93031
G1 X80.82 Y94.786 E14.96013
G1 X81.085 Y94.364 E14.98333
G1 X81.671 Y93.49 E15.03233
G1 X82.068 Y92.934 E15.06414
G1 X82.478 Y92.388 E15.09593
G1 X82.805 Y91.981 E15.12025
G1 X83.339 Y91.348 E15.15881
G1 X83.851 Y90.773 E15.19466
G1 X84.49 Y90.103 E15.23777
G1 X84.758 Y89.835 E15.25542
G1 X85.365 Y89.258 E15.29442
G0 F6000 X85.392 Y89.779
G1 F1200 X86.067 Y89.163 E15.33697
G1 X86.331 Y88.933 E15.35327
G1 X86.908 Y88.454 E15.38819
G1 X87.446 Y88.032 E15.42003
G1 X88.163 Y87.501 E15.46157
G1 X88.797 Y87.061 E15.49751
G1 X89.184 Y86.809 E15.51901
G1 X89.797 Y86.429 E15.5526
G1 X90.192 Y86.196 E15.57395
G1 X90.782 Y85.866 E15.60543
G1 X91.212 Y85.638 E15.62809
G1 X91.776 Y85.357 E15.65743
G1 X92.212 Y85.153 E15.67985
G1 X93.215 Y84.717 E15.73077
G1 X94.077 Y84.375 E15.77396
G1 X94.424 Y84.248 E15.79116
G1 X94.902 Y84.087 E15.81465
G1 X96.005 Y83.751 E15.86834
G1 X96.845 Y83.526 E15.90883
G1 X97.306 Y83.415 E15.93091
G1 X97.76 Y83.317 E15.95254
G1 X98.402 Y83.193 E15.98298
G1 X98.889 Y83.111 E16.00598
G1 X99.876 Y82.976 E16.05237
G1 X100.834 Y82.877 E16.09721
G1 X101.655 Y82.822 E16.13553
G1 X102.321 Y82.796 E16.16656
G1 X102.971 Y82.785 E16.19683
G1 X103.496 Y82.792 E16.22128
G1 X104.285 Y82.824 E16.25805
G1 X105.016 Y82.873 E16.29217
G1 X106.036 Y82.977 E16.33991
G1 X106.934 Y83.1 E16.38211
G1 X107.705 Y83.231 E16.41853
G1 X108.135 Y83.317 E16.43895
G1 X108.768 Y83.457 E16.46914
G1 X109.258 Y83.578 E16.49264
G1 X110.249 Y83.856 E16.54056
G1 X110.915 Y84.064 E16.57305
G1 X111.603 Y84.296 E16.60686
G1 X112.062 Y84.466 E16.62965
G1 X112.682 Y84.713 E16.66073
G1 X113.129 Y84.904 E16.68336
G1 X113.993 Y85.303 E16.72768
G1 X114.662 Y85.635 E16.76246
G1 X115.341 Y85.994 E16.79822
G1 X115.729 Y86.214 E16.81899
G1 X116.338 Y86.577 E16.852
G1 X116.732 Y86.824 E16.87365
G1 X117.249 Y87.165 E16.90249
G1 X117.651 Y87.445 E16.92531
G1 X118.448 Y88.034 E16.97145
