;FLAVOR:Marlin
;TIME:2819
;Filament used: 1.65133m
;Layer height: 0.2
;MINX:41.527
;MINY:91.135
;MINZ:0.2
;MAXX:178.473
;MAXY:128.865
;MAXZ:7.2
;Generated with Cura_SteamEngine 5.2.1
M82 ;absolute extrusion mode
; Ender 3 Custom Start G-code
G92 E0 ; Reset Extruder
G28 ; Home all axes
M104 S175 ; Start heating up the nozzle most of the way
M190 S60 ; Start heating the bed, wait until target temperature reached
M109 S200 ; Finish heating the nozzle
G1 Z2.0 F3000 ; Move Z Axis up little to prevent scratching of Heat Bed
G1 X0.1 Y20 Z0.3 F5000.0 ; Move to start position
G1 X0.1 Y200.0 Z0.3 F1500.0 E15 ; Draw the first line
G1 X0.4 Y200.0 Z0.3 F5000.0 ; Move to side a little
G1 X0.4 Y20 Z0.3 F1500.0 E30 ; Draw the second line
G92 E0 ; Reset Extruder
G1 Z2.0 F3000 ; Move Z Axis up little to prevent scratching of Heat Bed
G1 X5 Y20 Z0.3 F5000.0 ; Move over to prevent blob squish
G92 E0
G92 E0
G1 F1500 E-6.5
;LAYER_COUNT:36
;LAYER:0
M107
G0 F6000 X51.387 Y93.404 Z0.2
;TYPE:SKIRT
G1 F1500 E0
G1 F1200 X52.495 Y92.873 E0.04087
G1 X53.058 Y92.645 E0.06107
G1 X53.912 Y92.321 E0.09145
G1 X54.707 Y92.032 E0.11958
G1 X55.602 Y91.751 E0.15078
G1 X56.813 Y91.498 E0.19193
G1 X57.487 Y91.401 E0.21458
G1 X58.482 Y91.281 E0.24791
G1 X59.102 Y91.215 E0.26865
G1 X60.063 Y91.155 E0.30068
G1 X61.242 Y91.135 E0.3399
G1 X159.113 Y91.136 E3.5951
G1 X159.75 Y91.145 E3.61629
G1 X160.722 Y91.202 E3.64867
G1 X161.981 Y91.336 E3.69078
G1 X162.993 Y91.47 E3.72474
G1 X163.917 Y91.633 E3.75594
G1 X165.135 Y91.976 E3.79803
G1 X165.831 Y92.224 E3.8226
G1 X167.276 Y92.782 E3.87412
G1 X168.135 Y93.156 E3.90528
G1 X169.303 Y93.817 E3.94992
G1 X169.926 Y94.229 E3.97476
G1 X171.179 Y95.106 E4.02563
G1 X171.923 Y95.676 E4.05681
G1 X172.878 Y96.576 E4.10045
G1 X173.348 Y97.082 E4.12342
G1 X173.991 Y97.809 E4.1557
G1 X174.464 Y98.358 E4.1798
G1 X175.045 Y99.094 E4.21099
G1 X175.728 Y100.163 E4.25318
G1 X176.037 Y100.724 E4.27449
G1 X176.495 Y101.598 E4.30731
G1 X176.818 Y102.235 E4.33106
G1 X177.206 Y103.089 E4.36226
G1 X177.581 Y104.178 E4.40057
G1 X177.759 Y104.825 E4.42288
G1 X177.971 Y105.679 E4.45215
G1 X178.176 Y106.555 E4.48207
G1 X178.349 Y107.477 E4.51328
G1 X178.456 Y108.682 E4.55351
G1 X178.473 Y109.378 E4.57667
G1 X178.472 Y110.398 E4.61059
G1 X178.462 Y111.099 E4.63391
G1 X178.409 Y112.035 E4.66509
G1 X178.213 Y113.274 E4.70681
G1 X178.028 Y114.095 E4.7348
G1 X177.672 Y115.493 E4.78279
G1 X177.402 Y116.391 E4.81397
G1 X176.918 Y117.56 E4.85606
G1 X176.615 Y118.173 E4.8788
G1 X176.125 Y119.108 E4.91391
G1 X175.808 Y119.692 E4.93601
G1 X175.325 Y120.496 E4.96721
G1 X174.705 Y121.346 E5.0022
G1 X174.176 Y121.983 E5.02974
G1 X173.478 Y122.769 E5.0647
G1 X173.001 Y123.292 E5.08824
G1 X172.34 Y123.957 E5.11943
G1 X171.393 Y124.739 E5.16028
G1 X170.864 Y125.123 E5.18202
G1 X170.145 Y125.62 E5.21109
G1 X169.418 Y126.107 E5.2402
G1 X168.617 Y126.594 E5.27137
G1 X167.505 Y127.127 E5.31239
G1 X166.942 Y127.355 E5.33259
G1 X166.096 Y127.676 E5.36269
G1 X165.294 Y127.967 E5.39106
G1 X164.4 Y128.249 E5.42224
G1 X163.187 Y128.502 E5.46345
G1 X162.513 Y128.599 E5.4861
G1 X161.518 Y128.719 E5.51944
G1 X160.898 Y128.785 E5.54017
G1 X159.937 Y128.845 E5.5722
G1 X158.758 Y128.865 E5.61142
G1 X60.887 Y128.864 E8.86662
G1 X60.25 Y128.855 E8.88781
G1 X59.278 Y128.798 E8.92019
G1 X58.027 Y128.665 E8.96204
G1 X57.017 Y128.532 E8.99592
G1 X56.093 Y128.37 E9.02712
G1 X54.85 Y128.019 E9.07008
G1 X54.222 Y127.797 E9.09223
G1 X53.403 Y127.486 E9.12137
G1 X52.64 Y127.185 E9.14865
G1 X51.783 Y126.804 E9.17985
G1 X50.7 Y126.185 E9.22134
G1 X50.188 Y125.848 E9.24172
G1 X49.287 Y125.226 E9.27814
G1 X48.743 Y124.838 E9.30036
G1 X48.003 Y124.261 E9.33157
G1 X47.13 Y123.432 E9.37161
G1 X46.644 Y122.909 E9.39536
G1 X46.004 Y122.185 E9.4275
G1 X45.53 Y121.634 E9.45167
G1 X44.949 Y120.897 E9.48289
G1 X44.256 Y119.807 E9.52585
G1 X43.932 Y119.217 E9.54824
G1 X43.474 Y118.343 E9.58106
G1 X43.173 Y117.747 E9.60326
G1 X42.786 Y116.892 E9.63448
G1 X42.411 Y115.794 E9.67307
G1 X42.241 Y115.175 E9.69442
G1 X42.021 Y114.289 E9.72478
G1 X41.823 Y113.44 E9.75378
G1 X41.65 Y112.518 E9.78498
G1 X41.544 Y111.318 E9.82505
G1 X41.527 Y110.622 E9.8482
G1 X41.528 Y109.588 E9.88259
G1 X41.539 Y108.882 E9.90608
G1 X41.594 Y107.945 E9.9373
G1 X41.777 Y106.774 E9.97672
G1 X41.915 Y106.147 E9.99807
G1 X42.164 Y105.135 E10.03273
G1 X42.344 Y104.445 E10.05645
G1 X42.619 Y103.549 E10.08762
G1 X43.082 Y102.44 E10.12759
G1 X43.386 Y101.824 E10.15044
G1 X43.806 Y101.023 E10.18052
G1 X44.192 Y100.31 E10.20749
G1 X44.674 Y99.505 E10.2387
G1 X45.295 Y98.654 E10.27374
G1 X45.49 Y98.412 E10.28407
G1 X45.862 Y97.974 E10.30319
G1 X46.93 Y96.782 E10.35642
G1 X47.585 Y96.11 E10.38763
G1 X48.629 Y95.243 E10.43277
G1 X49.134 Y94.879 E10.45347
G1 X49.854 Y94.381 E10.48259
G1 X50.586 Y93.891 E10.51189
G1 X51.387 Y93.404 E10.54306
G0 F6000 X51.595 Y93.746
G1 F1200 X52.648 Y93.242 E10.58189
G1 X53.2 Y93.019 E10.60169
G1 X54.205 Y92.639 E10.63743
G1 X54.843 Y92.408 E10.66
G1 X55.722 Y92.133 E10.69063
G1 X56.873 Y91.893 E10.72974
G1 X57.535 Y91.798 E10.75198
G1 X58.364 Y91.697 E10.77976
G1 X59.144 Y91.613 E10.80585
G1 X60.071 Y91.555 E10.83674
G1 X61.242 Y91.535 E10.8757
G1 X159.108 Y91.536 E14.13073
G1 X159.745 Y91.545 E14.15192
G1 X160.681 Y91.6 E14.18311
G1 X161.928 Y91.733 E14.22482
G1 X162.94 Y91.867 E14.25877
G1 X163.847 Y92.027 E14.2894
G1 X165.005 Y92.354 E14.32942
G1 X165.686 Y92.597 E14.35347
G1 X167.131 Y93.155 E14.40499
G1 X167.975 Y93.523 E14.43562
G1 X169.085 Y94.152 E14.47805
G1 X169.696 Y94.557 E14.50243
G1 X170.949 Y95.434 E14.5533
G1 X171.68 Y95.994 E14.58393
G1 X172.587 Y96.85 E14.62541
G1 X173.049 Y97.347 E14.64798
G1 X173.688 Y98.07 E14.68007
G1 X174.161 Y98.619 E14.70417
G1 X174.731 Y99.342 E14.73479
G1 X175.379 Y100.359 E14.7749
G1 X175.683 Y100.91 E14.79583
G1 X176.069 Y101.645 E14.82345
G1 X176.461 Y102.416 E14.85221
G1 X176.841 Y103.255 E14.88285
G1 X177.196 Y104.288 E14.91918
G1 X177.371 Y104.921 E14.94102
G1 X177.583 Y105.775 E14.97029
G1 X177.786 Y106.646 E15.00003
G1 X177.956 Y107.551 E15.03066
G1 X178.056 Y108.695 E15.06885
G1 X178.073 Y109.378 E15.09158
G1 X178.072 Y110.392 E15.1253
G1 X178.062 Y111.093 E15.14862
G1 X178.009 Y112.012 E15.17924
G1 X177.822 Y113.189 E15.21888
G1 X177.64 Y113.996 E15.24639
G1 X177.284 Y115.394 E15.29437
G1 X177.018 Y116.275 E15.32498
G1 X176.558 Y117.386 E15.36498
G1 X176.261 Y117.988 E15.3873
G1 X175.773 Y118.917 E15.42221
G1 X175.456 Y119.501 E15.44431
G1 X174.982 Y120.29 E15.47492
G1 X174.394 Y121.095 E15.50808
G1 X173.877 Y121.718 E15.535
G1 X173.283 Y122.388 E15.56478
G1 X172.706 Y123.022 E15.5933
G1 X172.056 Y123.675 E15.62394
G1 X171.156 Y124.417 E15.66274
G1 X170.636 Y124.794 E15.6841
G1 X169.777 Y125.386 E15.7188
G1 X169.196 Y125.774 E15.74203
G1 X168.409 Y126.252 E15.77266
G1 X167.352 Y126.758 E15.81164
G1 X166.8 Y126.981 E15.83144
G1 X165.954 Y127.302 E15.86153
G1 X165.158 Y127.591 E15.8897
G1 X164.28 Y127.867 E15.92031
G1 X163.127 Y128.107 E15.95948
G1 X162.465 Y128.202 E15.98173
G1 X161.636 Y128.303 E16.0095
G1 X160.856 Y128.387 E16.0356
G1 X159.929 Y128.445 E16.06649
G1 X158.758 Y128.465 E16.10544
G1 X60.892 Y128.464 E19.36048
G1 X60.255 Y128.455 E19.38167
G1 X59.319 Y128.4 E19.41285
G1 X58.079 Y128.268 E19.45433
G1 X57.069 Y128.135 E19.48821
G1 X56.162 Y127.976 E19.51884
G1 X54.981 Y127.641 E19.55967
G1 X54.364 Y127.423 E19.58143
G1 X53.545 Y127.112 E19.61057
G1 X52.787 Y126.813 E19.63767
G1 X51.946 Y126.438 E19.6683
G1 X50.917 Y125.85 E19.70772
G1 X50.415 Y125.519 E19.72772
G1 X49.519 Y124.9 E19.76394
G1 X48.975 Y124.512 E19.78616
G1 X48.249 Y123.945 E19.8168
G1 X47.421 Y123.158 E19.85479
G1 X46.943 Y122.643 E19.87816
G1 X46.307 Y121.924 E19.91009
G1 X45.833 Y121.373 E19.93427
G1 X45.264 Y120.649 E19.96489
G1 X44.605 Y119.612 E20.00576
G1 X44.286 Y119.031 E20.0278
G1 X43.831 Y118.163 E20.0604
G1 X43.53 Y117.567 E20.08261
G1 X43.151 Y116.727 E20.11326
G1 X42.795 Y115.685 E20.14988
G1 X42.629 Y115.078 E20.17081
G1 X42.409 Y114.192 E20.20117
G1 X42.213 Y113.35 E20.22993
G1 X42.043 Y112.445 E20.26056
G1 X41.944 Y111.305 E20.29861
G1 X41.927 Y110.622 E20.32134
G1 X41.928 Y109.594 E20.35553
G1 X41.939 Y108.888 E20.37901
G1 X41.994 Y107.969 E20.40964
G1 X42.168 Y106.857 E20.44707
G1 X42.304 Y106.242 E20.46802
G1 X42.551 Y105.236 E20.50247
G1 X42.731 Y104.546 E20.52619
G1 X43.002 Y103.666 E20.55682
G1 X43.442 Y102.614 E20.59474
G1 X43.74 Y102.01 E20.61714
G1 X44.231 Y101.076 E20.65224
G1 X44.543 Y100.501 E20.674
G1 X45.017 Y99.711 E20.70464
G1 X45.606 Y98.905 E20.73784
G1 X45.801 Y98.663 E20.74818
G1 X46.16 Y98.241 E20.76661
G1 X47.228 Y97.049 E20.81984
G1 X47.872 Y96.39 E20.85049
G1 X48.866 Y95.566 E20.89343
G1 X49.361 Y95.208 E20.91375
G1 X50.081 Y94.71 E20.94287
G1 X50.808 Y94.224 E20.97195
G1 X51.595 Y93.746 E21.00258
G0 F6000 X51.802 Y94.089
G1 F1200 X52.8 Y93.612 E21.03937
G1 X53.342 Y93.393 E21.05881
G1 X54.196 Y93.069 E21.08919
G1 X54.98 Y92.784 E21.11693
G1 X55.841 Y92.515 E21.14694
G1 X56.932 Y92.289 E21.18399
G1 X57.583 Y92.195 E21.20587
G1 X58.566 Y92.076 E21.2388
G1 X59.186 Y92.01 E21.25954
G1 X60.078 Y91.955 E21.28927
G1 X61.242 Y91.935 E21.32799
G1 X159.102 Y91.936 E24.58282
G1 X159.739 Y91.945 E24.60401
G1 X160.64 Y91.998 E24.63403
G1 X161.876 Y92.129 E24.67537
G1 X162.888 Y92.263 E24.70932
G1 X163.777 Y92.421 E24.73936
G1 X164.874 Y92.732 E24.77728
G1 X165.542 Y92.97 E24.80087
G1 X166.987 Y93.528 E24.85239
G1 X167.815 Y93.89 E24.88244
G1 X168.867 Y94.488 E24.92269
G1 X169.467 Y94.885 E24.94662
G1 X170.72 Y95.762 E24.99749
G1 X171.436 Y96.312 E25.02752
G1 X172.296 Y97.125 E25.06688
G1 X172.749 Y97.613 E25.08903
G1 X173.385 Y98.331 E25.12093
G1 X173.858 Y98.88 E25.14503
G1 X174.416 Y99.59 E25.17506
G1 X175.03 Y100.554 E25.21308
G1 X175.328 Y101.095 E25.23362
G1 X175.781 Y101.96 E25.2661
G1 X176.104 Y102.597 E25.28985
G1 X176.477 Y103.42 E25.31991
G1 X176.812 Y104.398 E25.35429
G1 X176.983 Y105.018 E25.37568
G1 X177.195 Y105.872 E25.40495
G1 X177.397 Y106.736 E25.43446
G1 X177.562 Y107.624 E25.4645
G1 X177.656 Y108.708 E25.50069
G1 X177.673 Y109.378 E25.52298
G1 X177.672 Y110.386 E25.55651
G1 X177.662 Y111.087 E25.57982
G1 X177.609 Y111.989 E25.60988
G1 X177.431 Y113.104 E25.64743
G1 X177.253 Y113.897 E25.67446
G1 X176.897 Y115.295 E25.72244
G1 X176.635 Y116.16 E25.75251
G1 X176.198 Y117.212 E25.79039
G1 X175.907 Y117.802 E25.81227
G1 X175.492 Y118.594 E25.84201
G1 X175.104 Y119.31 E25.8691
G1 X174.639 Y120.084 E25.89913
G1 X174.082 Y120.844 E25.93047
G1 X173.577 Y121.453 E25.95678
G1 X172.983 Y122.123 E25.98657
G1 X172.41 Y122.752 E26.01487
G1 X171.773 Y123.392 E26.0449
G1 X170.919 Y124.094 E26.08167
G1 X170.409 Y124.465 E26.10264
G1 X169.69 Y124.962 E26.13171
G1 X168.974 Y125.441 E26.16037
G1 X168.201 Y125.909 E26.19042
G1 X167.2 Y126.388 E26.22733
G1 X166.658 Y126.607 E26.24677
G1 X165.812 Y126.928 E26.27687
G1 X165.022 Y127.215 E26.30482
G1 X164.16 Y127.485 E26.33487
G1 X163.068 Y127.711 E26.37196
G1 X162.417 Y127.805 E26.39384
G1 X161.434 Y127.924 E26.42677
G1 X160.814 Y127.99 E26.44751
G1 X159.922 Y128.045 E26.47723
G1 X158.758 Y128.065 E26.51595
G1 X60.898 Y128.064 E29.77079
G1 X60.261 Y128.055 E29.79198
G1 X59.36 Y128.002 E29.822
G1 X58.131 Y127.872 E29.8631
G1 X57.121 Y127.739 E29.89698
G1 X56.232 Y127.581 E29.92702
G1 X55.112 Y127.263 E29.96574
G1 X54.506 Y127.049 E29.98711
G1 X53.687 Y126.738 E30.01625
G1 X52.934 Y126.441 E30.04318
G1 X52.11 Y126.072 E30.0732
G1 X51.135 Y125.514 E30.11057
G1 X50.642 Y125.19 E30.13019
G1 X49.886 Y124.669 E30.16073
G1 X49.207 Y124.186 E30.18844
G1 X48.496 Y123.63 E30.21846
G1 X47.712 Y122.883 E30.25448
G1 X47.243 Y122.378 E30.2774
G1 X46.61 Y121.663 E30.30916
G1 X46.136 Y121.112 E30.33334
G1 X45.578 Y120.402 E30.36337
G1 X44.955 Y119.418 E30.40211
G1 X44.64 Y118.845 E30.42386
G1 X44.188 Y117.982 E30.45626
G1 X43.887 Y117.386 E30.47847
G1 X43.516 Y116.563 E30.50849
G1 X43.18 Y115.575 E30.5432
G1 X43.018 Y114.982 E30.56365
G1 X42.761 Y113.944 E30.59921
G1 X42.602 Y113.259 E30.6226
G1 X42.437 Y112.371 E30.65264
G1 X42.344 Y111.292 E30.68866
G1 X42.327 Y110.622 E30.71095
G1 X42.328 Y109.6 E30.74495
G1 X42.339 Y108.894 E30.76843
G1 X42.393 Y107.993 E30.79845
G1 X42.559 Y106.939 E30.83394
G1 X42.692 Y106.338 E30.85441
G1 X42.938 Y105.337 E30.8887
G1 X43.118 Y104.647 E30.91242
G1 X43.385 Y103.784 E30.94246
G1 X43.802 Y102.788 E30.97837
G1 X44.095 Y102.195 E31.00037
G1 X44.583 Y101.266 E31.03528
G1 X44.895 Y100.691 E31.05703
G1 X45.36 Y99.917 E31.08707
G1 X45.918 Y99.156 E31.11845
G1 X46.458 Y98.507 E31.14653
G1 X47.526 Y97.315 E31.19977
G1 X48.158 Y96.67 E31.2298
G1 X49.102 Y95.889 E31.27055
G1 X49.589 Y95.537 E31.29054
G1 X50.45 Y94.943 E31.32533
G1 X51.03 Y94.556 E31.34852
G1 X51.802 Y94.089 E31.37853
G1 F1500 E24.87853
;MESH:LargeHandle.stl
G0 F6000 X56.258 Y102.519
G0 X60.373 Y117.265
;TYPE:WALL-INNER
G1 F1500 E31.37853
G1 F1200 X159.627 Y117.265 E34.67973
G1 X161.406 Y117.049 E34.73933
G1 X163.039 Y116.428 E34.79744
G1 X164.483 Y115.433 E34.85577
G1 X165.638 Y114.127 E34.91375
G1 X166.452 Y112.576 E34.97201
G1 X166.873 Y110.872 E35.03039
G1 X166.873 Y109.128 E35.0884
G1 X166.452 Y107.424 E35.14678
G1 X165.638 Y105.873 E35.20504
G1 X164.483 Y104.567 E35.26303
G1 X163.039 Y103.572 E35.32135
G1 X161.406 Y102.951 E35.37946
G1 X159.627 Y102.736 E35.43906
G1 X60.373 Y102.735 E38.74026
G1 X58.595 Y102.952 E38.79984
G1 X56.96 Y103.572 E38.858
G1 X55.517 Y104.567 E38.91629
G1 X54.362 Y105.873 E38.97428
G1 X53.548 Y107.424 E39.03254
G1 X53.128 Y109.128 E39.09091
G1 X53.128 Y110.872 E39.14892
G1 X53.548 Y112.576 E39.20729
G1 X54.362 Y114.127 E39.26555
G1 X55.517 Y115.433 E39.32354
G1 X56.96 Y116.428 E39.38183
G1 X58.595 Y117.048 E39.43999
G1 X60.373 Y117.265 E39.49957
G0 F6000 X60.349 Y117.665
;TYPE:WALL-OUTER
G1 F1200 X159.651 Y117.665 E42.80237
G1 X161.502 Y117.44 E42.86438
G1 X163.227 Y116.785 E42.92575
G1 X164.75 Y115.735 E42.98728
G1 X165.97 Y114.356 E43.04852
G1 X166.829 Y112.719 E43.11001
G1 X167.273 Y110.92 E43.17164
G1 X167.273 Y109.08 E43.23284
G1 X166.829 Y107.281 E43.29447
G1 X165.97 Y105.644 E43.35595
G1 X164.75 Y104.265 E43.41719
G1 X163.227 Y103.215 E43.47872
G1 X161.502 Y102.56 E43.54009
G1 X159.651 Y102.336 E43.6021
G1 X60.349 Y102.335 E46.9049
G1 X58.498 Y102.56 E46.96692
G1 X56.773 Y103.215 E47.02829
G1 X55.25 Y104.265 E47.08982
G1 X54.03 Y105.644 E47.15106
G1 X53.171 Y107.281 E47.21254
G1 X52.728 Y109.08 E47.27417
G1 X52.728 Y110.92 E47.33537
G1 X53.171 Y112.719 E47.39699
G1 X54.03 Y114.356 E47.45848
G1 X55.25 Y115.735 E47.51971
G1 X56.773 Y116.785 E47.58124
G1 X58.498 Y117.44 E47.64261
G1 X60.349 Y117.665 E47.70463
G1 F1500 E41.20463
G0 F6000 X60.379 Y117.164
G0 X70.13 Y117.065
G0 X69.764 Y115.775
G0 X70.111 Y115.366
;TYPE:WALL-INNER
G1 F1500 E47.70463
G1 F1200 X69.913 Y115.535 E47.71329
G1 X69.711 Y115.605 E47.7204
G1 X59.547 Y115.601 E48.05845
G1 X59.282 Y115.502 E48.06786
G1 X59.091 Y115.29 E48.07735
G1 X59.022 Y115.056 E48.08547
G1 X59.02 Y104.995 E48.4201
G1 X59.091 Y104.71 E48.42987
G1 X59.282 Y104.498 E48.43936
G1 X59.547 Y104.399 E48.44877
G1 X69.63 Y104.395 E48.78413
G1 X69.913 Y104.465 E48.79383
G1 X70.111 Y104.634 E48.80248
G1 X70.23 Y104.872 E48.81133
G1 X70.23 Y105.795 E48.84203
G1 X70.165 Y105.983 E48.84865
G1 X69.93 Y106.23 E48.85999
G1 X69.717 Y106.31 E48.86756
G1 X61.65 Y106.31 E49.13587
G1 X61.65 Y113.69 E49.38133
G1 X69.709 Y113.69 E49.64937
G1 X69.996 Y113.814 E49.65977
G1 X70.165 Y114.017 E49.66855
G1 X70.23 Y114.205 E49.67517
G1 X70.23 Y115.128 E49.70587
G1 X70.111 Y115.366 E49.71472
G0 F6000 X69.791 Y115.126
;TYPE:WALL-OUTER
G1 F1200 X69.665 Y115.203 E49.71963
G1 X59.595 Y115.204 E50.05456
G1 X59.507 Y115.171 E50.05768
G1 X59.42 Y115.022 E50.06342
G1 X59.42 Y104.995 E50.39692
G1 X59.443 Y104.9 E50.40017
G1 X59.595 Y104.796 E50.4063
G1 X69.707 Y104.795 E50.74263
G1 X69.83 Y104.952 E50.74926
G1 X69.827 Y105.748 E50.77573
G1 X69.782 Y105.842 E50.7792
G1 X69.668 Y105.907 E50.78357
G1 X61.25 Y105.91 E51.06355
G1 X61.25 Y114.09 E51.33562
G1 X69.668 Y114.093 E51.6156
G1 X69.782 Y114.158 E51.61997
G1 X69.827 Y114.252 E51.62343
G1 X69.83 Y115.048 E51.64991
