;FLAVOR:Marlin
;TIME:1707
;Filament used: 0.944956m
;Layer height: 0.2
;MINX:66.36
;MINY:91.135
;MINZ:0.2
;MAXX:153.64
;MAXY:128.865
;MAXZ:7.2
;Generated with Cura_SteamEngine 5.2.1
M82 ;absolute extrusion mode
; Ender 3 Custom Start G-code
G92 E0 ; Reset Extruder
G28 ; Home all axes
M104 S175 ; Start heating up the nozzle most of the way
M190 S60 ; Start heating the bed, wait until target temperature reached
M109 S200 ; Finish heating the nozzle
G1 Z2.0 F3000 ; Move Z Axis up little to prevent scratching of Heat Bed
G1 X0.1 Y20 Z0.3 F5000.0 ; Move to start position
G1 X0.1 Y200.0 Z0.3 F1500.0 E15 ; Draw the first line
G1 X0.4 Y200.0 Z0.3 F5000.0 ; Move to side a little
G1 X0.4 Y20 Z0.3 F1500.0 E30 ; Draw the second line
G92 E0 ; Reset Extruder
G1 Z2.0 F3000 ; Move Z Axis up little to prevent scratching of Heat Bed
G1 X5 Y20 Z0.3 F5000.0 ; Move over to prevent blob squish
G92 E0
G92 E0
G1 F1500 E-6.5
;LAYER_COUNT:36
;LAYER:0
M107
G0 F6000 X73.4 Y95.291 Z0.2
;TYPE:SKIRT
G1 F1500 E0
G1 F1200 X73.975 Y94.872 E0.02366
G1 X74.695 Y94.375 E0.05276
G1 X75.419 Y93.891 E0.08173
G1 X76.22 Y93.404 E0.11291
G1 X77.328 Y92.873 E0.15377
G1 X77.891 Y92.645 E0.17397
G1 X78.737 Y92.324 E0.20407
G1 X79.539 Y92.033 E0.23245
G1 X80.433 Y91.751 E0.26363
G1 X81.639 Y91.499 E0.3046
G1 X82.322 Y91.4 E0.32756
G1 X83.339 Y91.277 E0.36163
G1 X83.933 Y91.214 E0.3815
G1 X84.887 Y91.155 E0.41329
G1 X86.056 Y91.135 E0.45217
G1 X134.284 Y91.136 E2.05624
G1 X134.912 Y91.145 E2.07713
G1 X135.883 Y91.202 E2.10949
G1 X136.881 Y91.305 E2.14285
G1 X138.155 Y91.469 E2.18558
G1 X139.078 Y91.632 E2.21675
G1 X140.283 Y91.97 E2.25838
G1 X141.014 Y92.229 E2.28417
G1 X142.443 Y92.781 E2.33512
G1 X143.302 Y93.156 E2.3663
G1 X144.463 Y93.812 E2.41065
G1 X145.076 Y94.217 E2.43509
G1 X146.345 Y95.105 E2.4866
G1 X147.089 Y95.675 E2.51777
G1 X148.057 Y96.588 E2.56203
G1 X148.532 Y97.1 E2.58526
G1 X149.047 Y97.681 E2.61108
G1 X149.634 Y98.362 E2.64099
G1 X150.215 Y99.098 E2.67217
G1 X150.896 Y100.163 E2.71422
G1 X151.208 Y100.729 E2.73571
G1 X151.663 Y101.598 E2.76834
G1 X151.986 Y102.235 E2.79209
G1 X152.374 Y103.089 E2.82329
G1 X152.762 Y104.224 E2.86319
G1 X152.942 Y104.883 E2.88591
G1 X153.196 Y105.916 E2.92129
G1 X153.348 Y106.574 E2.94375
G1 X153.52 Y107.496 E2.97495
G1 X153.625 Y108.734 E3.01627
G1 X153.64 Y109.398 E3.03836
G1 X153.639 Y110.365 E3.07052
G1 X153.629 Y111.093 E3.09474
G1 X153.576 Y112.029 E3.12592
G1 X153.385 Y113.253 E3.16712
G1 X153.236 Y113.924 E3.18999
G1 X153.034 Y114.748 E3.2182
G1 X152.814 Y115.587 E3.24705
G1 X152.537 Y116.483 E3.27824
G1 X152.074 Y117.587 E3.31806
G1 X151.791 Y118.159 E3.33929
G1 X151.364 Y118.974 E3.36989
G1 X150.976 Y119.69 E3.39698
G1 X150.494 Y120.495 E3.42818
G1 X149.865 Y121.356 E3.46365
G1 X149.355 Y121.97 E3.4902
G1 X148.737 Y122.668 E3.5212
G1 X148.176 Y123.285 E3.54894
G1 X147.515 Y123.95 E3.58012
G1 X146.6 Y124.709 E3.61967
G1 X146.019 Y125.132 E3.64357
G1 X145.298 Y125.629 E3.67269
G1 X144.589 Y126.104 E3.70108
G1 X143.787 Y126.592 E3.7323
G1 X142.672 Y127.127 E3.77344
G1 X142.057 Y127.374 E3.79548
G1 X140.577 Y127.927 E3.84803
G1 X139.685 Y128.218 E3.87924
G1 X138.378 Y128.498 E3.92369
G1 X137.678 Y128.6 E3.94722
G1 X136.661 Y128.723 E3.98129
G1 X136.067 Y128.786 E4.00116
G1 X135.113 Y128.845 E4.03295
G1 X133.944 Y128.865 E4.07184
G1 X85.716 Y128.864 E5.67591
G1 X85.088 Y128.855 E5.6968
G1 X84.117 Y128.798 E5.72915
G1 X83.119 Y128.695 E5.76252
G1 X81.845 Y128.531 E5.80524
G1 X80.922 Y128.368 E5.83642
G1 X79.717 Y128.03 E5.87804
G1 X79.043 Y127.793 E5.9018
G1 X78.08 Y127.426 E5.93608
G1 X77.462 Y127.181 E5.95819
G1 X76.606 Y126.798 E5.98938
G1 X75.533 Y126.185 E6.03048
G1 X75.021 Y125.848 E6.05087
G1 X74.12 Y125.226 E6.08728
G1 X73.576 Y124.838 E6.10951
G1 X72.836 Y124.261 E6.14072
G1 X71.959 Y123.427 E6.18097
G1 X71.464 Y122.895 E6.20514
G1 X70.923 Y122.284 E6.23228
G1 X70.365 Y121.637 E6.2607
G1 X69.784 Y120.901 E6.29189
G1 X69.119 Y119.863 E6.33289
G1 X68.812 Y119.308 E6.35399
G1 X68.394 Y118.512 E6.38389
G1 X68.008 Y117.751 E6.41227
G1 X67.621 Y116.897 E6.44345
G1 X67.23 Y115.747 E6.48385
G1 X67.049 Y115.082 E6.50678
G1 X66.842 Y114.243 E6.53552
G1 X66.653 Y113.43 E6.56328
G1 X66.481 Y112.508 E6.59447
G1 X66.375 Y111.266 E6.63593
G1 X66.36 Y110.602 E6.65802
G1 X66.361 Y109.588 E6.69175
G1 X66.372 Y108.882 E6.71523
G1 X66.427 Y107.945 E6.74645
G1 X66.611 Y106.769 E6.78604
G1 X66.768 Y106.058 E6.81026
G1 X67.009 Y105.084 E6.84363
G1 X67.182 Y104.424 E6.86633
G1 X67.459 Y103.528 E6.89752
G1 X67.933 Y102.398 E6.93828
G1 X68.209 Y101.841 E6.95895
G1 X68.636 Y101.026 E6.98955
G1 X69.024 Y100.31 E7.01664
G1 X69.506 Y99.505 E7.04785
G1 X70.135 Y98.644 E7.08331
G1 X70.645 Y98.03 E7.10986
G1 X71.263 Y97.332 E7.14087
G1 X71.824 Y96.715 E7.1686
G1 X72.485 Y96.05 E7.19979
G1 X73.4 Y95.291 E7.23933
G0 F6000 X73.638 Y95.612
G1 F1200 X74.202 Y95.201 E7.26254
G1 X74.922 Y94.704 E7.29164
G1 X75.641 Y94.224 E7.32039
G1 X76.428 Y93.746 E7.35102
G1 X77.481 Y93.242 E7.38984
G1 X78.033 Y93.019 E7.40965
G1 X78.879 Y92.698 E7.43974
G1 X79.675 Y92.409 E7.46791
G1 X80.553 Y92.133 E7.49852
G1 X81.699 Y91.894 E7.53745
G1 X82.371 Y91.797 E7.56004
G1 X83.381 Y91.675 E7.59387
G1 X83.975 Y91.612 E7.61374
G1 X84.895 Y91.555 E7.6444
G1 X86.056 Y91.535 E7.68302
G1 X134.126 Y91.535 E9.28183
G1 X134.906 Y91.545 E9.30778
G1 X135.842 Y91.6 E9.33897
G1 X136.84 Y91.703 E9.37234
G1 X138.102 Y91.866 E9.41466
G1 X139.009 Y92.026 E9.44529
G1 X140.153 Y92.348 E9.48482
G1 X140.87 Y92.602 E9.51012
G1 X142.299 Y93.154 E9.56107
G1 X143.142 Y93.523 E9.59168
G1 X144.245 Y94.147 E9.63383
G1 X144.846 Y94.545 E9.6578
G1 X146.115 Y95.433 E9.70932
G1 X146.846 Y95.993 E9.73994
G1 X147.765 Y96.862 E9.78201
G1 X148.232 Y97.366 E9.80486
G1 X148.846 Y98.06 E9.83568
G1 X149.331 Y98.623 E9.8604
G1 X149.901 Y99.346 E9.89102
G1 X150.547 Y100.359 E9.93098
G1 X150.854 Y100.915 E9.95211
G1 X151.306 Y101.779 E9.98454
G1 X151.629 Y102.416 E10.00829
G1 X152.009 Y103.255 E10.03893
G1 X152.377 Y104.333 E10.07681
G1 X152.553 Y104.979 E10.09908
G1 X152.806 Y106.006 E10.13426
G1 X152.958 Y106.664 E10.15672
G1 X153.126 Y107.569 E10.18734
G1 X153.226 Y108.746 E10.22663
G1 X153.24 Y109.398 E10.24832
G1 X153.239 Y110.36 E10.28031
G1 X153.229 Y111.088 E10.30453
G1 X153.176 Y112.007 E10.33514
G1 X152.993 Y113.169 E10.37427
G1 X152.847 Y113.829 E10.39675
G1 X152.601 Y114.828 E10.43097
G1 X152.428 Y115.485 E10.45357
G1 X152.155 Y116.364 E10.48418
G1 X151.714 Y117.412 E10.522
G1 X151.436 Y117.973 E10.54282
G1 X150.937 Y118.924 E10.57854
G1 X150.625 Y119.499 E10.6003
G1 X150.151 Y120.289 E10.63094
G1 X149.554 Y121.104 E10.66454
G1 X149.055 Y121.705 E10.69053
G1 X148.437 Y122.403 E10.72153
G1 X147.88 Y123.015 E10.74906
G1 X147.231 Y123.668 E10.77968
G1 X146.362 Y124.388 E10.81721
G1 X145.792 Y124.802 E10.84064
G1 X144.945 Y125.385 E10.87484
G1 X144.366 Y125.772 E10.89801
G1 X143.579 Y126.25 E10.92863
G1 X142.519 Y126.758 E10.96773
G1 X141.917 Y126.999 E10.9893
G1 X140.437 Y127.552 E11.04184
G1 X139.562 Y127.837 E11.07245
G1 X138.318 Y128.103 E11.11476
G1 X137.629 Y128.203 E11.13792
G1 X136.619 Y128.325 E11.17176
G1 X136.025 Y128.388 E11.19162
G1 X135.105 Y128.445 E11.22228
G1 X133.944 Y128.465 E11.2609
G1 X85.722 Y128.464 E12.86477
G1 X85.094 Y128.455 E12.88566
G1 X84.158 Y128.4 E12.91685
G1 X83.16 Y128.297 E12.95022
G1 X81.898 Y128.134 E12.99254
G1 X80.991 Y127.974 E13.02317
G1 X79.847 Y127.652 E13.0627
G1 X79.186 Y127.419 E13.08601
G1 X78.228 Y127.054 E13.12011
G1 X77.61 Y126.809 E13.14222
G1 X76.769 Y126.433 E13.17286
G1 X75.75 Y125.85 E13.21191
G1 X75.248 Y125.519 E13.23191
G1 X74.352 Y124.9 E13.26813
G1 X73.808 Y124.512 E13.29035
G1 X73.082 Y123.945 E13.32099
G1 X72.25 Y123.153 E13.3592
G1 X71.764 Y122.63 E13.38294
G1 X71.126 Y121.908 E13.41499
G1 X70.668 Y121.376 E13.43834
G1 X70.098 Y120.653 E13.46896
G1 X69.468 Y119.667 E13.50788
G1 X69.166 Y119.122 E13.5286
G1 X68.748 Y118.326 E13.5585
G1 X68.365 Y117.571 E13.58666
G1 X67.985 Y116.732 E13.61729
G1 X67.615 Y115.64 E13.65564
G1 X67.438 Y114.986 E13.67818
G1 X67.195 Y113.997 E13.71205
G1 X67.043 Y113.34 E13.73448
G1 X66.874 Y112.435 E13.7651
G1 X66.774 Y111.255 E13.80449
G1 X66.76 Y110.602 E13.82621
G1 X66.761 Y109.594 E13.85974
G1 X66.772 Y108.888 E13.88322
G1 X66.827 Y107.969 E13.91384
G1 X67.002 Y106.852 E13.95145
G1 X67.156 Y106.154 E13.97522
G1 X67.396 Y105.185 E14.00842
G1 X67.569 Y104.525 E14.03112
G1 X67.841 Y103.646 E14.06172
G1 X68.293 Y102.573 E14.10045
G1 X68.564 Y102.027 E14.12072
G1 X69.063 Y101.076 E14.15644
G1 X69.375 Y100.501 E14.1782
G1 X69.849 Y99.711 E14.20884
G1 X70.446 Y98.896 E14.24244
G1 X70.945 Y98.295 E14.26842
G1 X71.563 Y97.597 E14.29943
G1 X72.12 Y96.985 E14.32695
G1 X72.769 Y96.332 E14.35758
G1 X73.638 Y95.612 E14.39511
G0 F6000 X73.877 Y95.933
G1 F1200 X74.43 Y95.531 E14.41785
G1 X75.283 Y94.943 E14.45231
G1 X75.863 Y94.556 E14.4755
G1 X76.635 Y94.089 E14.50551
G1 X77.633 Y93.612 E14.5423
G1 X78.175 Y93.393 E14.56174
G1 X79.021 Y93.072 E14.59184
G1 X79.811 Y92.785 E14.61979
G1 X80.673 Y92.515 E14.64984
G1 X81.759 Y92.29 E14.68672
G1 X82.419 Y92.194 E14.70891
G1 X83.263 Y92.091 E14.73719
G1 X84.017 Y92.01 E14.76241
G1 X84.902 Y91.955 E14.7919
G1 X86.056 Y91.935 E14.83029
G1 X134.126 Y91.935 E16.4291
G1 X134.9 Y91.945 E16.45485
G1 X135.801 Y91.998 E16.48487
G1 X137.09 Y92.135 E16.52798
G1 X138.05 Y92.262 E16.56019
G1 X138.939 Y92.42 E16.59022
G1 X140.023 Y92.726 E16.62768
G1 X140.725 Y92.975 E16.65246
G1 X142.154 Y93.527 E16.70341
G1 X142.982 Y93.89 E16.73348
G1 X144.028 Y94.483 E16.77347
G1 X144.617 Y94.873 E16.79697
G1 X145.886 Y95.761 E16.84848
G1 X146.602 Y96.311 E16.87851
G1 X147.473 Y97.136 E16.91841
G1 X147.933 Y97.631 E16.94089
G1 X148.448 Y98.212 E16.96671
G1 X149.028 Y98.884 E16.99624
G1 X149.586 Y99.593 E17.02624
G1 X150.198 Y100.555 E17.06417
G1 X150.5 Y101.101 E17.08492
G1 X150.885 Y101.835 E17.11249
G1 X151.272 Y102.597 E17.14091
G1 X151.645 Y103.42 E17.17097
G1 X151.992 Y104.441 E17.20683
G1 X152.165 Y105.075 E17.22869
G1 X152.38 Y105.945 E17.2585
G1 X152.568 Y106.754 E17.28612
G1 X152.732 Y107.642 E17.31616
G1 X152.826 Y108.757 E17.35337
G1 X152.84 Y109.398 E17.3747
G1 X152.839 Y110.354 E17.40649
G1 X152.829 Y111.082 E17.43071
G1 X152.777 Y111.984 E17.46076
G1 X152.602 Y113.085 E17.49784
G1 X152.459 Y113.734 E17.51994
G1 X152.257 Y114.558 E17.54816
G1 X152.041 Y115.383 E17.57652
G1 X151.772 Y116.246 E17.60659
G1 X151.354 Y117.238 E17.64239
G1 X151.082 Y117.788 E17.6628
G1 X150.655 Y118.603 E17.6934
G1 X150.273 Y119.309 E17.7201
G1 X149.808 Y120.083 E17.75013
G1 X149.243 Y120.853 E17.7819
G1 X148.756 Y121.44 E17.80727
G1 X148.138 Y122.138 E17.83828
G1 X147.585 Y122.746 E17.86561
G1 X146.947 Y123.386 E17.89567
G1 X146.123 Y124.067 E17.93122
G1 X145.565 Y124.473 E17.95417
G1 X144.723 Y125.052 E17.98816
G1 X144.144 Y125.439 E18.01132
G1 X143.372 Y125.907 E18.04135
G1 X142.367 Y126.388 E18.07841
G1 X141.777 Y126.625 E18.09956
G1 X140.297 Y127.178 E18.15211
G1 X139.438 Y127.456 E18.18213
G1 X138.258 Y127.707 E18.22226
G1 X137.581 Y127.806 E18.24502
G1 X136.737 Y127.909 E18.2733
G1 X135.983 Y127.99 E18.29852
G1 X135.098 Y128.045 E18.32801
G1 X133.944 Y128.065 E18.3664
G1 X85.728 Y128.064 E19.97007
G1 X85.1 Y128.055 E19.99096
G1 X84.199 Y128.002 E20.02098
G1 X82.91 Y127.865 E20.06409
G1 X81.95 Y127.738 E20.0963
G1 X81.061 Y127.58 E20.12633
G1 X79.977 Y127.274 E20.16379
G1 X79.328 Y127.045 E20.18668
G1 X78.375 Y126.682 E20.2206
G1 X77.757 Y126.437 E20.24271
G1 X76.933 Y126.067 E20.27276
G1 X75.968 Y125.514 E20.30975
G1 X75.475 Y125.19 E20.32937
G1 X74.719 Y124.669 E20.35991
G1 X74.04 Y124.186 E20.38762
G1 X73.329 Y123.63 E20.41764
G1 X72.541 Y122.879 E20.45385
G1 X72.063 Y122.365 E20.47719
G1 X71.522 Y121.754 E20.50434
G1 X70.971 Y121.115 E20.5324
G1 X70.413 Y120.405 E20.56243
G1 X69.816 Y119.47 E20.59933
G1 X69.52 Y118.936 E20.61964
G1 X69.102 Y118.14 E20.64954
G1 X68.722 Y117.39 E20.67751
G1 X68.35 Y116.567 E20.70755
G1 X68 Y115.532 E20.74389
G1 X67.826 Y114.89 E20.76601
G1 X67.584 Y113.907 E20.79968
G1 X67.432 Y113.25 E20.82211
G1 X67.268 Y112.362 E20.85214
G1 X67.174 Y111.243 E20.88949
G1 X67.16 Y110.602 E20.91082
G1 X67.161 Y109.6 E20.94414
G1 X67.172 Y108.894 E20.96763
G1 X67.226 Y107.993 E20.99765
G1 X67.393 Y106.935 E21.03327
G1 X67.545 Y106.249 E21.05664
G1 X67.783 Y105.287 E21.0896
G1 X67.956 Y104.627 E21.1123
G1 X68.224 Y103.764 E21.14235
G1 X68.652 Y102.748 E21.17902
G1 X68.918 Y102.212 E21.19892
G1 X69.345 Y101.397 E21.22953
G1 X69.727 Y100.691 E21.25622
G1 X70.192 Y99.917 E21.28626
G1 X70.757 Y99.147 E21.31802
G1 X71.244 Y98.56 E21.34339
G1 X71.862 Y97.862 E21.3744
G1 X72.415 Y97.254 E21.40173
G1 X73.053 Y96.614 E21.43179
G1 X73.877 Y95.933 E21.46734
G1 F1500 E14.96734
;MESH:SmallHandle.stl
G0 F6000 X79.615 Y103.539
G0 X85.205 Y117.265
;TYPE:WALL-INNER
G1 F1500 E21.46734
G1 F1200 X134.795 Y117.265 E23.11671
G1 X136.573 Y117.049 E23.17629
G1 X138.206 Y116.428 E23.23439
G1 X139.65 Y115.433 E23.29272
G1 X140.806 Y114.127 E23.35073
G1 X141.62 Y112.576 E23.40899
G1 X142.04 Y110.872 E23.46736
G1 X142.04 Y109.128 E23.52537
G1 X141.62 Y107.424 E23.58374
G1 X140.806 Y105.873 E23.642
G1 X139.65 Y104.567 E23.70001
G1 X138.206 Y103.572 E23.75833
G1 X136.573 Y102.951 E23.81644
G1 X134.795 Y102.736 E23.87601
G1 X85.205 Y102.735 E25.52538
G1 X83.427 Y102.951 E25.58495
G1 X81.794 Y103.572 E25.64306
G1 X80.35 Y104.567 E25.70138
G1 X79.194 Y105.873 E25.75939
G1 X78.38 Y107.424 E25.81765
G1 X77.96 Y109.128 E25.87602
G1 X77.96 Y110.872 E25.93403
G1 X78.38 Y112.576 E25.9924
G1 X79.194 Y114.127 E26.05066
G1 X80.35 Y115.433 E26.10867
G1 X81.794 Y116.428 E26.167
G1 X83.427 Y117.049 E26.2251
G1 X85.205 Y117.265 E26.28468
G0 F6000 X85.181 Y117.665
;TYPE:WALL-OUTER
G1 F1200 X134.819 Y117.665 E27.93564
G1 X136.669 Y117.44 E27.99763
G1 X138.394 Y116.785 E28.059
G1 X139.917 Y115.735 E28.12052
G1 X141.138 Y114.356 E28.18179
G1 X141.997 Y112.719 E28.24327
G1 X142.44 Y110.92 E28.3049
G1 X142.44 Y109.08 E28.36609
G1 X141.997 Y107.281 E28.42772
G1 X141.138 Y105.644 E28.4892
G1 X139.917 Y104.265 E28.55046
G1 X138.394 Y103.215 E28.61199
G1 X136.669 Y102.56 E28.67336
G1 X134.819 Y102.336 E28.73534
G1 X85.181 Y102.335 E30.38631
G1 X83.331 Y102.56 E30.44829
G1 X81.606 Y103.215 E30.50966
G1 X80.083 Y104.265 E30.57119
G1 X78.862 Y105.644 E30.63245
G1 X78.003 Y107.281 E30.69394
G1 X77.56 Y109.08 E30.75556
G1 X77.56 Y110.92 E30.81676
G1 X78.003 Y112.719 E30.87838
G1 X78.862 Y114.356 E30.93987
G1 X80.083 Y115.735 E31.00113
G1 X81.606 Y116.785 E31.06266
G1 X83.331 Y117.44 E31.12403
G1 X85.181 Y117.665 E31.18601
G1 F1500 E24.68601
G0 F6000 X85.211 Y117.164
G0 X94.962 Y117.065
G0 X94.596 Y115.775
G0 X94.943 Y115.366
;TYPE:WALL-INNER
G1 F1500 E31.18601
G1 F1200 X94.745 Y115.535 E31.19467
G1 X94.543 Y115.605 E31.20178
G1 X84.379 Y115.601 E31.53984
G1 X84.115 Y115.502 E31.54922
G1 X83.923 Y115.29 E31.55873
G1 X83.854 Y115.056 E31.56684
G1 X83.852 Y104.995 E31.90147
G1 X83.923 Y104.71 E31.91124
G1 X84.115 Y104.498 E31.92076
G1 X84.379 Y104.399 E31.93013
G1 X94.462 Y104.395 E32.2655
G1 X94.745 Y104.465 E32.27519
G1 X94.943 Y104.634 E32.28385
G1 X95.062 Y104.872 E32.2927
G1 X95.062 Y105.795 E32.3234
G1 X94.997 Y105.983 E32.33002
G1 X94.762 Y106.23 E32.34136
G1 X94.549 Y106.31 E32.34892
G1 X86.482 Y106.31 E32.61723
G1 X86.482 Y113.69 E32.86269
G1 X94.541 Y113.69 E33.13074
G1 X94.828 Y113.814 E33.14113
G1 X94.997 Y114.017 E33.14992
G1 X95.062 Y114.205 E33.15654
G1 X95.062 Y115.128 E33.18723
G1 X94.943 Y115.366 E33.19609
G0 F6000 X94.623 Y115.126
;TYPE:WALL-OUTER
G1 F1200 X94.497 Y115.203 E33.201
G1 X84.427 Y115.204 E33.53593
G1 X84.339 Y115.171 E33.53905
G1 X84.252 Y115.022 E33.54479
G1 X84.252 Y104.995 E33.87829
G1 X84.275 Y104.9 E33.88154
G1 X84.427 Y104.796 E33.88767
G1 X94.539 Y104.795 E34.22399
G1 X94.662 Y104.952 E34.23063
G1 X94.659 Y105.748 E34.2571
G1 X94.614 Y105.842 E34.26057
G1 X94.5 Y105.907 E34.26493
G1 X86.082 Y105.91 E34.54492
G1 X86.082 Y114.09 E34.81698
G1 X94.5 Y114.093 E35.09697
G1 X94.614 Y114.158 E35.10133
G1 X94.659 Y114.252 E35.1048
G1 X94.662 Y115.048 E35.13127
G1 X94.623 Y115.126 E35.13418
