;FLAVOR:Marlin
;TIME:17404
;Filament used: 18.3822m
;Layer height: 0.28
;MINX:34
;MINY:69
;MINZ:0.28
;MAXX:186
;MAXY:151
;MAXZ:22.68
;Generated with Cura_SteamEngine 5.2.1
M82 ;absolute extrusion mode
; Ender 3 Custom Start G-code
G92 E0 ; Reset Extruder
G28 ; Home all axes
M104 S175 ; Start heating up the nozzle most of the way
M190 S60 ; Start heating the bed, wait until target temperature reached
M109 S200 ; Finish heating the nozzle
G1 Z2.0 F3000 ; Move Z Axis up little to prevent scratching of Heat Bed
G1 X0.1 Y20 Z0.3 F5000.0 ; Move to start position
G1 X0.1 Y200.0 Z0.3 F1500.0 E15 ; Draw the first line
G1 X0.4 Y200.0 Z0.3 F5000.0 ; Move to side a little
G1 X0.4 Y20 Z0.3 F1500.0 E30 ; Draw the second line
G92 E0 ; Reset Extruder
G1 Z2.0 F3000 ; Move Z Axis up little to prevent scratching of Heat Bed
G1 X5 Y20 Z0.3 F5000.0 ; Move over to prevent blob squish
G92 E0
G92 E0
G1 F1500 E-6.5
;LAYER_COUNT:81
;LAYER:0
M107
G0 F6000 X39.412 Y70.539 Z0.28
;TYPE:SKIRT
G1 F1500 E0
G1 F1200 X40.239 Y70.097 E0.04366
G1 X41.101 Y69.727 E0.08734
G1 X41.991 Y69.431 E0.13102
G1 X42.903 Y69.213 E0.17468
G1 X43.83 Y69.072 E0.21834
G1 X44.701 Y69.013 E0.25899
G1 X45.33 Y69 E0.28829
G1 X104.446 Y69.001 E3.04098
G1 X105.164 Y69.011 E3.07441
G1 X106.121 Y69.047 E3.11901
G1 X108.759 Y69.122 E3.24189
G1 X111.248 Y69.122 E3.35779
G1 X113.823 Y69.049 E3.47774
G1 X114.18 Y69.031 E3.49439
G1 X115.33 Y69 E3.54795
G1 X174.451 Y69.001 E6.30087
G1 X175.149 Y69.011 E6.33338
G1 X176.085 Y69.065 E6.37704
G1 X177.013 Y69.197 E6.42068
G1 X177.927 Y69.409 E6.46437
G1 X178.819 Y69.698 E6.50803
G1 X179.684 Y70.061 E6.55171
G1 X180.514 Y70.497 E6.59537
G1 X181.305 Y71.002 E6.63907
G1 X182.049 Y71.573 E6.68274
G1 X182.742 Y72.205 E6.72641
G1 X183.379 Y72.893 E6.77007
G1 X183.954 Y73.634 E6.81375
G1 X184.465 Y74.42 E6.8574
G1 X184.907 Y75.248 E6.9011
G1 X185.276 Y76.11 E6.94477
G1 X185.571 Y77 E6.98843
G1 X185.789 Y77.912 E7.03209
G1 X185.929 Y78.84 E7.07579
G1 X185.987 Y79.701 E7.11597
G1 X186 Y80.33 E7.14527
G1 X185.999 Y139.4 E9.89581
G1 X185.99 Y140.127 E9.92967
G1 X185.939 Y141.064 E9.97336
G1 X185.807 Y141.992 E10.01701
G1 X185.598 Y142.906 E10.06067
G1 X185.311 Y143.799 E10.10434
G1 X184.949 Y144.665 E10.14805
G1 X184.515 Y145.496 E10.1917
G1 X184.011 Y146.287 E10.23538
G1 X183.442 Y147.032 E10.27903
G1 X182.811 Y147.727 E10.32274
G1 X182.124 Y148.365 E10.3664
G1 X181.385 Y148.942 E10.41005
G1 X180.599 Y149.454 E10.45373
G1 X179.773 Y149.897 E10.49738
G1 X178.911 Y150.269 E10.54109
G1 X178.022 Y150.565 E10.58472
G1 X177.11 Y150.785 E10.62841
G1 X176.183 Y150.926 E10.67207
G1 X175.299 Y150.987 E10.71333
G1 X174.67 Y151 E10.74263
G1 X115.554 Y150.999 E13.49531
G1 X114.837 Y150.989 E13.5287
G1 X113.879 Y150.953 E13.57334
G1 X111.241 Y150.878 E13.69623
G1 X108.753 Y150.878 E13.81208
G1 X106.179 Y150.951 E13.93199
G1 X105.821 Y150.969 E13.94868
G1 X104.67 Y151 E14.00229
G1 X45.565 Y150.999 E16.75447
G1 X44.867 Y150.99 E16.78697
G1 X43.931 Y150.938 E16.83062
G1 X43.002 Y150.806 E16.87432
G1 X42.088 Y150.596 E16.91799
G1 X41.195 Y150.309 E16.96166
G1 X40.33 Y149.946 E17.00534
G1 X39.499 Y149.512 E17.049
G1 X38.708 Y149.008 E17.09267
G1 X37.963 Y148.438 E17.13635
G1 X37.269 Y147.807 E17.18003
G1 X36.632 Y147.12 E17.22365
G1 X36.055 Y146.38 E17.26734
G1 X35.543 Y145.594 E17.31102
G1 X35.1 Y144.767 E17.35471
G1 X34.729 Y143.906 E17.39837
G1 X34.433 Y143.016 E17.44204
G1 X34.214 Y142.104 E17.48571
G1 X34.073 Y141.177 E17.52937
G1 X34.013 Y140.288 E17.57086
G1 X34 Y139.658 E17.60021
G1 X34.001 Y80.525 E20.35369
G1 X34.01 Y79.86 E20.38465
G1 X34.063 Y78.924 E20.42831
G1 X34.195 Y77.995 E20.472
G1 X34.406 Y77.081 E20.51568
G1 X34.694 Y76.189 E20.55933
G1 X35.057 Y75.324 E20.60301
G1 X35.492 Y74.493 E20.64668
G1 X35.996 Y73.703 E20.69032
G1 X36.566 Y72.958 E20.734
G1 X37.198 Y72.264 E20.7777
G1 X37.886 Y71.627 E20.82136
G1 X38.626 Y71.051 E20.86503
G1 X39.412 Y70.539 E20.90871
G0 F6000 X39.791 Y70.782
G1 F1200 X40.611 Y70.364 E20.95157
G1 X41.465 Y70.019 E20.99445
G1 X42.345 Y69.749 E21.03732
G1 X43.245 Y69.557 E21.08017
G1 X44.159 Y69.443 E21.12306
G1 X44.712 Y69.413 E21.14884
G1 X45.33 Y69.4 E21.17763
G1 X104.441 Y69.401 E23.93008
G1 X105.159 Y69.411 E23.96352
G1 X106.092 Y69.447 E24.007
G1 X108.748 Y69.522 E24.13072
G1 X111.259 Y69.522 E24.24764
G1 X113.854 Y69.449 E24.36852
G1 X114.433 Y69.421 E24.39552
G1 X115.33 Y69.4 E24.4373
G1 X174.445 Y69.401 E27.18994
G1 X175.143 Y69.411 E27.22244
G1 X176.062 Y69.464 E27.26531
G1 X176.973 Y69.597 E27.30818
G1 X177.869 Y69.808 E27.35104
G1 X178.743 Y70.096 E27.39389
G1 X179.59 Y70.459 E27.4368
G1 X180.401 Y70.894 E27.47965
G1 X181.171 Y71.398 E27.5225
G1 X181.895 Y71.967 E27.56538
G1 X182.567 Y72.597 E27.60827
G1 X183.182 Y73.282 E27.65114
G1 X183.735 Y74.018 E27.694
G1 X184.222 Y74.799 E27.73686
G1 X184.639 Y75.62 E27.77974
G1 X184.984 Y76.474 E27.82263
G1 X185.253 Y77.354 E27.86548
G1 X185.445 Y78.255 E27.90837
G1 X185.558 Y79.168 E27.95121
G1 X185.587 Y79.712 E27.97658
G1 X185.6 Y80.33 E28.00536
G1 X185.599 Y139.395 E30.75567
G1 X185.59 Y140.122 E30.78953
G1 X185.539 Y141.041 E30.83239
G1 X185.408 Y141.953 E30.87529
G1 X185.198 Y142.849 E30.91814
G1 X184.912 Y143.724 E30.96101
G1 X184.551 Y144.571 E31.00388
G1 X184.117 Y145.383 E31.04675
G1 X183.615 Y146.155 E31.08963
G1 X183.047 Y146.88 E31.13252
G1 X182.419 Y147.553 E31.17538
G1 X181.735 Y148.169 E31.21824
G1 X181 Y148.723 E31.2611
G1 X180.22 Y149.212 E31.30397
G1 X179.4 Y149.631 E31.34684
G1 X178.547 Y149.977 E31.38971
G1 X177.667 Y150.248 E31.43258
G1 X176.767 Y150.441 E31.47544
G1 X175.853 Y150.556 E31.51834
G1 X175.288 Y150.587 E31.54469
G1 X174.67 Y150.6 E31.57347
G1 X115.559 Y150.599 E34.32593
G1 X114.842 Y150.589 E34.35931
G1 X113.908 Y150.553 E34.40284
G1 X111.252 Y150.478 E34.52656
G1 X108.742 Y150.478 E34.64344
G1 X106.148 Y150.551 E34.76427
G1 X105.567 Y150.579 E34.79136
G1 X104.67 Y150.6 E34.83314
G1 X45.57 Y150.599 E37.58508
G1 X44.872 Y150.59 E37.61759
G1 X43.953 Y150.538 E37.66045
G1 X43.042 Y150.407 E37.7033
G1 X42.146 Y150.197 E37.74616
G1 X41.271 Y149.91 E37.78903
G1 X40.424 Y149.548 E37.83193
G1 X39.612 Y149.114 E37.8748
G1 X38.841 Y148.612 E37.91764
G1 X38.116 Y148.044 E37.96052
G1 X37.443 Y147.415 E38.00342
G1 X36.828 Y146.731 E38.04625
G1 X36.274 Y145.996 E38.08911
G1 X35.786 Y145.215 E38.13199
G1 X35.367 Y144.395 E38.17487
G1 X35.021 Y143.542 E38.21773
G1 X34.751 Y142.662 E38.26059
G1 X34.558 Y141.761 E38.3035
G1 X34.444 Y140.848 E38.34634
G1 X34.413 Y140.277 E38.37297
G1 X34.4 Y139.658 E38.4018
G1 X34.401 Y80.531 E41.155
G1 X34.41 Y79.866 E41.18597
G1 X34.462 Y78.946 E41.22887
G1 X34.594 Y78.035 E41.27174
G1 X34.805 Y77.139 E41.3146
G1 X35.092 Y76.264 E41.35748
G1 X35.455 Y75.418 E41.40035
G1 X35.889 Y74.606 E41.44322
G1 X36.392 Y73.835 E41.48608
G1 X36.961 Y73.111 E41.52896
G1 X37.589 Y72.439 E41.57179
G1 X38.274 Y71.823 E41.61469
G1 X39.01 Y71.27 E41.65755
G1 X39.791 Y70.782 E41.70044
G0 F6000 X40.169 Y71.031
G1 F1200 X40.982 Y70.638 E41.74248
G1 X41.827 Y70.318 E41.78456
G1 X42.696 Y70.075 E41.82657
G1 X43.584 Y69.909 E41.86864
G1 X44.723 Y69.813 E41.92186
G1 X45.33 Y69.8 E41.95013
G1 X104.435 Y69.801 E44.70231
G1 X105.445 Y69.819 E44.74935
G1 X106.133 Y69.848 E44.78141
G1 X108.737 Y69.922 E44.90271
G1 X111.27 Y69.922 E45.02066
G1 X113.841 Y69.849 E45.14043
G1 X114.445 Y69.821 E45.16858
G1 X115.33 Y69.8 E45.2098
G1 X174.439 Y69.801 E47.96216
G1 X175.137 Y69.811 E47.99467
G1 X176.039 Y69.864 E48.03674
G1 X176.932 Y69.996 E48.07878
G1 X177.81 Y70.207 E48.12082
G1 X178.666 Y70.495 E48.16288
G1 X179.493 Y70.857 E48.20491
G1 X180.285 Y71.292 E48.24699
G1 X181.036 Y71.794 E48.28905
G1 X181.739 Y72.361 E48.33111
G1 X182.389 Y72.988 E48.37316
G1 X182.981 Y73.67 E48.41521
G1 X183.511 Y74.401 E48.45726
G1 X183.973 Y75.177 E48.49931
G1 X184.366 Y75.99 E48.54136
G1 X184.684 Y76.835 E48.5834
G1 X184.927 Y77.705 E48.62546
G1 X185.092 Y78.593 E48.66752
G1 X185.187 Y79.723 E48.72032
G1 X185.2 Y80.33 E48.74859
G1 X185.199 Y139.39 E51.49867
G1 X185.19 Y140.117 E51.53253
G1 X185.139 Y141.019 E51.57459
G1 X185.008 Y141.913 E51.61667
G1 X184.799 Y142.791 E51.65869
G1 X184.513 Y143.648 E51.70076
G1 X184.152 Y144.476 E51.74282
G1 X183.72 Y145.268 E51.78483
G1 X183.219 Y146.02 E51.82691
G1 X182.653 Y146.724 E51.86897
G1 X182.028 Y147.375 E51.91099
G1 X181.347 Y147.969 E51.95307
G1 X180.616 Y148.5 E51.99514
G1 X179.842 Y148.964 E52.03716
G1 X179.029 Y149.358 E52.07923
G1 X178.185 Y149.678 E52.12126
G1 X177.315 Y149.923 E52.16334
G1 X176.428 Y150.089 E52.20536
G1 X175.277 Y150.187 E52.25915
G1 X174.67 Y150.2 E52.28742
G1 X115.565 Y150.199 E55.0396
G1 X114.556 Y150.181 E55.08659
G1 X113.867 Y150.152 E55.1187
G1 X111.263 Y150.078 E55.24
G1 X108.73 Y150.078 E55.35795
G1 X106.162 Y150.151 E55.47758
G1 X105.555 Y150.179 E55.50587
G1 X104.67 Y150.2 E55.54709
G1 X45.575 Y150.199 E58.2988
G1 X44.877 Y150.19 E58.33131
G1 X43.976 Y150.139 E58.37333
G1 X43.082 Y150.007 E58.41541
G1 X42.204 Y149.798 E58.45743
G1 X41.347 Y149.511 E58.49952
G1 X40.52 Y149.15 E58.54154
G1 X39.727 Y148.717 E58.58361
G1 X38.976 Y148.216 E58.62564
G1 X38.272 Y147.65 E58.66771
G1 X37.621 Y147.024 E58.70976
G1 X37.028 Y146.343 E58.75181
G1 X36.498 Y145.612 E58.79385
G1 X36.034 Y144.837 E58.83591
G1 X35.64 Y144.024 E58.87798
G1 X35.32 Y143.18 E58.92001
G1 X35.076 Y142.31 E58.96208
G1 X34.91 Y141.422 E59.00415
G1 X34.813 Y140.267 E59.05812
G1 X34.8 Y139.658 E59.08648
G1 X34.801 Y80.536 E61.83945
G1 X34.81 Y79.871 E61.87042
G1 X34.862 Y78.969 E61.91249
G1 X34.994 Y78.076 E61.95452
G1 X35.204 Y77.198 E61.99656
G1 X35.491 Y76.341 E62.03865
G1 X35.853 Y75.514 E62.08068
G1 X36.286 Y74.722 E62.12271
G1 X36.788 Y73.971 E62.16477
G1 X37.355 Y73.267 E62.20687
G1 X37.981 Y72.617 E62.24889
G1 X38.662 Y72.024 E62.29093
G1 X39.394 Y71.494 E62.33302
G1 X40.169 Y71.031 E62.37505
G1 F1500 E55.87505
;MESH:cube.stl
G0 F6000 X45.42 Y79.335
G0 X104.4 Y139.4
;TYPE:WALL-INNER
G1 F1500 E62.37505
G1 F1200 X104.4 Y80.6 E65.11303
G1 X45.6 Y80.6 E67.851
G1 X45.6 Y139.4 E70.58898
G1 X104.4 Y139.4 E73.32695
G0 F6000 X104.8 Y139.8
;TYPE:WALL-OUTER
G1 F1200 X104.8 Y80.2 E76.10218
G1 X45.2 Y80.2 E78.8774
G1 X45.2 Y139.8 E81.65263
G1 X104.8 Y139.8 E84.42785
G0 F6000 X104.53 Y139.53
G0 X104.3 Y139.04
G0 X104.04 Y139.04
;TYPE:SKIN
G1 F1200 X104.04 Y80.96 E87.1323
G1 X45.96 Y80.96 E89.83675
G1 X45.96 Y139.04 E92.5412
G1 X104.04 Y139.04 E95.24564
G1 F1500 E88.74564
G0 F6000 X104.3 Y139.04
G0 X104.3 Y81.778
G1 F1500 E95.24564
G0 F6000 X103.84 Y81.778
G1 F1200 X103.221 Y81.159 E95.28641
G0 F6000 X102.655 Y81.159
G1 F1200 X103.84 Y82.343 E95.36441
G0 F6000 X103.84 Y82.909
G1 F1200 X102.089 Y81.159 E95.47968
G0 F6000 X101.524 Y81.159
G1 F1200 X103.84 Y83.475 E95.63219
G0 F6000 X103.84 Y84.041
G1 F1200 X100.958 Y81.159 E95.82198
G0 F6000 X100.392 Y81.159
G1 F1200 X103.84 Y84.606 E96.049
G0 F6000 X103.84 Y85.172
G1 F1200 X99.827 Y81.159 E96.31327
G0 F6000 X99.261 Y81.159
G1 F1200 X103.84 Y85.738 E96.6148
G0 F6000 X103.84 Y86.303
G1 F1200 X98.695 Y81.159 E96.95357
G0 F6000 X98.13 Y81.159
G1 F1200 X103.84 Y86.869 E97.32959
G0 F6000 X103.84 Y87.435
G1 F1200 X97.564 Y81.159 E97.74287
G0 F6000 X96.998 Y81.159
G1 F1200 X103.84 Y88 E98.1934
G0 F6000 X103.84 Y88.566
G1 F1200 X96.433 Y81.159 E98.68116
G0 F6000 X95.867 Y81.159
G1 F1200 X103.84 Y89.132 E99.2062
G0 F6000 X103.84 Y89.697
G1 F1200 X95.301 Y81.159 E99.76847
G0 F6000 X94.736 Y81.159
G1 F1200 X103.84 Y90.263 E100.36799
G0 F6000 X103.84 Y90.829
G1 F1200 X94.17 Y81.159 E101.00477
G0 F6000 X93.604 Y81.159
G1 F1200 X103.84 Y91.394 E101.6788
G0 F6000 X103.84 Y91.96
G1 F1200 X93.038 Y81.159 E102.39009
G0 F6000 X92.473 Y81.159
G1 F1200 X103.84 Y92.526 E103.13863
G0 F6000 X103.84 Y93.092
G1 F1200 X91.907 Y81.159 E103.92444
G0 F6000 X91.341 Y81.159
G1 F1200 X103.84 Y93.657 E104.74749
G0 F6000 X103.84 Y94.223
G1 F1200 X90.776 Y81.159 E105.60777
G0 F6000 X90.21 Y81.159
G1 F1200 X103.84 Y94.789 E106.50533
G0 F6000 X103.84 Y95.354
G1 F1200 X89.644 Y81.159 E107.44013
G0 F6000 X89.079 Y81.159
G1 F1200 X103.84 Y95.92 E108.41217
G0 F6000 X103.84 Y96.486
G1 F1200 X88.513 Y81.159 E109.42148
G0 F6000 X87.947 Y81.159
G1 F1200 X103.84 Y97.051 E110.46802
G0 F6000 X103.84 Y97.617
G1 F1200 X87.382 Y81.159 E111.55181
G0 F6000 X86.816 Y81.159
G1 F1200 X103.84 Y98.183 E112.67287
G0 F6000 X103.84 Y98.748
G1 F1200 X86.25 Y81.159 E113.83117
G0 F6000 X85.685 Y81.159
G1 F1200 X103.84 Y99.314 E115.02671
G0 F6000 X103.84 Y99.88
G1 F1200 X85.119 Y81.159 E116.25952
G0 F6000 X84.553 Y81.159
G1 F1200 X103.84 Y100.445 E117.52957
G0 F6000 X103.84 Y101.011
G1 F1200 X83.988 Y81.159 E118.83685
G0 F6000 X83.422 Y81.159
G1 F1200 X103.84 Y101.577 E120.18141
G0 F6000 X103.84 Y102.142
G1 F1200 X82.856 Y81.159 E121.56321
G0 F6000 X82.29 Y81.159
G1 F1200 X103.84 Y102.708 E122.98229
G0 F6000 X103.84 Y103.274
G1 F1200 X81.725 Y81.159 E124.4386
G0 F6000 X81.159 Y81.159
G1 F1200 X103.84 Y103.84 E125.93218
G0 F6000 X103.84 Y104.405
G1 F1200 X80.593 Y81.159 E127.463
G0 F6000 X80.028 Y81.159
G1 F1200 X103.84 Y104.971 E129.03106
G0 F6000 X103.84 Y105.537
G1 F1200 X79.462 Y81.159 E130.63639
G0 F6000 X78.896 Y81.159
G1 F1200 X103.84 Y106.102 E132.27897
G0 F6000 X103.84 Y106.668
G1 F1200 X78.331 Y81.159 E133.95878
G0 F6000 X77.765 Y81.159
G1 F1200 X103.84 Y107.234 E135.67586
G0 F6000 X103.84 Y107.799
G1 F1200 X77.199 Y81.159 E137.43018
G0 F6000 X76.634 Y81.159
G1 F1200 X103.84 Y108.365 E139.22174
G0 F6000 X103.84 Y108.931
G1 F1200 X76.068 Y81.159 E141.05058
G0 F6000 X75.502 Y81.159
G1 F1200 X103.84 Y109.496 E142.91665
G0 F6000 X103.84 Y110.062
G1 F1200 X74.937 Y81.159 E144.81996
G0 F6000 X74.371 Y81.159
G1 F1200 X103.84 Y110.628 E146.76055
G0 F6000 X103.84 Y111.193
G1 F1200 X73.805 Y81.159 E148.73837
G0 F6000 X73.239 Y81.159
G1 F1200 X103.84 Y111.759 E150.75346
G0 F6000 X103.84 Y112.325
G1 F1200 X72.674 Y81.159 E152.8058
G0 F6000 X72.108 Y81.159
G1 F1200 X103.84 Y112.891 E154.89541
G0 F6000 X103.84 Y113.456
G1 F1200 X71.542 Y81.159 E157.02225
G0 F6000 X70.977 Y81.159
G1 F1200 X103.84 Y114.022 E159.18634
G0 F6000 X103.84 Y114.588
G1 F1200 X70.411 Y81.159 E161.38769
G0 F6000 X69.845 Y81.159
G1 F1200 X103.84 Y115.153 E163.62629
G0 F6000 X103.84 Y115.719
G1 F1200 X69.28 Y81.159 E165.90212
G0 F6000 X68.714 Y81.159
G1 F1200 X103.84 Y116.285 E168.21523
G0 F6000 X103.84 Y116.85
G1 F1200 X68.148 Y81.159 E170.56558
G0 F6000 X67.583 Y81.159
G1 F1200 X103.84 Y117.416 E172.95316
G0 F6000 X103.84 Y117.982
G1 F1200 X67.017 Y81.159 E175.37802
G0 F6000 X66.451 Y81.159
G1 F1200 X103.84 Y118.547 E177.84012
G0 F6000 X103.84 Y119.113
G1 F1200 X65.886 Y81.159 E180.33945
G0 F6000 X65.32 Y81.159
G1 F1200 X103.84 Y119.679 E182.87606
G0 F6000 X103.84 Y120.244
G1 F1200 X64.754 Y81.159 E185.44991
G0 F6000 X64.189 Y81.159
G1 F1200 X103.84 Y120.81 E188.06099
G0 F6000 X103.84 Y121.376
G1 F1200 X63.623 Y81.159 E190.70935
G0 F6000 X63.057 Y81.159
G1 F1200 X103.84 Y121.941 E193.39495
G0 F6000 X103.84 Y122.507
G1 F1200 X62.491 Y81.159 E196.11782
G0 F6000 X61.926 Y81.159
G1 F1200 X103.84 Y123.073 E198.87793
G0 F6000 X103.84 Y123.639
G1 F1200 X61.36 Y81.159 E201.67531
G0 F6000 X60.794 Y81.159
G1 F1200 X103.84 Y124.204 E204.50993
G0 F6000 X103.84 Y124.77
G1 F1200 X60.229 Y81.159 E207.38178
G0 F6000 X59.663 Y81.159
G1 F1200 X103.84 Y125.336 E210.29092
G0 F6000 X103.84 Y125.901
G1 F1200 X59.097 Y81.159 E213.23729
G0 F6000 X58.532 Y81.159
G1 F1200 X103.84 Y126.467 E216.22089
G0 F6000 X103.84 Y127.033
G1 F1200 X57.966 Y81.159 E219.24178
G0 F6000 X57.4 Y81.159
G1 F1200 X103.84 Y127.598 E222.2999
G0 F6000 X103.84 Y128.164
G1 F1200 X56.835 Y81.159 E225.39526
G0 F6000 X56.269 Y81.159
G1 F1200 X103.84 Y128.73 E228.52789
G0 F6000 X103.84 Y129.295
G1 F1200 X55.703 Y81.159 E231.69776
G0 F6000 X55.138 Y81.159
G1 F1200 X103.84 Y129.861 E234.90487
G0 F6000 X103.84 Y130.427
G1 F1200 X54.572 Y81.159 E238.14925
G0 F6000 X54.006 Y81.159
G1 F1200 X103.84 Y130.992 E241.43087
G0 F6000 X103.84 Y131.558
G1 F1200 X53.441 Y81.159 E244.74973
G0 F6000 X52.875 Y81.159
G1 F1200 X103.84 Y132.124 E248.10586
G0 F6000 X103.84 Y132.69
G1 F1200 X52.309 Y81.159 E251.49927
G0 F6000 X51.743 Y81.159
