;FLAVOR:Marlin
;TIME:11027
;Filament used: 12.0415m
;Layer height: 0.28
;MINX:60.3
;MINY:60.3
;MINZ:0.28
;MAXX:159.7
;MAXY:159.7
;MAXZ:16.24
;Generated with Cura_SteamEngine 5.2.1
M82 ;absolute extrusion mode
; Ender 3 Custom Start G-code
G92 E0 ; Reset Extruder
G28 ; Home all axes
M104 S175 ; Start heating up the nozzle most of the way
M190 S60 ; Start heating the bed, wait until target temperature reached
M109 S200 ; Finish heating the nozzle
G1 Z2.0 F3000 ; Move Z Axis up little to prevent scratching of Heat Bed
G1 X0.1 Y20 Z0.3 F5000.0 ; Move to start position
G1 X0.1 Y200.0 Z0.3 F1500.0 E15 ; Draw the first line
G1 X0.4 Y200.0 Z0.3 F5000.0 ; Move to side a little
G1 X0.4 Y20 Z0.3 F1500.0 E30 ; Draw the second line
G92 E0 ; Reset Extruder
G1 Z2.0 F3000 ; Move Z Axis up little to prevent scratching of Heat Bed
G1 X5 Y20 Z0.3 F5000.0 ; Move over to prevent blob squish
G92 E0
G92 E0
G1 F1500 E-6.5
;LAYER_COUNT:58
;LAYER:0
M107
G0 F6000 X63.498 Y63.564 Z0.28
;TYPE:SKIRT
G1 F1500 E0
G1 F1200 X64.186 Y62.927 E0.04366
G1 X64.926 Y62.351 E0.08732
G1 X65.712 Y61.839 E0.131
G1 X66.539 Y61.397 E0.17467
G1 X67.401 Y61.027 E0.21835
G1 X68.291 Y60.731 E0.26202
G1 X69.203 Y60.513 E0.30568
G1 X70.13 Y60.372 E0.34935
G1 X71.001 Y60.313 E0.39
G1 X71.63 Y60.3 E0.41929
G1 X148.151 Y60.301 E3.98243
G1 X148.849 Y60.311 E4.01493
G1 X149.785 Y60.365 E4.05859
G1 X150.713 Y60.497 E4.10224
G1 X151.627 Y60.709 E4.14593
G1 X152.519 Y60.998 E4.18959
G1 X153.384 Y61.361 E4.23327
G1 X154.214 Y61.797 E4.27693
G1 X155.005 Y62.302 E4.32062
G1 X155.749 Y62.873 E4.36429
G1 X156.442 Y63.505 E4.40797
G1 X157.079 Y64.193 E4.45163
G1 X157.654 Y64.934 E4.4953
G1 X158.165 Y65.72 E4.53895
G1 X158.607 Y66.548 E4.58266
G1 X158.976 Y67.41 E4.62632
G1 X159.271 Y68.3 E4.66998
G1 X159.489 Y69.212 E4.71364
G1 X159.629 Y70.14 E4.75734
G1 X159.687 Y71.001 E4.79753
G1 X159.7 Y71.63 E4.82682
G1 X159.699 Y148.1 E8.38758
G1 X159.69 Y148.827 E8.42144
G1 X159.639 Y149.764 E8.46513
G1 X159.507 Y150.692 E8.50878
G1 X159.298 Y151.606 E8.55244
G1 X159.011 Y152.499 E8.59612
G1 X158.649 Y153.365 E8.63982
G1 X158.215 Y154.196 E8.68348
G1 X157.711 Y154.987 E8.72715
G1 X157.142 Y155.732 E8.7708
G1 X156.511 Y156.427 E8.81451
G1 X155.824 Y157.065 E8.85817
G1 X155.085 Y157.642 E8.90182
G1 X154.299 Y158.154 E8.9455
G1 X153.473 Y158.597 E8.98915
G1 X152.611 Y158.969 E9.03287
G1 X151.722 Y159.265 E9.0765
G1 X150.81 Y159.485 E9.12018
G1 X149.883 Y159.626 E9.16384
G1 X148.999 Y159.687 E9.2051
G1 X148.37 Y159.7 E9.2344
G1 X71.865 Y159.699 E12.79679
G1 X71.167 Y159.69 E12.8293
G1 X70.231 Y159.638 E12.87295
G1 X69.302 Y159.506 E12.91664
G1 X68.388 Y159.296 E12.96031
G1 X67.495 Y159.009 E13.00398
G1 X66.63 Y158.646 E13.04767
G1 X65.799 Y158.212 E13.09132
G1 X65.008 Y157.708 E13.13499
G1 X64.263 Y157.138 E13.17867
G1 X63.569 Y156.507 E13.22235
G1 X62.932 Y155.82 E13.26597
G1 X62.355 Y155.08 E13.30967
G1 X61.843 Y154.294 E13.35335
G1 X61.4 Y153.467 E13.39703
G1 X61.029 Y152.606 E13.44069
G1 X60.733 Y151.716 E13.48436
G1 X60.514 Y150.804 E13.52804
G1 X60.373 Y149.877 E13.5717
G1 X60.313 Y148.988 E13.61319
G1 X60.3 Y148.358 E13.64253
G1 X60.301 Y71.825 E17.20623
G1 X60.31 Y71.16 E17.23719
G1 X60.363 Y70.224 E17.28085
G1 X60.495 Y69.295 E17.32454
G1 X60.706 Y68.381 E17.36822
G1 X60.994 Y67.489 E17.41187
G1 X61.357 Y66.624 E17.45555
G1 X61.792 Y65.793 E17.49922
G1 X62.296 Y65.003 E17.54286
G1 X62.866 Y64.258 E17.58654
G1 X63.498 Y63.564 E17.63024
G0 F6000 X63.889 Y63.739
G1 F1200 X64.574 Y63.123 E17.67314
G1 X65.31 Y62.57 E17.71601
G1 X66.091 Y62.082 E17.75889
G1 X66.911 Y61.664 E17.80175
G1 X67.765 Y61.319 E17.84463
G1 X68.645 Y61.049 E17.8875
G1 X69.545 Y60.857 E17.93035
G1 X70.459 Y60.743 E17.97324
G1 X71.012 Y60.713 E17.99902
G1 X71.63 Y60.7 E18.02781
G1 X148.145 Y60.701 E21.59067
G1 X148.843 Y60.711 E21.62317
G1 X149.762 Y60.764 E21.66604
G1 X150.673 Y60.897 E21.7089
G1 X151.569 Y61.108 E21.75177
G1 X152.443 Y61.396 E21.79462
G1 X153.29 Y61.759 E21.83753
G1 X154.101 Y62.194 E21.88038
G1 X154.871 Y62.698 E21.92323
G1 X155.595 Y63.267 E21.96611
G1 X156.267 Y63.897 E22.009
G1 X156.882 Y64.582 E22.05187
G1 X157.435 Y65.318 E22.09473
G1 X157.922 Y66.099 E22.13759
G1 X158.339 Y66.92 E22.18047
G1 X158.684 Y67.774 E22.22336
G1 X158.953 Y68.654 E22.26621
G1 X159.145 Y69.555 E22.3091
G1 X159.258 Y70.468 E22.35194
G1 X159.287 Y71.012 E22.37731
G1 X159.3 Y71.63 E22.40609
G1 X159.299 Y148.095 E25.96662
G1 X159.29 Y148.822 E26.00047
G1 X159.239 Y149.741 E26.04333
G1 X159.108 Y150.653 E26.08624
G1 X158.898 Y151.549 E26.12909
G1 X158.612 Y152.424 E26.17195
G1 X158.251 Y153.271 E26.21483
G1 X157.817 Y154.083 E26.2577
G1 X157.315 Y154.855 E26.30058
G1 X156.747 Y155.58 E26.34346
G1 X156.119 Y156.253 E26.38632
G1 X155.435 Y156.869 E26.42919
G1 X154.7 Y157.423 E26.47204
G1 X153.92 Y157.912 E26.51491
G1 X153.1 Y158.331 E26.55779
G1 X152.247 Y158.677 E26.60065
G1 X151.367 Y158.948 E26.64353
G1 X150.467 Y159.141 E26.68639
G1 X149.553 Y159.256 E26.72928
G1 X148.988 Y159.287 E26.75563
G1 X148.37 Y159.3 E26.78442
G1 X71.87 Y159.299 E30.34658
G1 X71.172 Y159.29 E30.37908
G1 X70.253 Y159.238 E30.42194
G1 X69.342 Y159.107 E30.4648
G1 X68.446 Y158.897 E30.50765
G1 X67.571 Y158.61 E30.55053
G1 X66.724 Y158.248 E30.59342
G1 X65.912 Y157.814 E30.63629
G1 X65.141 Y157.312 E30.67913
G1 X64.416 Y156.744 E30.72202
G1 X63.743 Y156.115 E30.76491
G1 X63.128 Y155.431 E30.80774
G1 X62.574 Y154.696 E30.8506
G1 X62.086 Y153.915 E30.89348
G1 X61.667 Y153.095 E30.93636
G1 X61.321 Y152.242 E30.97922
G1 X61.051 Y151.362 E31.02209
G1 X60.858 Y150.461 E31.06499
G1 X60.744 Y149.548 E31.10783
G1 X60.713 Y148.977 E31.13446
G1 X60.7 Y148.358 E31.16329
G1 X60.701 Y71.831 E34.72671
G1 X60.71 Y71.166 E34.75768
G1 X60.762 Y70.246 E34.80058
G1 X60.894 Y69.335 E34.84345
G1 X61.105 Y68.439 E34.88631
G1 X61.392 Y67.564 E34.92919
G1 X61.755 Y66.718 E34.97206
G1 X62.189 Y65.906 E35.01493
G1 X62.692 Y65.135 E35.05779
G1 X63.261 Y64.411 E35.10067
G1 X63.889 Y63.739 E35.1435
G0 F6000 X64.281 Y63.917
G1 F1200 X64.962 Y63.324 E35.18555
G1 X65.694 Y62.794 E35.22763
G1 X66.469 Y62.331 E35.26967
G1 X67.282 Y61.938 E35.31171
G1 X68.127 Y61.618 E35.35379
G1 X68.996 Y61.375 E35.3958
G1 X69.884 Y61.209 E35.43787
G1 X71.023 Y61.113 E35.49109
G1 X71.63 Y61.1 E35.51936
G1 X148.139 Y61.101 E39.08194
G1 X148.837 Y61.111 E39.11445
G1 X149.739 Y61.164 E39.15652
G1 X150.632 Y61.296 E39.19856
G1 X151.51 Y61.507 E39.2406
G1 X152.366 Y61.795 E39.28266
G1 X153.193 Y62.157 E39.32469
G1 X153.985 Y62.592 E39.36677
G1 X154.736 Y63.094 E39.40883
G1 X155.439 Y63.661 E39.45089
G1 X156.089 Y64.288 E39.49294
G1 X156.681 Y64.97 E39.53499
G1 X157.211 Y65.701 E39.57704
G1 X157.673 Y66.477 E39.61909
G1 X158.066 Y67.29 E39.66114
G1 X158.384 Y68.135 E39.70318
G1 X158.627 Y69.005 E39.74524
G1 X158.792 Y69.893 E39.7873
G1 X158.887 Y71.023 E39.8401
G1 X158.9 Y71.63 E39.86837
G1 X158.899 Y148.09 E43.42867
G1 X158.89 Y148.817 E43.46252
G1 X158.839 Y149.719 E43.50459
G1 X158.708 Y150.613 E43.54666
G1 X158.499 Y151.491 E43.58869
G1 X158.213 Y152.348 E43.63076
G1 X157.852 Y153.176 E43.67282
G1 X157.42 Y153.968 E43.71483
G1 X156.919 Y154.72 E43.7569
G1 X156.353 Y155.424 E43.79896
G1 X155.728 Y156.075 E43.84099
G1 X155.047 Y156.669 E43.88306
G1 X154.316 Y157.2 E43.92514
G1 X153.542 Y157.664 E43.96716
G1 X152.729 Y158.058 E44.00922
G1 X151.885 Y158.378 E44.05125
G1 X151.015 Y158.623 E44.09334
G1 X150.128 Y158.789 E44.13536
G1 X148.977 Y158.887 E44.18915
G1 X148.37 Y158.9 E44.21742
G1 X71.875 Y158.899 E47.77935
G1 X71.177 Y158.89 E47.81185
G1 X70.276 Y158.839 E47.85387
G1 X69.382 Y158.707 E47.89595
G1 X68.504 Y158.498 E47.93798
G1 X67.647 Y158.211 E47.98006
G1 X66.82 Y157.85 E48.02208
G1 X66.027 Y157.417 E48.06415
G1 X65.276 Y156.916 E48.10619
G1 X64.572 Y156.35 E48.14825
G1 X63.921 Y155.724 E48.19031
G1 X63.328 Y155.043 E48.23235
G1 X62.798 Y154.312 E48.2744
G1 X62.334 Y153.537 E48.31646
G1 X61.94 Y152.724 E48.35853
G1 X61.62 Y151.88 E48.40056
G1 X61.376 Y151.01 E48.44263
G1 X61.21 Y150.122 E48.48469
G1 X61.113 Y148.967 E48.53867
G1 X61.1 Y148.358 E48.56703
G1 X61.101 Y71.836 E52.13021
G1 X61.11 Y71.171 E52.16118
G1 X61.162 Y70.269 E52.20325
G1 X61.294 Y69.376 E52.24529
G1 X61.504 Y68.498 E52.28732
G1 X61.791 Y67.641 E52.32941
G1 X62.153 Y66.814 E52.37144
G1 X62.586 Y66.022 E52.41347
G1 X63.088 Y65.271 E52.45554
G1 X63.655 Y64.567 E52.49763
G1 X64.281 Y63.917 E52.53965
G1 F1500 E46.03965
;MESH:mold2_use2.stl
G0 F6000 X71.72 Y70.635
G0 X71.9 Y148.1
;TYPE:WALL-INNER
G1 F1500 E52.53965
G1 F1200 X148.1 Y148.1 E56.08784
G1 X148.1 Y71.9 E59.63603
G1 X71.9 Y71.9 E63.18422
G1 X71.9 Y110 E64.95832
G1 X71.9 Y148.1 E66.73241
G0 F6000 X71.5 Y148.5
;TYPE:WALL-OUTER
G1 F1200 X148.5 Y148.5 E70.31786
G1 X148.5 Y71.5 E73.9033
G1 X71.5 Y71.5 E77.48874
G1 X71.5 Y110 E79.28146
G1 X71.5 Y148.5 E81.07418
G0 F6000 X71.77 Y148.23
G0 X72 Y147.74
G0 X72.26 Y147.74
;TYPE:SKIN
G1 F1200 X147.74 Y147.74 E84.58885
G1 X147.74 Y72.26 E88.10351
G1 X72.26 Y72.26 E91.61818
G1 X72.26 Y147.74 E95.13284
G0 F6000 X72.868 Y147.539
G1 F1200 X72.459 Y147.129 E95.15981
G0 F6000 X72.459 Y146.564
G1 F1200 X73.434 Y147.539 E95.22402
G0 F6000 X74 Y147.539
G1 F1200 X72.459 Y145.998 E95.32549
G0 F6000 X72.459 Y145.432
G1 F1200 X74.565 Y147.539 E95.46421
G0 F6000 X75.131 Y147.539
G1 F1200 X72.459 Y144.867 E95.64017
G0 F6000 X72.459 Y144.301
G1 F1200 X75.697 Y147.539 E95.85339
G0 F6000 X76.262 Y147.539
G1 F1200 X72.459 Y143.735 E96.10386
G0 F6000 X72.459 Y143.17
G1 F1200 X76.828 Y147.539 E96.39157
G0 F6000 X77.394 Y147.539
G1 F1200 X72.459 Y142.604 E96.71654
G0 F6000 X72.459 Y142.038
G1 F1200 X77.959 Y147.539 E97.07876
G0 F6000 X78.525 Y147.539
G1 F1200 X72.459 Y141.472 E97.47825
G0 F6000 X72.459 Y140.907
G1 F1200 X79.091 Y147.539 E97.91498
G0 F6000 X79.656 Y147.539
G1 F1200 X72.459 Y140.341 E98.38895
G0 F6000 X72.459 Y139.775
G1 F1200 X80.222 Y147.539 E98.90019
G0 F6000 X80.788 Y147.539
G1 F1200 X72.459 Y139.21 E99.44867
G0 F6000 X72.459 Y138.644
G1 F1200 X81.354 Y147.539 E100.03442
G0 F6000 X81.919 Y147.539
G1 F1200 X72.459 Y138.078 E100.65741
G0 F6000 X72.459 Y137.513
G1 F1200 X82.485 Y147.539 E101.31764
G0 F6000 X83.051 Y147.539
G1 F1200 X72.459 Y136.947 E102.01514
G0 F6000 X72.459 Y136.381
G1 F1200 X83.616 Y147.539 E102.74988
G0 F6000 X84.182 Y147.539
G1 F1200 X72.459 Y135.816 E103.52186
G0 F6000 X72.459 Y135.25
G1 F1200 X84.748 Y147.539 E104.33111
G0 F6000 X85.313 Y147.539
G1 F1200 X72.459 Y134.684 E105.1776
G0 F6000 X72.459 Y134.119
G1 F1200 X85.879 Y147.539 E106.06133
G0 F6000 X86.445 Y147.539
G1 F1200 X72.459 Y133.553 E106.98233
G0 F6000 X72.459 Y132.987
G1 F1200 X87.01 Y147.539 E107.94057
G0 F6000 X87.576 Y147.539
G1 F1200 X72.459 Y132.422 E108.93605
G0 F6000 X72.459 Y131.856
G1 F1200 X88.142 Y147.539 E109.96881
G0 F6000 X88.707 Y147.539
G1 F1200 X72.459 Y131.29 E111.0388
G0 F6000 X72.459 Y130.724
G1 F1200 X89.273 Y147.539 E112.14606
G0 F6000 X89.839 Y147.539
G1 F1200 X72.459 Y130.159 E113.29056
G0 F6000 X72.459 Y129.593
G1 F1200 X90.405 Y147.539 E114.47234
G0 F6000 X90.97 Y147.539
G1 F1200 X72.459 Y129.027 E115.69135
G0 F6000 X72.459 Y128.462
G1 F1200 X91.536 Y147.539 E116.9476
G0 F6000 X92.102 Y147.539
G1 F1200 X72.459 Y127.896 E118.24113
G0 F6000 X72.459 Y127.33
G1 F1200 X92.667 Y147.539 E119.57189
G0 F6000 X93.233 Y147.539
G1 F1200 X72.459 Y126.765 E120.9399
G0 F6000 X72.459 Y126.199
G1 F1200 X93.799 Y147.539 E122.34517
G0 F6000 X94.364 Y147.539
G1 F1200 X72.459 Y125.633 E123.78769
G0 F6000 X72.459 Y125.068
G1 F1200 X94.93 Y147.539 E125.26744
G0 F6000 X95.496 Y147.539
G1 F1200 X72.459 Y124.502 E126.78447
G0 F6000 X72.459 Y123.936
G1 F1200 X96.061 Y147.539 E128.33873
G0 F6000 X96.627 Y147.539
G1 F1200 X72.459 Y123.371 E129.93024
G0 F6000 X72.459 Y122.805
G1 F1200 X97.193 Y147.539 E131.55901
G0 F6000 X97.758 Y147.539
G1 F1200 X72.459 Y122.239 E133.22503
G0 F6000 X72.459 Y121.673
G1 F1200 X98.324 Y147.539 E134.92831
G0 F6000 X98.89 Y147.539
G1 F1200 X72.459 Y121.108 E136.66884
G0 F6000 X72.459 Y120.542
G1 F1200 X99.455 Y147.539 E138.44661
G0 F6000 X100.021 Y147.539
G1 F1200 X72.459 Y119.976 E140.26164
G0 F6000 X72.459 Y119.411
G1 F1200 X100.587 Y147.539 E142.11392
G0 F6000 X101.153 Y147.539
G1 F1200 X72.459 Y118.845 E144.00347
G0 F6000 X72.459 Y118.279
G1 F1200 X101.718 Y147.539 E145.93026
G0 F6000 X102.284 Y147.539
G1 F1200 X72.459 Y117.714 E147.89429
G0 F6000 X72.459 Y117.148
G1 F1200 X102.85 Y147.539 E149.89558
G0 F6000 X103.415 Y147.539
G1 F1200 X72.459 Y116.582 E151.93412
G0 F6000 X72.459 Y116.017
G1 F1200 X103.981 Y147.539 E154.0099
G0 F6000 X104.547 Y147.539
G1 F1200 X72.459 Y115.451 E156.12295
G0 F6000 X72.459 Y114.885
G1 F1200 X105.112 Y147.539 E158.27324
G0 F6000 X105.678 Y147.539
G1 F1200 X72.459 Y114.32 E160.46077
G0 F6000 X72.459 Y113.754
G1 F1200 X106.244 Y147.539 E162.68557
G0 F6000 X106.809 Y147.539
G1 F1200 X72.459 Y113.188 E164.94761
G0 F6000 X72.459 Y112.623
G1 F1200 X107.375 Y147.539 E167.24688
G0 F6000 X107.941 Y147.539
G1 F1200 X72.459 Y112.057 E169.58343
G0 F6000 X72.459 Y111.491
G1 F1200 X108.506 Y147.539 E171.95722
G0 F6000 X109.072 Y147.539
G1 F1200 X72.459 Y110.925 E174.36829
G0 F6000 X72.459 Y110.36
G1 F1200 X109.638 Y147.539 E176.81659
G0 F6000 X110.204 Y147.539
G1 F1200 X72.459 Y109.794 E179.30216
G0 F6000 X72.459 Y109.228
G1 F1200 X110.769 Y147.539 E181.82497
G0 F6000 X111.335 Y147.539
G1 F1200 X72.459 Y108.663 E184.38502
G0 F6000 X72.459 Y108.097
G1 F1200 X111.901 Y147.539 E186.98234
G0 F6000 X112.466 Y147.539
G1 F1200 X72.459 Y107.531 E189.61691
G0 F6000 X72.459 Y106.966
G1 F1200 X113.032 Y147.539 E192.28871
G0 F6000 X113.598 Y147.539
G1 F1200 X72.459 Y106.4 E194.99778
G0 F6000 X72.459 Y105.834
G1 F1200 X114.163 Y147.539 E197.74409
G0 F6000 X114.729 Y147.539
G1 F1200 X72.459 Y105.269 E200.52765
G0 F6000 X72.459 Y104.703
G1 F1200 X115.295 Y147.539 E203.34847
G0 F6000 X115.86 Y147.539
G1 F1200 X72.459 Y104.137 E206.20653
G0 F6000 X72.459 Y103.572
G1 F1200 X116.426 Y147.539 E209.10183
G0 F6000 X116.992 Y147.539
G1 F1200 X72.459 Y103.006 E212.03441
G0 F6000 X72.459 Y102.44
G1 F1200 X117.557 Y147.539 E215.00422
G0 F6000 X118.123 Y147.539
G1 F1200 X72.459 Y101.874 E218.01131
G0 F6000 X72.459 Y101.309
G1 F1200 X118.689 Y147.539 E221.05563
G0 F6000 X119.254 Y147.539
G1 F1200 X72.459 Y100.743 E224.1372
G0 F6000 X72.459 Y100.177
G1 F1200 X119.82 Y147.539 E227.25603
G0 F6000 X120.386 Y147.539
G1 F1200 X72.459 Y99.612 E230.41211
G0 F6000 X72.459 Y99.046
G1 F1200 X120.952 Y147.539 E233.60545
G0 F6000 X121.517 Y147.539
G1 F1200 X72.459 Y98.48 E236.83604
G0 F6000 X72.459 Y97.915
G1 F1200 X122.083 Y147.539 E240.10386
G0 F6000 X122.649 Y147.539
G1 F1200 X72.459 Y97.349 E243.40896
G0 F6000 X72.459 Y96.783
G1 F1200 X123.214 Y147.539 E246.7513
G0 F6000 X123.78 Y147.539
G1 F1200 X72.459 Y96.218 E250.13087
G0 F6000 X72.459 Y95.652
G1 F1200 X124.346 Y147.539 E253.54772
G0 F6000 X124.911 Y147.539
G1 F1200 X72.459 Y95.086 E257.00181
G0 F6000 X72.459 Y94.521
G1 F1200 X125.477 Y147.539 E260.49313
G0 F6000 X126.043 Y147.539
G1 F1200 X72.459 Y93.955 E264.02173
G0 F6000 X72.459 Y93.389
G1 F1200 X126.608 Y147.539 E267.58757
G0 F6000 X127.174 Y147.539
G1 F1200 X72.459 Y92.824 E271.19064
G0 F6000 X72.459 Y92.258
G1 F1200 X127.74 Y147.539 E274.83099
G0 F6000 X128.305 Y147.539
G1 F1200 X72.459 Y91.692 E278.50858
G0 F6000 X72.459 Y91.126
G1 F1200 X128.871 Y147.539 E282.22344
G0 F6000 X129.437 Y147.539
G1 F1200 X72.459 Y90.561 E285.97554
G0 F6000 X72.459 Y89.995
G1 F1200 X130.002 Y147.539 E289.76488
G0 F6000 X130.568 Y147.539
G1 F1200 X72.459 Y89.429 E293.59149
G0 F6000 X72.459 Y88.864
G1 F1200 X131.134 Y147.539 E297.45533
G0 F6000 X131.7 Y147.539
G1 F1200 X72.459 Y88.298 E301.35646
G0 F6000 X72.459 Y87.732
G1 F1200 X132.265 Y147.539 E305.29482
G0 F6000 X132.831 Y147.539
G1 F1200 X72.459 Y87.167 E309.27041
G0 F6000 X72.459 Y86.601
G1 F1200 X133.397 Y147.539 E313.28329
G0 F6000 X133.962 Y147.539
G1 F1200 X72.459 Y86.035 E317.3334
G0 F6000 X72.459 Y85.47
G1 F1200 X134.528 Y147.539 E321.42075
G0 F6000 X135.094 Y147.539
G1 F1200 X72.459 Y84.904 E325.54537
G0 F6000 X72.459 Y84.338
G1 F1200 X135.659 Y147.539 E329.70723
